; GCode generated by CraftWare

G28 X0 Y0
G28 Z0


M104 S250 ;set head temp (no wait)
M190 S100 ;set bed temp (wait)
M109 S250 ;set head temp (wait)
; ------------------------------------
; Layer #0
; ------------------------------------
G21 ; mm
G90 ; abs
G92 E0 ;reset extr
G0 F600 Z0.200
;segType:Skirt
G0 F3000 E-1.0000
G0 X88.194 Y142.130 F5400
G0 F3000 E0.0000
G1 X86.120 Y140.056 E0.0976 F2400
G1 X84.046 Y137.981 E0.1951
G1 X83.528 Y137.463 E0.2195
G1 X83.333 Y137.139 E0.2321
G1 X83.074 Y136.880 E0.2443
G1 X82.879 Y136.556 E0.2568
G1 X82.620 Y136.296 E0.2690
G1 X82.426 Y135.972 E0.2816
G1 X82.167 Y135.713 E0.2938
G1 X81.972 Y135.389 E0.3064
G1 X81.713 Y135.130 E0.3186
G1 X81.519 Y134.806 E0.3311
G1 X81.259 Y134.547 E0.3433
G1 X81.065 Y134.222 E0.3559
G1 X80.546 Y133.704 E0.3803
G1 X80.157 Y133.056 E0.4054
G1 X79.639 Y132.537 E0.4298
G1 X79.509 Y132.148 E0.4435
G1 X79.250 Y131.889 E0.4556
G1 X79.120 Y131.500 E0.4693
G1 X78.861 Y131.241 E0.4815
G1 X78.731 Y130.852 E0.4951
G1 X78.472 Y130.593 E0.5073
G1 X78.342 Y130.204 E0.5209
G1 X78.083 Y129.944 E0.5331
G1 X77.953 Y129.556 E0.5468
G1 X77.694 Y129.296 E0.5590
G1 X77.565 Y128.907 E0.5726
G1 X77.305 Y128.648 E0.5848
G1 X77.176 Y128.259 E0.5984
G1 X76.916 Y128.000 E0.6106
G1 X76.787 Y127.611 E0.6243
G1 X76.528 Y127.352 E0.6365
G1 X76.398 Y126.963 E0.6501
G1 X76.139 Y126.704 E0.6623
G1 X76.139 Y126.444 E0.6709
G1 X75.750 Y125.796 E0.6960
G1 X75.490 Y125.019 E0.7233
G1 X75.102 Y124.370 E0.7485
G1 X75.102 Y124.111 E0.7571
G1 X74.713 Y123.463 E0.7822
G1 X74.583 Y123.074 E0.7958
G1 X74.453 Y122.944 E0.8019
G1 X74.453 Y122.685 E0.8106
G1 X74.065 Y122.037 E0.8357
G1 X73.805 Y121.259 E0.8630
G1 X73.611 Y120.935 E0.8755
G1 X73.222 Y119.769 E0.9164
G1 X73.157 Y119.315 E0.9317
G1 X73.028 Y119.185 E0.9378
G1 X73.028 Y118.926 E0.9464
G1 X72.898 Y118.796 E0.9525
G1 X72.898 Y118.537 E0.9611
G1 X72.768 Y118.407 E0.9672
G1 X72.768 Y118.148 E0.9759
G1 X72.639 Y118.019 E0.9819
G1 X72.574 Y117.565 E0.9972
G1 X72.185 Y116.398 E1.0381
G1 X72.120 Y115.944 E1.0533
G1 X71.990 Y115.815 E1.0594
G1 X71.990 Y115.556 E1.0681
G1 X71.861 Y115.426 E1.0742
G1 X71.861 Y115.167 E1.0828
G1 X71.731 Y115.037 E1.0889
G1 X71.731 Y114.778 E1.0975
G1 X71.602 Y114.648 E1.1036
G1 X71.472 Y113.741 E1.1341
G1 X71.342 Y113.352 E1.1477
G1 X71.342 Y112.833 E1.1650
G1 X71.213 Y112.704 E1.1711
G1 X71.213 Y112.185 E1.1883
G1 X71.083 Y112.056 E1.1944
G1 X71.083 Y111.537 E1.2117
G1 X70.953 Y111.148 E1.2253
G1 X70.824 Y110.241 E1.2558
G1 X70.824 Y109.981 E1.2644
G1 X70.694 Y109.852 E1.2705
G1 X70.694 Y109.333 E1.2877
G1 X70.565 Y109.204 E1.2938
G1 X70.565 Y108.685 E1.3111
G1 X70.435 Y108.296 E1.3247
G1 X70.435 Y107.778 E1.3420
G1 X70.305 Y107.648 E1.3481
G1 X70.305 Y105.574 E1.4170
G1 X70.176 Y105.444 E1.4231
G1 X70.176 Y103.370 E1.4921
G1 X70.046 Y103.241 E1.4982
G1 X70.046 Y99.093 E1.6362
G1 X70.046 Y97.019 E1.7052
G1 X70.176 Y96.889 E1.7113
G1 X70.176 Y94.815 E1.7803
G1 X70.305 Y94.685 E1.7864
G1 X70.305 Y93.130 E1.8381
G1 X70.435 Y92.222 E1.8686
G1 X70.435 Y91.704 E1.8858
G1 X70.565 Y91.315 E1.8995
G1 X70.694 Y90.407 E1.9299
G1 X70.694 Y90.148 E1.9386
G1 X70.824 Y90.019 E1.9447
G1 X70.824 Y89.500 E1.9619
G1 X70.953 Y89.370 E1.9680
G1 X70.953 Y88.852 E1.9853
G1 X71.083 Y88.463 E1.9989
G1 X71.213 Y87.556 E2.0294
G1 X71.342 Y87.167 E2.0430
G1 X71.342 Y86.648 E2.0603
G1 X71.472 Y86.519 E2.0664
G1 X71.472 Y86.000 E2.0836
G1 X71.602 Y85.870 E2.0897
G1 X71.667 Y85.416 E2.1049
G1 X71.796 Y85.028 E2.1186
G1 X71.861 Y84.574 E2.1338
G1 X71.990 Y84.444 E2.1399
G1 X71.990 Y84.185 E2.1485
G1 X72.120 Y84.056 E2.1546
G1 X72.120 Y83.796 E2.1633
G1 X72.250 Y83.667 E2.1694
G1 X72.250 Y83.407 E2.1780
G1 X72.379 Y83.278 E2.1841
G1 X72.379 Y83.019 E2.1927
G1 X72.509 Y82.889 E2.1988
G1 X72.574 Y82.435 E2.2140
G1 X73.222 Y80.490 E2.2822
G1 X73.287 Y80.037 E2.2975
G1 X73.416 Y79.907 E2.3036
G1 X73.416 Y79.648 E2.3122
G1 X73.546 Y79.519 E2.3183
G1 X73.546 Y79.259 E2.3269
G1 X73.741 Y78.935 E2.3395
G1 X73.870 Y78.546 E2.3531
G1 X74.065 Y78.222 E2.3657
G1 X74.194 Y77.833 E2.3793
G1 X74.324 Y77.704 E2.3854
G1 X74.324 Y77.444 E2.3940
G1 X74.713 Y76.796 E2.4192
G1 X74.842 Y76.407 E2.4328
G1 X74.972 Y76.278 E2.4389
G1 X74.972 Y76.019 E2.4475
G1 X75.361 Y75.370 E2.4727
G1 X75.620 Y74.593 E2.4999
G1 X76.009 Y73.944 E2.5251
G1 X76.268 Y73.167 E2.5523
G1 X76.657 Y72.519 E2.5775
G1 X76.916 Y72.259 E2.5897
G1 X77.046 Y71.870 E2.6033
G1 X77.305 Y71.611 E2.6155
G1 X77.435 Y71.222 E2.6291
G1 X77.694 Y70.963 E2.6413
G1 X77.824 Y70.574 E2.6550
G1 X78.083 Y70.315 E2.6672
G1 X78.213 Y69.926 E2.6808
G1 X78.472 Y69.667 E2.6930
G1 X80.028 Y67.074 E2.7935
G1 X80.546 Y66.556 E2.8179
G1 X80.935 Y65.907 E2.8431
G1 X81.453 Y65.389 E2.8675
G1 X81.648 Y65.065 E2.8800
G1 X81.907 Y64.805 E2.8922
G1 X82.102 Y64.481 E2.9048
G1 X82.361 Y64.222 E2.9170
G1 X82.556 Y63.898 E2.9296
G1 X82.815 Y63.639 E2.9418
G1 X83.009 Y63.315 E2.9543
G1 X83.268 Y63.056 E2.9665
G1 X83.463 Y62.731 E2.9791
G1 X85.537 Y60.657 E3.0767
G1 X86.056 Y60.139 E3.1011
G1 X86.250 Y59.815 E3.1136
G1 X88.324 Y57.741 E3.2112
G1 X90.398 Y55.667 E3.3087
G1 X91.953 Y54.111 E3.3819
G1 X92.278 Y53.916 E3.3945
G1 X92.537 Y53.657 E3.4067
G1 X92.861 Y53.463 E3.4192
G1 X93.120 Y53.204 E3.4314
G1 X93.444 Y53.009 E3.4440
G1 X93.963 Y52.490 E3.4684
G1 X94.611 Y52.102 E3.4935
G1 X95.130 Y51.583 E3.5179
G1 X95.453 Y51.389 E3.5305
G1 X95.713 Y51.130 E3.5427
G1 X96.037 Y50.935 E3.5553
G1 X96.296 Y50.676 E3.5675
G1 X96.620 Y50.481 E3.5800
G1 X96.879 Y50.222 E3.5922
G1 X97.204 Y50.028 E3.6048
G1 X97.463 Y49.768 E3.6170
G1 X100.056 Y48.213 E3.7175
G1 X102.648 Y46.657 E3.8181
G1 X103.296 Y46.268 E3.8432
G1 X104.074 Y46.009 E3.8705
G1 X104.722 Y45.620 E3.8957
G1 X105.500 Y45.361 E3.9229
G1 X106.148 Y44.972 E3.9481
G1 X106.407 Y44.972 E3.9567
G1 X107.056 Y44.583 E3.9818
G1 X107.833 Y44.324 E4.0091
G1 X108.481 Y43.935 E4.0342
G1 X109.259 Y43.676 E4.0615
G1 X109.389 Y43.546 E4.0676
G1 X109.842 Y43.481 E4.0828
G1 X111.009 Y43.093 E4.1237
G1 X111.463 Y43.028 E4.1390
G1 X111.593 Y42.898 E4.1451
G1 X111.852 Y42.898 E4.1537
G1 X111.981 Y42.768 E4.1598
G1 X112.241 Y42.768 E4.1684
G1 X112.370 Y42.639 E4.1745
G1 X112.630 Y42.639 E4.1832
G1 X112.759 Y42.509 E4.1893
G1 X113.213 Y42.444 E4.2045
G1 X114.379 Y42.056 E4.2454
G1 X114.833 Y41.990 E4.2606
G1 X114.963 Y41.861 E4.2667
G1 X115.222 Y41.861 E4.2754
G1 X115.352 Y41.731 E4.2815
G1 X115.611 Y41.731 E4.2901
G1 X115.741 Y41.602 E4.2962
G1 X116.259 Y41.602 E4.3134
G1 X116.648 Y41.472 E4.3271
G1 X117.556 Y41.342 E4.3575
G1 X117.815 Y41.342 E4.3662
G1 X117.944 Y41.213 E4.3723
G1 X118.463 Y41.213 E4.3895
G1 X118.593 Y41.083 E4.3956
G1 X119.111 Y41.083 E4.4129
G1 X119.241 Y40.953 E4.4190
G1 X119.759 Y40.953 E4.4362
G1 X120.148 Y40.824 E4.4498
G1 X121.056 Y40.694 E4.4803
G1 X121.315 Y40.694 E4.4889
G1 X121.444 Y40.565 E4.4950
G1 X121.963 Y40.565 E4.5123
G1 X122.093 Y40.435 E4.5184
G1 X124.167 Y40.435 E4.5874
G1 X124.296 Y40.305 E4.5935
G1 X125.852 Y40.305 E4.6452
G1 X126.759 Y40.176 E4.6757
G1 X128.315 Y40.176 E4.7274
G1 X128.704 Y40.046 E4.7411
G1 X130.778 Y40.046 E4.8100
G1 X131.685 Y40.176 E4.8405
G1 X133.241 Y40.176 E4.8923
G1 X133.370 Y40.305 E4.8984
G1 X135.444 Y40.305 E4.9673
G1 X135.574 Y40.435 E4.9734
G1 X137.648 Y40.435 E5.0424
G1 X138.037 Y40.565 E5.0561
G1 X138.944 Y40.694 E5.0866
G1 X139.204 Y40.694 E5.0952
G1 X139.333 Y40.824 E5.1013
G1 X139.852 Y40.824 E5.1185
G1 X139.981 Y40.953 E5.1246
G1 X140.500 Y40.953 E5.1419
G1 X140.889 Y41.083 E5.1555
G1 X141.796 Y41.213 E5.1860
G1 X142.056 Y41.213 E5.1946
G1 X142.185 Y41.342 E5.2007
G1 X142.704 Y41.342 E5.2180
G1 X142.833 Y41.472 E5.2240
G1 X143.352 Y41.472 E5.2413
G1 X143.481 Y41.602 E5.2474
G1 X144.000 Y41.602 E5.2646
G1 X144.389 Y41.731 E5.2783
G1 X144.648 Y41.731 E5.2869
G1 X144.778 Y41.861 E5.2930
G1 X145.037 Y41.861 E5.3016
G1 X145.167 Y41.990 E5.3077
G1 X145.426 Y41.990 E5.3163
G1 X145.556 Y42.120 E5.3224
G1 X145.815 Y42.120 E5.3311
G1 X145.944 Y42.250 E5.3372
G1 X146.204 Y42.250 E5.3458
G1 X146.333 Y42.379 E5.3519
G1 X146.593 Y42.379 E5.3605
G1 X146.722 Y42.509 E5.3666
G1 X147.176 Y42.574 E5.3818
G1 X148.732 Y43.093 E5.4364
G1 X149.185 Y43.157 E5.4516
G1 X149.315 Y43.287 E5.4577
G1 X149.574 Y43.287 E5.4663
G1 X149.704 Y43.416 E5.4724
G1 X149.963 Y43.416 E5.4811
G1 X150.093 Y43.546 E5.4872
G1 X150.352 Y43.546 E5.4958
G1 X150.481 Y43.676 E5.5019
G1 X150.741 Y43.676 E5.5105
G1 X150.870 Y43.805 E5.5166
G1 X151.130 Y43.805 E5.5252
G1 X151.778 Y44.194 E5.5504
G1 X152.556 Y44.453 E5.5776
G1 X153.204 Y44.842 E5.6028
G1 X153.981 Y45.102 E5.6300
G1 X154.630 Y45.490 E5.6552
G1 X154.889 Y45.490 E5.6638
G1 X155.537 Y45.879 E5.6889
G1 X155.926 Y46.009 E5.7026
G1 X156.056 Y46.139 E5.7087
G1 X156.315 Y46.139 E5.7173
G1 X158.907 Y47.694 E5.8179
G1 X161.500 Y49.250 E5.9184
G1 X162.472 Y49.833 E5.9561
G1 X162.732 Y50.093 E5.9683
G1 X163.056 Y50.287 E5.9809
G1 X163.315 Y50.546 E5.9931
G1 X163.639 Y50.741 E6.0057
G1 X163.898 Y51.000 E6.0179
G1 X164.222 Y51.194 E6.0304
G1 X164.481 Y51.453 E6.0426
G1 X164.806 Y51.648 E6.0552
G1 X165.065 Y51.907 E6.0674
G1 X165.389 Y52.102 E6.0800
G1 X165.907 Y52.620 E6.1043
G1 X166.556 Y53.009 E6.1295
G1 X167.074 Y53.528 E6.1539
G1 X167.398 Y53.722 E6.1665
G1 X169.472 Y55.796 E6.2640
G1 X169.732 Y56.056 E6.2762
G1 X170.056 Y56.250 E6.2888
G1 X172.130 Y58.324 E6.3863
G1 X174.204 Y60.398 E6.4839
G1 X175.759 Y61.953 E6.5570
G1 X175.954 Y62.278 E6.5696
G1 X176.472 Y62.796 E6.5940
G1 X176.667 Y63.120 E6.6066
G1 X176.926 Y63.379 E6.6188
G1 X177.121 Y63.704 E6.6314
G1 X177.380 Y63.963 E6.6436
G1 X177.574 Y64.287 E6.6561
G1 X177.833 Y64.546 E6.6683
G1 X178.028 Y64.870 E6.6809
G1 X178.287 Y65.130 E6.6931
G1 X178.481 Y65.453 E6.7056
G1 X178.741 Y65.713 E6.7178
G1 X178.935 Y66.037 E6.7304
G1 X179.195 Y66.296 E6.7426
G1 X179.389 Y66.620 E6.7552
G1 X179.648 Y66.879 E6.7674
G1 X179.843 Y67.204 E6.7799
G1 X180.102 Y67.463 E6.7921
G1 X181.658 Y70.056 E6.8927
G1 X183.213 Y72.648 E6.9933
G1 X183.796 Y73.620 E7.0310
G1 X183.926 Y74.009 E7.0446
G1 X184.121 Y74.333 E7.0572
G1 X184.250 Y74.722 E7.0708
G1 X184.380 Y74.852 E7.0769
G1 X184.380 Y75.111 E7.0855
G1 X184.769 Y75.759 E7.1107
G1 X185.028 Y76.537 E7.1379
G1 X185.417 Y77.185 E7.1631
G1 X185.676 Y77.963 E7.1903
G1 X186.065 Y78.611 E7.2155
G1 X186.065 Y78.870 E7.2241
G1 X186.259 Y79.194 E7.2367
G1 X186.778 Y80.750 E7.2912
G1 X186.843 Y81.204 E7.3065
G1 X186.972 Y81.333 E7.3126
G1 X186.972 Y81.593 E7.3212
G1 X187.102 Y81.722 E7.3273
G1 X187.102 Y81.981 E7.3359
G1 X187.232 Y82.111 E7.3420
G1 X187.232 Y82.370 E7.3506
G1 X187.361 Y82.500 E7.3567
G1 X187.426 Y82.953 E7.3720
G1 X187.815 Y84.120 E7.4129
G1 X187.880 Y84.574 E7.4281
G1 X188.009 Y84.704 E7.4342
G1 X188.009 Y84.963 E7.4428
G1 X188.139 Y85.093 E7.4489
G1 X188.139 Y85.352 E7.4575
G1 X188.269 Y85.481 E7.4636
G1 X188.398 Y86.389 E7.4941
G1 X188.528 Y86.778 E7.5078
G1 X188.528 Y87.296 E7.5250
G1 X188.658 Y87.426 E7.5311
G1 X188.658 Y87.944 E7.5484
G1 X188.787 Y88.074 E7.5545
G1 X188.787 Y88.593 E7.5717
G1 X188.917 Y88.981 E7.5853
G1 X189.047 Y89.889 E7.6158
G1 X189.176 Y90.278 E7.6295
G1 X189.176 Y90.796 E7.6467
G1 X189.306 Y90.926 E7.6528
G1 X189.306 Y91.444 E7.6700
G1 X189.435 Y91.574 E7.6761
G1 X189.435 Y92.352 E7.7020
G1 X189.565 Y92.481 E7.7081
G1 X189.565 Y94.556 E7.7771
G1 X189.695 Y94.685 E7.7832
G1 X189.695 Y96.241 E7.8349
G1 X189.824 Y97.148 E7.8654
G1 X189.824 Y101.296 E8.0034
G1 X189.824 Y103.111 E8.0637
G1 X189.695 Y103.241 E8.0698
G1 X189.695 Y105.315 E8.1388
G1 X189.565 Y105.444 E8.1449
G1 X189.565 Y107.000 E8.1967
G1 X189.435 Y107.907 E8.2271
G1 X189.435 Y108.426 E8.2444
G1 X189.306 Y108.815 E8.2580
G1 X189.176 Y109.722 E8.2885
G1 X189.047 Y110.111 E8.3021
G1 X189.047 Y110.630 E8.3194
G1 X188.950 Y110.727 E8.3240
G0 F3000 E7.3240
G0 X183.989 Y100.809 F5400
G0 F3000 E8.3240
;segType:HShell
G1 X129.191 Y46.011 E10.9015 F2400
G0 X129.300 Y45.458 F5400
;segType:Perimeter
G1 X130.059 Y45.204 E10.9281 F1439
G1 X136.606 Y45.601 E11.1462
G1 X143.115 Y46.793 E11.3663
G1 X149.432 Y48.762 E11.5864
G1 X155.466 Y51.477 E11.8065
G1 X161.130 Y54.902 E12.0266
G1 X166.339 Y58.982 E12.2467
G1 X171.018 Y63.661 E12.4668
G1 X175.099 Y68.871 E12.6869
G1 X178.522 Y74.533 E12.9069
G1 X181.239 Y80.569 E13.1271
G1 X183.207 Y86.885 E13.3471
G1 X184.399 Y93.394 E13.5672
G1 X184.799 Y100.001 E13.7874
G1 X184.400 Y106.606 E14.0075
G1 X183.207 Y113.114 E14.2275
G1 X181.238 Y119.431 E14.4476
G1 X178.522 Y125.467 E14.6677
G1 X175.099 Y131.129 E14.8878
G1 X171.018 Y136.339 E15.1079
G1 X166.339 Y141.018 E15.3280
G1 X161.130 Y145.098 E15.5481
G1 X155.466 Y148.523 E15.7682
G1 X149.432 Y151.238 E15.9883
G1 X143.114 Y153.207 E16.2084
G1 X136.605 Y154.400 E16.4285
G1 X130.000 Y154.799 E16.6486
G1 X123.395 Y154.400 E16.8687
G1 X116.886 Y153.207 E17.0888
G1 X110.568 Y151.238 E17.3089
G1 X104.534 Y148.522 E17.5290
G1 X98.870 Y145.099 E17.7490
G1 X93.661 Y141.018 E17.9691
G1 X88.982 Y136.339 E18.1892
G1 X84.901 Y131.129 E18.4093
G1 X81.478 Y125.467 E18.6294
G1 X78.762 Y119.432 E18.8495
G1 X76.793 Y113.114 E19.0696
G1 X75.600 Y106.605 E19.2897
G1 X75.201 Y100.000 E19.5098
G1 X75.600 Y93.395 E19.7299
G1 X76.793 Y86.886 E19.9500
G1 X78.762 Y80.568 E20.1701
G1 X81.477 Y74.534 E20.3902
G1 X84.902 Y68.870 E20.6103
G1 X88.982 Y63.661 E20.8304
G1 X93.661 Y58.982 E21.0505
G1 X98.871 Y54.901 E21.2706
G1 X104.533 Y51.478 E21.4906
G1 X110.569 Y48.762 E21.7108
G1 X116.886 Y46.793 E21.9309
G1 X123.394 Y45.600 E22.1509
G1 X129.939 Y45.204 E22.3690
G0 X130.698 Y45.458 F5400
G0 X131.073 Y45.666
;segType:Loop
G1 X136.558 Y45.998 E22.5518 F2400
G1 X143.019 Y47.182 E22.7703
G1 X149.289 Y49.136 E22.9887
G1 X155.280 Y51.832 E23.2072
G1 X160.902 Y55.231 E23.4257
G1 X166.073 Y59.282 E23.6442
G1 X170.718 Y63.927 E23.8627
G1 X174.769 Y69.098 E24.0812
G1 X178.167 Y74.719 E24.2996
G1 X180.864 Y80.711 E24.5182
G1 X182.818 Y86.981 E24.7366
G1 X184.002 Y93.442 E24.9551
G1 X184.398 Y100.001 E25.1736
G1 X184.002 Y106.558 E25.3921
G1 X182.818 Y113.018 E25.6105
G1 X180.864 Y119.289 E25.8290
G1 X178.167 Y125.281 E26.0476
G1 X174.769 Y130.902 E26.2660
G1 X170.718 Y136.073 E26.4845
G1 X166.073 Y140.718 E26.7030
G1 X160.902 Y144.769 E26.9214
G1 X155.280 Y148.168 E27.1400
G1 X149.290 Y150.864 E27.3584
G1 X143.019 Y152.818 E27.5769
G1 X136.557 Y154.002 E27.7954
G1 X130.000 Y154.398 E28.0139
G1 X123.443 Y154.002 E28.2324
G1 X116.981 Y152.818 E28.4509
G1 X110.710 Y150.864 E28.6694
G1 X104.720 Y148.167 E28.8878
G1 X99.098 Y144.769 E29.1063
G1 X93.927 Y140.718 E29.3248
G1 X89.282 Y136.073 E29.5433
G1 X85.231 Y130.902 E29.7618
G1 X81.833 Y125.280 E29.9803
G1 X79.136 Y119.290 E30.1988
G1 X77.182 Y113.019 E30.4172
G1 X75.998 Y106.557 E30.6357
G1 X75.602 Y100.000 E30.8542
G1 X75.998 Y93.443 E31.0727
G1 X77.182 Y86.982 E31.2912
G1 X79.136 Y80.710 E31.5097
G1 X81.832 Y74.720 E31.7281
G1 X85.231 Y69.098 E31.9467
G1 X89.282 Y63.927 E32.1651
G1 X93.927 Y59.282 E32.3836
G1 X99.098 Y55.231 E32.6021
G1 X104.719 Y51.833 E32.8205
G1 X110.711 Y49.136 E33.0391
G1 X116.982 Y47.182 E33.2576
G1 X123.442 Y45.998 E33.4760
G1 X129.999 Y45.602 E33.6945
G1 X130.873 Y45.654 E33.7236
G0 X129.725 Y45.979 F5400
;segType:HShell
G1 X184.021 Y100.275 E36.2776 F2400
G0 X184.020 Y99.709 F5400
G1 X130.292 Y45.980 E38.8048 F2400
G0 X130.894 Y46.016 F5400
G1 X183.984 Y99.106 E41.3020 F2400
G0 X183.947 Y98.504 F5400
G1 X131.496 Y46.053 E43.7691 F2400
G0 X132.098 Y46.089 F5400
G1 X183.911 Y97.902 E46.2062 F2400
G0 X183.874 Y97.300 F5400
G1 X132.700 Y46.126 E48.6133 F2400
G0 X133.302 Y46.162 F5400
G1 X183.838 Y96.698 E50.9904 F2400
G0 X183.801 Y96.096 F5400
G1 X133.904 Y46.199 E53.3374 F2400
G0 X134.506 Y46.235 F5400
G1 X183.765 Y95.494 E55.6544 F2400
G0 X183.729 Y94.892 F5400
G1 X135.108 Y46.271 E57.9413 F2400
G0 X135.711 Y46.308 F5400
G1 X183.692 Y94.289 E60.1982 F2400
G0 X183.656 Y93.687 F5400
G1 X136.313 Y46.344 E62.4251 F2400
G0 X136.975 Y46.441 F5400
G1 X183.559 Y93.025 E64.6162 F2400
G0 X183.432 Y92.332 F5400
G1 X137.668 Y46.568 E66.7689 F2400
G0 X138.360 Y46.695 F5400
G1 X183.305 Y91.640 E68.8829 F2400
G0 X183.178 Y90.947 F5400
G1 X139.053 Y46.822 E70.9585 F2400
G0 X139.745 Y46.949 F5400
G1 X183.051 Y90.255 E72.9955 F2400
G0 X182.924 Y89.562 F5400
G1 X140.438 Y47.076 E74.9939 F2400
G0 X141.131 Y47.202 F5400
G1 X182.798 Y88.869 E76.9538 F2400
G0 X182.671 Y88.177 F5400
G1 X141.823 Y47.329 E78.8751 F2400
G0 X142.516 Y47.456 F5400
G1 X182.544 Y87.484 E80.7579 F2400
G0 X182.365 Y86.740 F5400
G1 X143.260 Y47.635 E82.5973 F2400
G0 X144.082 Y47.891 F5400
G1 X182.109 Y85.918 E84.3860 F2400
G0 X181.853 Y85.097 F5400
G1 X144.903 Y48.147 E86.1240 F2400
G0 X145.725 Y48.403 F5400
G1 X181.597 Y84.275 E87.8113 F2400
G0 X181.341 Y83.453 F5400
G1 X146.547 Y48.659 E89.4480 F2400
G0 X147.369 Y48.915 F5400
G1 X181.085 Y82.631 E91.0339 F2400
G0 X180.829 Y81.810 F5400
G1 X148.190 Y49.171 E92.5691 F2400
G0 X149.012 Y49.427 F5400
G1 X180.573 Y80.988 E94.0537 F2400
G0 X180.147 Y79.997 F5400
G1 X150.003 Y49.852 E95.4716 F2400
G0 X151.032 Y50.315 F5400
G1 X179.685 Y78.968 E96.8193 F2400
G0 X179.222 Y77.940 F5400
G1 X152.060 Y50.778 E98.0969 F2400
G0 X153.089 Y51.241 F5400
G1 X178.759 Y76.911 E99.3043 F2400
G0 X178.296 Y75.882 F5400
G1 X154.118 Y51.704 E100.4416 F2400
G0 X155.160 Y52.181 F5400
G1 X177.820 Y74.841 E101.5074 F2400
G0 X176.955 Y73.410 F5400
G1 X156.590 Y53.045 E102.4653 F2400
G0 X158.021 Y53.910 F5400
G1 X176.090 Y71.980 E103.3153 F2400
G0 X175.225 Y70.549 F5400
G1 X159.451 Y54.775 E104.0572 F2400
G0 X161.034 Y55.792 F5400
G1 X174.208 Y68.966 E104.6769 F2400
G0 X172.162 Y66.354 F5400
G1 X163.646 Y57.838 E105.0775 F2400
G0 X183.957 Y101.342 F5400
G1 X128.658 Y46.043 E107.6786 F2400
G0 X128.125 Y46.076 F5400
G1 X183.924 Y101.875 E110.3032 F2400
G0 X183.892 Y102.409 F5400
G1 X127.591 Y46.108 E112.9515 F2400
G0 X127.058 Y46.140 F5400
G1 X183.860 Y102.942 E115.6232 F2400
G0 X183.827 Y103.476 F5400
G1 X126.524 Y46.173 E118.3186 F2400
G0 X125.991 Y46.205 F5400
G1 X183.795 Y104.009 E121.0375 F2400
G0 X183.763 Y104.543 F5400
G1 X125.457 Y46.237 E123.7801 F2400
G0 X124.924 Y46.269 F5400
G1 X183.731 Y105.076 E126.5461 F2400
G0 X183.698 Y105.609 F5400
G1 X124.391 Y46.302 E129.3358 F2400
G0 X123.857 Y46.334 F5400
G1 X183.666 Y106.143 E132.1490 F2400
G0 X183.617 Y106.659 F5400
G1 X123.341 Y46.383 E134.9842 F2400
G0 X122.863 Y46.471 F5400
G1 X183.529 Y107.137 E137.8378 F2400
G0 X183.442 Y107.616 F5400
G1 X122.384 Y46.558 E140.7098 F2400
G0 X121.906 Y46.646 F5400
G1 X183.354 Y108.094 E143.6001 F2400
G0 X183.267 Y108.572 F5400
G1 X121.428 Y46.733 E146.5087 F2400
G0 X120.950 Y46.821 F5400
G1 X183.179 Y109.050 E149.4358 F2400
G0 X183.091 Y109.528 F5400
G1 X120.472 Y46.909 E152.3812 F2400
G0 X119.994 Y46.996 F5400
G1 X183.004 Y110.006 E155.3450 F2400
G0 X182.916 Y110.484 F5400
G1 X119.516 Y47.084 E158.3271 F2400
G0 X119.038 Y47.171 F5400
G1 X182.829 Y110.962 E161.3277 F2400
G0 X182.741 Y111.440 F5400
G1 X118.560 Y47.259 E164.3465 F2400
G0 X118.082 Y47.347 F5400
G1 X182.653 Y111.918 E167.3838 F2400
G0 X182.566 Y112.396 F5400
G1 X117.604 Y47.434 E170.4394 F2400
G0 X117.126 Y47.522 F5400
G1 X182.478 Y112.874 E173.5134 F2400
G0 X182.349 Y113.311 F5400
G1 X116.689 Y47.651 E176.6018 F2400
G0 X116.257 Y47.785 F5400
G1 X182.215 Y113.743 E179.7043 F2400
G0 X182.081 Y114.174 F5400
G1 X115.826 Y47.919 E182.8207 F2400
G0 X115.395 Y48.054 F5400
G1 X181.946 Y114.605 E185.9511 F2400
G0 X181.812 Y115.037 F5400
G1 X114.964 Y48.188 E189.0954 F2400
G0 X114.532 Y48.323 F5400
G1 X181.677 Y115.468 E192.2537 F2400
G0 X181.543 Y115.899 F5400
G1 X114.101 Y48.457 E195.4260 F2400
G0 X113.670 Y48.591 F5400
G1 X181.409 Y116.330 E198.6122 F2400
G0 X181.274 Y116.762 F5400
G1 X113.238 Y48.726 E201.8124 F2400
G0 X112.807 Y48.860 F5400
G1 X181.140 Y117.193 E205.0266 F2400
G0 X181.005 Y117.624 F5400
G1 X112.376 Y48.995 E208.2547 F2400
G0 X111.944 Y49.129 F5400
G1 X180.871 Y118.056 E211.4968 F2400
G0 X180.737 Y118.487 F5400
G1 X111.513 Y49.263 E214.7529 F2400
G0 X111.082 Y49.398 F5400
G1 X180.602 Y118.918 E218.0229 F2400
G0 X180.450 Y119.331 F5400
G1 X110.669 Y49.550 E221.3052 F2400
G0 X110.278 Y49.726 F5400
G1 X180.274 Y119.722 E224.5976 F2400
G0 X180.099 Y120.112 F5400
G1 X109.888 Y49.901 E227.9000 F2400
G0 X109.498 Y50.077 F5400
G1 X179.923 Y120.502 E231.2126 F2400
G0 X179.748 Y120.892 F5400
G1 X109.108 Y50.252 E234.5353 F2400
G0 X108.718 Y50.428 F5400
G1 X179.572 Y121.282 E237.8680 F2400
G0 X179.396 Y121.672 F5400
G1 X108.328 Y50.604 E241.2109 F2400
G0 X107.938 Y50.779 F5400
G1 X179.221 Y122.062 E244.5638 F2400
G0 X179.045 Y122.452 F5400
G1 X107.548 Y50.955 E247.9268 F2400
G0 X107.158 Y51.130 F5400
G1 X178.870 Y122.842 E251.3000 F2400
G0 X178.694 Y123.233 F5400
G1 X106.767 Y51.306 E254.6832 F2400
G0 X106.377 Y51.482 F5400
G1 X178.519 Y123.623 E258.0765 F2400
G0 X178.343 Y124.013 F5400
G1 X105.987 Y51.657 E261.4798 F2400
G0 X105.597 Y51.833 F5400
G1 X178.167 Y124.403 E264.8933 F2400
G0 X177.992 Y124.793 F5400
G1 X105.207 Y52.008 E268.3169 F2400
G0 X104.824 Y52.190 F5400
G1 X177.810 Y125.176 E271.7500 F2400
G0 X177.596 Y125.529 F5400
G1 X104.471 Y52.404 E275.1895 F2400
G0 X104.119 Y52.617 F5400
G1 X177.383 Y125.881 E278.6357 F2400
G0 X177.170 Y126.234 F5400
G1 X103.766 Y52.830 E282.0884 F2400
G0 X103.413 Y53.043 F5400
G1 X176.957 Y126.587 E285.5476 F2400
G0 X176.744 Y126.939 F5400
G1 X103.061 Y53.256 E289.0134 F2400
G0 X102.708 Y53.469 F5400
G1 X176.531 Y127.292 E292.4858 F2400
G0 X176.318 Y127.644 F5400
G1 X102.356 Y53.682 E295.9648 F2400
G0 X102.003 Y53.896 F5400
G1 X176.104 Y127.997 E299.4503 F2400
G0 X175.891 Y128.349 F5400
G1 X101.651 Y54.109 E302.9423 F2400
G0 X101.298 Y54.322 F5400
G1 X175.678 Y128.702 E306.4409 F2400
G0 X175.465 Y129.054 F5400
G1 X100.946 Y54.535 E309.9461 F2400
G0 X100.593 Y54.748 F5400
G1 X175.252 Y129.407 E313.4578 F2400
G0 X175.039 Y129.760 F5400
G1 X100.240 Y54.961 E316.9761 F2400
G0 X99.888 Y55.174 F5400
G1 X174.826 Y130.112 E320.5009 F2400
G0 X174.612 Y130.465 F5400
G1 X99.535 Y55.388 E324.0323 F2400
G0 X99.195 Y55.613 F5400
G1 X174.387 Y130.805 E327.5692 F2400
G0 X174.139 Y131.122 F5400
G1 X98.878 Y55.861 E331.1092 F2400
G0 X98.561 Y56.110 F5400
G1 X173.890 Y131.439 E334.6525 F2400
G0 X173.642 Y131.757 F5400
G1 X98.243 Y56.358 E338.1990 F2400
G0 X97.926 Y56.607 F5400
G1 X173.393 Y132.074 E341.7487 F2400
G0 X173.145 Y132.391 F5400
G1 X97.609 Y56.855 E345.3017 F2400
G0 X97.292 Y57.104 F5400
G1 X172.896 Y132.708 E348.8579 F2400
G0 X172.648 Y133.025 F5400
G1 X96.975 Y57.352 E352.4174 F2400
G0 X96.657 Y57.601 F5400
G1 X172.399 Y133.343 E355.9800 F2400
G0 X172.151 Y133.660 F5400
G1 X96.340 Y57.849 E359.5459 F2400
G0 X96.023 Y58.098 F5400
G1 X171.902 Y133.977 E363.1150 F2400
G0 X171.654 Y134.294 F5400
G1 X95.706 Y58.346 E366.6874 F2400
G0 X95.389 Y58.595 F5400
G1 X171.405 Y134.611 E370.2630 F2400
G0 X171.157 Y134.929 F5400
G1 X95.071 Y58.843 E373.8418 F2400
G0 X94.754 Y59.092 F5400
G1 X170.908 Y135.246 E377.4239 F2400
G0 X170.660 Y135.563 F5400
G1 X94.437 Y59.340 E381.0092 F2400
G0 X94.125 Y59.594 F5400
G1 X170.406 Y135.875 E384.5972 F2400
G0 X170.123 Y136.158 F5400
G1 X93.842 Y59.877 E388.1853 F2400
G0 X93.559 Y60.159 F5400
G1 X169.841 Y136.441 E391.7733 F2400
G0 X169.558 Y136.724 F5400
G1 X93.276 Y60.442 E395.3613 F2400
G0 X92.994 Y60.725 F5400
G1 X169.275 Y137.006 E398.9494 F2400
G0 X168.992 Y137.289 F5400
G1 X92.711 Y61.008 E402.5374 F2400
G0 X92.428 Y61.291 F5400
G1 X168.709 Y137.572 E406.1255 F2400
G0 X168.426 Y137.855 F5400
G1 X92.145 Y61.574 E409.7135 F2400
G0 X91.862 Y61.856 F5400
G1 X168.144 Y138.138 E413.3016 F2400
G0 X167.861 Y138.421 F5400
G1 X91.579 Y62.139 E416.8896 F2400
G0 X91.296 Y62.422 F5400
G1 X167.578 Y138.704 E420.4777 F2400
G0 X167.295 Y138.986 F5400
G1 X91.014 Y62.705 E424.0657 F2400
G0 X90.731 Y62.988 F5400
G1 X167.012 Y139.269 E427.6537 F2400
G0 X166.729 Y139.552 F5400
G1 X90.448 Y63.271 E431.2418 F2400
G0 X90.165 Y63.554 F5400
G1 X166.446 Y139.835 E434.8298 F2400
G0 X166.164 Y140.118 F5400
G1 X89.882 Y63.836 E438.4179 F2400
G0 X89.599 Y64.119 F5400
G1 X165.881 Y140.401 E442.0059 F2400
G0 X165.569 Y140.655 F5400
G1 X89.345 Y64.431 E445.5913 F2400
G0 X89.097 Y64.748 F5400
G1 X165.252 Y140.903 E449.1734 F2400
G0 X164.935 Y141.152 F5400
G1 X88.848 Y65.065 E452.7523 F2400
G0 X88.600 Y65.382 F5400
G1 X164.618 Y141.400 E456.3279 F2400
G0 X164.301 Y141.649 F5400
G1 X88.351 Y65.699 E459.9004 F2400
G0 X88.103 Y66.017 F5400
G1 X163.983 Y141.897 E463.4695 F2400
G0 X163.666 Y142.146 F5400
G1 X87.854 Y66.334 E467.0355 F2400
G0 X87.606 Y66.651 F5400
G1 X163.349 Y142.394 E470.5983 F2400
G0 X163.032 Y142.643 F5400
G1 X87.357 Y66.968 E474.1578 F2400
G0 X87.109 Y67.285 F5400
G1 X162.715 Y142.891 E477.7140 F2400
G0 X162.397 Y143.140 F5400
G1 X86.860 Y67.603 E481.2671 F2400
G0 X86.612 Y67.920 F5400
G1 X162.080 Y143.388 E484.8169 F2400
G0 X161.763 Y143.637 F5400
G1 X86.363 Y68.237 E488.3635 F2400
G0 X86.115 Y68.554 F5400
G1 X161.446 Y143.885 E491.9068 F2400
G0 X161.129 Y144.134 F5400
G1 X85.866 Y68.871 E495.4469 F2400
G0 X85.618 Y69.188 F5400
G1 X160.812 Y144.382 E498.9838 F2400
G0 X160.472 Y144.608 F5400
G1 X85.392 Y69.528 E502.5153 F2400
G0 X85.179 Y69.881 F5400
G1 X160.119 Y144.821 E506.0403 F2400
G0 X159.767 Y145.034 F5400
G1 X84.966 Y70.233 E509.5587 F2400
G0 X84.752 Y70.586 F5400
G1 X159.414 Y145.248 E513.0706 F2400
G0 X159.061 Y145.461 F5400
G1 X84.539 Y70.939 E516.5759 F2400
G0 X84.326 Y71.291 F5400
G1 X158.709 Y145.674 E520.0746 F2400
G0 X158.356 Y145.887 F5400
G1 X84.113 Y71.644 E523.5668 F2400
G0 X83.900 Y71.996 F5400
G1 X158.004 Y146.100 E527.0524 F2400
G0 X157.651 Y146.313 F5400
G1 X83.687 Y72.349 E530.5315 F2400
G0 X83.474 Y72.701 F5400
G1 X157.299 Y146.526 E534.0039 F2400
G0 X156.946 Y146.739 F5400
G1 X83.261 Y73.054 E537.4699 F2400
G0 X83.047 Y73.406 F5400
G1 X156.594 Y146.953 E540.9293 F2400
G0 X156.241 Y147.166 F5400
G1 X82.834 Y73.759 E544.3821 F2400
G0 X82.621 Y74.111 F5400
G1 X155.889 Y147.379 E547.8284 F2400
G0 X155.536 Y147.592 F5400
G1 X82.408 Y74.464 E551.2681 F2400
G0 X82.195 Y74.817 F5400
G1 X155.183 Y147.805 E554.7013 F2400
G0 X154.801 Y147.988 F5400
G1 X82.012 Y75.199 E558.1250 F2400
G0 X81.836 Y75.589 F5400
G1 X154.411 Y148.164 E561.5387 F2400
G0 X154.021 Y148.339 F5400
G1 X81.661 Y75.979 E564.9423 F2400
G0 X81.485 Y76.369 F5400
G1 X153.631 Y148.515 E568.3358 F2400
G0 X153.240 Y148.691 F5400
G1 X81.309 Y76.760 E571.7193 F2400
G0 X81.134 Y77.150 F5400
G1 X152.850 Y148.866 E575.0926 F2400
G0 X152.460 Y149.042 F5400
G1 X80.958 Y77.540 E578.4558 F2400
G0 X80.783 Y77.930 F5400
G1 X152.070 Y149.217 E581.8090 F2400
G0 X151.680 Y149.393 F5400
G1 X80.607 Y78.320 E585.1521 F2400
G0 X80.431 Y78.710 F5400
G1 X151.290 Y149.569 E588.4850 F2400
G0 X150.900 Y149.744 F5400
G1 X80.256 Y79.100 E591.8079 F2400
G0 X80.080 Y79.490 F5400
G1 X150.510 Y149.920 E595.1207 F2400
G0 X150.120 Y150.095 F5400
G1 X79.905 Y79.880 E598.4234 F2400
G0 X79.729 Y80.270 F5400
G1 X149.730 Y150.271 E601.7160 F2400
G0 X149.339 Y150.446 F5400
G1 X79.554 Y80.661 E604.9985 F2400
G0 X79.400 Y81.073 F5400
G1 X148.927 Y150.600 E608.2688 F2400
G0 X148.496 Y150.734 F5400
G1 X79.266 Y81.504 E611.5252 F2400
G0 X79.132 Y81.936 F5400
G1 X148.064 Y150.868 E614.7675 F2400
G0 X147.633 Y151.003 F5400
G1 X78.997 Y82.367 E617.9959 F2400
G0 X78.863 Y82.798 F5400
G1 X147.202 Y151.137 E621.2104 F2400
G0 X146.770 Y151.271 F5400
G1 X78.729 Y83.230 E624.4109 F2400
G0 X78.594 Y83.661 F5400
G1 X146.339 Y151.406 E627.5974 F2400
G0 X145.908 Y151.540 F5400
G1 X78.460 Y84.092 E630.7699 F2400
G0 X78.325 Y84.523 F5400
G1 X145.477 Y151.675 E633.9285 F2400
G0 X145.045 Y151.809 F5400
G1 X78.191 Y84.955 E637.0731 F2400
G0 X78.057 Y85.386 F5400
G1 X144.614 Y151.943 E640.2038 F2400
G0 X144.183 Y152.078 F5400
G1 X77.922 Y85.817 E643.3205 F2400
G0 X77.788 Y86.249 F5400
G1 X143.751 Y152.212 E646.4232 F2400
G0 X143.320 Y152.347 F5400
G1 X77.653 Y86.680 E649.5119 F2400
G0 X77.524 Y87.116 F5400
G1 X142.884 Y152.476 E652.5863 F2400
G0 X142.406 Y152.564 F5400
G1 X77.436 Y87.594 E655.6422 F2400
G0 X77.348 Y88.072 F5400
G1 X141.928 Y152.652 E658.6798 F2400
G0 X141.450 Y152.739 F5400
G1 X77.261 Y88.550 E661.6991 F2400
G0 X77.173 Y89.028 F5400
G1 X140.972 Y152.827 E664.6999 F2400
G0 X140.494 Y152.914 F5400
G1 X77.086 Y89.506 E667.6825 F2400
G0 X76.998 Y89.984 F5400
G1 X140.016 Y153.002 E670.6466 F2400
G0 X139.537 Y153.090 F5400
G1 X76.910 Y90.463 E673.5924 F2400
G0 X76.823 Y90.941 F5400
G1 X139.059 Y153.177 E676.5199 F2400
G0 X138.581 Y153.265 F5400
G1 X76.735 Y91.419 E679.4289 F2400
G0 X76.648 Y91.897 F5400
G1 X138.103 Y153.352 E682.3196 F2400
G0 X137.625 Y153.440 F5400
G1 X76.560 Y92.375 E685.1919 F2400
G0 X76.472 Y92.853 F5400
G1 X137.147 Y153.528 E688.0459 F2400
G0 X136.669 Y153.615 F5400
G1 X76.385 Y93.331 E690.8814 F2400
G0 X76.335 Y93.846 F5400
G1 X136.154 Y153.665 E693.6952 F2400
G0 X135.620 Y153.698 F5400
G1 X76.302 Y94.380 E696.4853 F2400
G0 X76.270 Y94.913 F5400
G1 X135.087 Y153.730 E699.2518 F2400
G0 X134.553 Y153.762 F5400
G1 X76.238 Y95.447 E701.9948 F2400
G0 X76.206 Y95.980 F5400
G1 X134.020 Y153.794 E704.7142 F2400
G0 X133.486 Y153.827 F5400
G1 X76.173 Y96.514 E707.4101 F2400
G0 X76.141 Y97.047 F5400
G1 X132.953 Y153.859 E710.0823 F2400
G0 X132.420 Y153.891 F5400
G1 X76.109 Y97.580 E712.7310 F2400
G0 X76.076 Y98.114 F5400
G1 X131.886 Y153.924 E715.3561 F2400
G0 X131.353 Y153.956 F5400
G1 X76.044 Y98.647 E717.9577 F2400
G0 X76.012 Y99.181 F5400
G1 X130.819 Y153.988 E720.5357 F2400
G0 X130.286 Y154.020 F5400
G1 X75.980 Y99.714 E723.0901 F2400
G0 X75.979 Y100.279 F5400
G1 X129.721 Y154.021 E725.6179 F2400
G0 X129.119 Y153.984 F5400
G1 X76.016 Y100.881 E728.1157 F2400
G0 X76.052 Y101.484 F5400
G1 X128.516 Y153.948 E730.5835 F2400
G0 X127.914 Y153.911 F5400
G1 X76.089 Y102.086 E733.0212 F2400
G0 X76.125 Y102.688 F5400
G1 X127.312 Y153.875 E735.4289 F2400
G0 X126.710 Y153.839 F5400
G1 X76.161 Y103.290 E737.8066 F2400
G0 X76.198 Y103.892 F5400
G1 X126.108 Y153.802 E740.1542 F2400
G0 X125.506 Y153.766 F5400
G1 X76.234 Y104.494 E742.4718 F2400
G0 X76.271 Y105.096 F5400
G1 X124.904 Y153.729 E744.7593 F2400
G0 X124.302 Y153.693 F5400
G1 X76.307 Y105.698 E747.0168 F2400
G0 X76.343 Y106.300 F5400
G1 X123.700 Y153.657 E749.2443 F2400
G0 X123.039 Y153.562 F5400
G1 X76.438 Y106.961 E751.4362 F2400
G0 X76.565 Y107.654 F5400
G1 X122.346 Y153.435 E753.5896 F2400
G0 X121.654 Y153.308 F5400
G1 X76.692 Y108.346 E755.7045 F2400
G0 X76.819 Y109.039 F5400
G1 X120.961 Y153.181 E757.7808 F2400
G0 X120.269 Y153.054 F5400
G1 X76.946 Y109.731 E759.8186 F2400
G0 X77.073 Y110.424 F5400
G1 X119.576 Y152.927 E761.8178 F2400
G0 X118.883 Y152.800 F5400
G1 X77.200 Y111.117 E763.7785 F2400
G0 X77.327 Y111.809 F5400
G1 X118.191 Y152.673 E765.7006 F2400
G0 X117.498 Y152.546 F5400
G1 X77.454 Y112.502 E767.5842 F2400
G0 X77.629 Y113.243 F5400
G1 X116.757 Y152.371 E769.4246 F2400
G0 X115.935 Y152.115 F5400
G1 X77.885 Y114.065 E771.2144 F2400
G0 X78.142 Y114.887 F5400
G1 X115.113 Y151.858 E772.9534 F2400
G0 X114.292 Y151.602 F5400
G1 X78.398 Y115.708 E774.6417 F2400
G0 X78.654 Y116.530 F5400
G1 X113.470 Y151.346 E776.2794 F2400
G0 X112.648 Y151.090 F5400
G1 X78.910 Y117.352 E777.8664 F2400
G0 X79.166 Y118.174 F5400
G1 X111.826 Y150.834 E779.4026 F2400
G0 X111.005 Y150.578 F5400
G1 X79.422 Y118.995 E780.8881 F2400
G0 X79.843 Y119.982 F5400
G1 X110.018 Y150.157 E782.3075 F2400
G0 X108.989 Y149.694 F5400
G1 X80.306 Y121.011 E783.6566 F2400
G0 X80.769 Y122.040 F5400
G1 X107.960 Y149.231 E784.9356 F2400
G0 X106.932 Y148.768 F5400
G1 X81.232 Y123.068 E786.1445 F2400
G0 X81.695 Y124.097 F5400
G1 X105.903 Y148.305 E787.2832 F2400
G0 X104.869 Y147.837 F5400
G1 X82.163 Y125.131 E788.3512 F2400
G0 X83.028 Y126.561 F5400
G1 X103.439 Y146.972 E789.3113 F2400
G0 X102.008 Y146.108 F5400
G1 X83.892 Y127.992 E790.1634 F2400
G0 X84.757 Y129.422 F5400
G1 X100.578 Y145.243 E790.9076 F2400
G0 X99.019 Y144.250 F5400
G1 X85.750 Y130.981 E791.5317 F2400
G0 X87.797 Y133.593 F5400
G1 X96.407 Y142.203 E791.9367 F2400
; ------------------------------------
; Layer #1
; ------------------------------------
G92 E0 ;reset extr
G0 F3000 E-1.0000
G0 F600 Z0.400
G0 X76.016 Y99.112 F7200
G0 F3000 E0.0000
;segType:HShell
G1 X129.113 Y46.016 E2.4975 F3600
G0 X129.300 Y45.458 F7200
;segType:Perimeter
G1 X130.059 Y45.204 E2.5241 F2159
G1 X136.606 Y45.601 E2.7423
G1 X143.115 Y46.793 E2.9624
G1 X149.432 Y48.762 E3.1824
G1 X155.466 Y51.477 E3.4025
G1 X161.130 Y54.902 E3.6226
G1 X166.339 Y58.982 E3.8427
G1 X171.018 Y63.661 E4.0628
G1 X175.099 Y68.871 E4.2829
G1 X178.522 Y74.533 E4.5030
G1 X181.239 Y80.569 E4.7231
G1 X183.207 Y86.885 E4.9431
G1 X184.399 Y93.394 E5.1632
G1 X184.799 Y100.001 E5.3834
G1 X184.400 Y106.606 E5.6035
G1 X183.207 Y113.114 E5.8236
G1 X181.238 Y119.431 E6.0436
G1 X178.522 Y125.467 E6.2638
G1 X175.099 Y131.129 E6.4838
G1 X171.018 Y136.339 E6.7039
G1 X166.339 Y141.018 E6.9240
G1 X161.130 Y145.098 E7.1441
G1 X155.466 Y148.523 E7.3642
G1 X149.432 Y151.238 E7.5843
G1 X143.114 Y153.207 E7.8044
G1 X136.605 Y154.400 E8.0245
G1 X130.000 Y154.799 E8.2446
G1 X123.395 Y154.400 E8.4647
G1 X116.886 Y153.207 E8.6848
G1 X110.568 Y151.238 E8.9049
G1 X104.534 Y148.522 E9.1250
G1 X98.870 Y145.099 E9.3451
G1 X93.661 Y141.018 E9.5652
G1 X88.982 Y136.339 E9.7853
G1 X84.901 Y131.129 E10.0054
G1 X81.478 Y125.467 E10.2255
G1 X78.762 Y119.432 E10.4456
G1 X76.793 Y113.114 E10.6657
G1 X75.600 Y106.605 E10.8857
G1 X75.201 Y100.000 E11.1058
G1 X75.600 Y93.395 E11.3259
G1 X76.793 Y86.886 E11.5460
G1 X78.762 Y80.568 E11.7661
G1 X81.477 Y74.534 E11.9862
G1 X84.902 Y68.870 E12.2063
G1 X88.982 Y63.661 E12.4264
G1 X93.661 Y58.982 E12.6465
G1 X98.871 Y54.901 E12.8666
G1 X104.533 Y51.478 E13.0867
G1 X110.569 Y48.762 E13.3068
G1 X116.886 Y46.793 E13.5269
G1 X123.394 Y45.600 E13.7470
G1 X129.939 Y45.204 E13.9651
G0 X130.698 Y45.458 F7200
G0 X131.073 Y45.666
;segType:Loop
G1 X136.558 Y45.998 E14.1478 F3600
G1 X143.019 Y47.182 E14.3663
G1 X149.289 Y49.136 E14.5847
G1 X155.280 Y51.832 E14.8032
G1 X160.902 Y55.231 E15.0218
G1 X166.073 Y59.282 E15.2402
G1 X170.718 Y63.927 E15.4587
G1 X174.769 Y69.098 E15.6772
G1 X178.167 Y74.719 E15.8956
G1 X180.864 Y80.711 E16.1142
G1 X182.818 Y86.981 E16.3326
G1 X184.002 Y93.442 E16.5511
G1 X184.398 Y100.001 E16.7696
G1 X184.002 Y106.558 E16.9881
G1 X182.818 Y113.018 E17.2066
G1 X180.864 Y119.289 E17.4250
G1 X178.167 Y125.281 E17.6436
G1 X174.769 Y130.902 E17.8620
G1 X170.718 Y136.073 E18.0805
G1 X166.073 Y140.718 E18.2990
G1 X160.902 Y144.769 E18.5175
G1 X155.280 Y148.168 E18.7360
G1 X149.290 Y150.864 E18.9545
G1 X143.019 Y152.818 E19.1730
G1 X136.557 Y154.002 E19.3914
G1 X130.000 Y154.398 E19.6099
G1 X123.443 Y154.002 E19.8284
G1 X116.981 Y152.818 E20.0469
G1 X110.710 Y150.864 E20.2654
G1 X104.720 Y148.167 E20.4839
G1 X99.098 Y144.769 E20.7024
G1 X93.927 Y140.718 E20.9208
G1 X89.282 Y136.073 E21.1393
G1 X85.231 Y130.902 E21.3578
G1 X81.833 Y125.280 E21.5763
G1 X79.136 Y119.290 E21.7948
G1 X77.182 Y113.019 E22.0133
G1 X75.998 Y106.557 E22.2318
G1 X75.602 Y100.000 E22.4502
G1 X75.998 Y93.443 E22.6687
G1 X77.182 Y86.982 E22.8872
G1 X79.136 Y80.710 E23.1057
G1 X81.832 Y74.720 E23.3242
G1 X85.231 Y69.098 E23.5427
G1 X89.282 Y63.927 E23.7612
G1 X93.927 Y59.282 E23.9796
G1 X99.098 Y55.231 E24.1981
G1 X104.719 Y51.833 E24.4166
G1 X110.711 Y49.136 E24.6351
G1 X116.982 Y47.182 E24.8536
G1 X123.442 Y45.998 E25.0720
G1 X129.999 Y45.602 E25.2905
G1 X130.873 Y45.654 E25.3197
G0 X128.510 Y46.052 F7200
;segType:HShell
G1 X76.052 Y98.510 E27.7871 F3600
G0 X76.089 Y97.908 F7200
G1 X127.908 Y46.089 E30.2246 F3600
G0 X127.306 Y46.125 F7200
G1 X76.125 Y97.306 E32.6319 F3600
G0 X76.162 Y96.704 F7200
G1 X126.704 Y46.162 E35.0093 F3600
G0 X126.102 Y46.198 F7200
G1 X76.198 Y96.102 E37.3566 F3600
G0 X76.235 Y95.500 F7200
G1 X125.500 Y46.235 E39.6739 F3600
G0 X124.898 Y46.271 F7200
G1 X76.271 Y94.898 E41.9612 F3600
G0 X76.307 Y94.296 F7200
G1 X124.296 Y46.307 E44.2184 F3600
G0 X123.693 Y46.344 F7200
G1 X76.344 Y93.693 E46.4456 F3600
G0 X76.440 Y93.032 F7200
G1 X123.032 Y46.440 E48.6371 F3600
G0 X122.340 Y46.566 F7200
G1 X76.567 Y92.339 E50.7901 F3600
G0 X76.693 Y91.647 F7200
G1 X121.647 Y46.693 E52.9046 F3600
G0 X120.954 Y46.820 F7200
G1 X76.820 Y90.954 E54.9805 F3600
G0 X76.947 Y90.262 F7200
G1 X120.262 Y46.947 E57.0179 F3600
G0 X119.569 Y47.074 F7200
G1 X77.074 Y89.569 E59.0168 F3600
G0 X77.201 Y88.876 F7200
G1 X118.876 Y47.201 E60.9770 F3600
G0 X118.184 Y47.328 F7200
G1 X77.328 Y88.184 E62.8988 F3600
G0 X77.455 Y87.491 F7200
G1 X117.491 Y47.455 E64.7820 F3600
G0 X116.748 Y47.632 F7200
G1 X77.632 Y86.749 E66.6219 F3600
G0 X77.888 Y85.927 F7200
G1 X115.927 Y47.888 E68.4111 F3600
G0 X115.105 Y48.144 F7200
G1 X78.144 Y85.105 E70.1496 F3600
G0 X78.400 Y84.283 F7200
G1 X114.283 Y48.400 E71.8375 F3600
G0 X113.461 Y48.656 F7200
G1 X78.656 Y83.461 E73.4746 F3600
G0 X78.912 Y82.640 F7200
G1 X112.640 Y48.912 E75.0610 F3600
G0 X111.818 Y49.168 F7200
G1 X79.168 Y81.818 E76.5968 F3600
G0 X79.424 Y80.996 F7200
G1 X110.996 Y49.424 E78.0818 F3600
G0 X110.007 Y49.848 F7200
G1 X79.848 Y80.007 E79.5004 F3600
G0 X80.311 Y78.979 F7200
G1 X108.979 Y50.311 E80.8489 F3600
G0 X107.950 Y50.774 F7200
G1 X80.774 Y77.950 E82.1272 F3600
G0 X81.237 Y76.921 F7200
G1 X106.921 Y51.237 E83.3353 F3600
G0 X105.893 Y51.700 F7200
G1 X81.699 Y75.893 E84.4733 F3600
G0 X82.172 Y74.855 F7200
G1 X104.855 Y52.171 E85.5402 F3600
G0 X96.381 Y57.818 F7200
G1 X87.818 Y66.381 E85.9430 F3600
G0 X85.771 Y68.993 F7200
G1 X98.993 Y55.771 E86.5649 F3600
G0 X100.564 Y54.766 F7200
G1 X84.766 Y70.563 E87.3080 F3600
G0 X83.901 Y71.994 F7200
G1 X101.994 Y53.901 E88.1590 F3600
G0 X103.425 Y53.036 F7200
G1 X83.037 Y73.424 E89.1180 F3600
G0 X75.980 Y99.715 F7200
G1 X129.715 Y45.980 E91.6455 F3600
G0 X130.281 Y45.979 F7200
G1 X75.979 Y100.281 E94.1997 F3600
G0 X76.012 Y100.814 F7200
G1 X130.814 Y46.012 E96.7774 F3600
G0 X131.347 Y46.044 F7200
G1 X76.044 Y101.347 E99.3787 F3600
G0 X76.076 Y101.881 F7200
G1 X131.881 Y46.076 E102.0036 F3600
G0 X132.414 Y46.108 F7200
G1 X76.108 Y102.414 E104.6521 F3600
G0 X76.141 Y102.948 F7200
G1 X132.948 Y46.141 E107.3241 F3600
G0 X133.481 Y46.173 F7200
G1 X76.173 Y103.481 E110.0197 F3600
G0 X76.205 Y104.014 F7200
G1 X134.014 Y46.205 E112.7389 F3600
G0 X134.548 Y46.238 F7200
G1 X76.237 Y104.548 E115.4816 F3600
G0 X76.270 Y105.081 F7200
G1 X135.081 Y46.270 E118.2479 F3600
G0 X135.615 Y46.302 F7200
G1 X76.302 Y105.615 E121.0378 F3600
G0 X76.334 Y106.148 F7200
G1 X136.148 Y46.334 E123.8512 F3600
G0 X136.664 Y46.384 F7200
G1 X76.384 Y106.664 E126.6866 F3600
G0 X76.472 Y107.142 F7200
G1 X137.142 Y46.472 E129.5404 F3600
G0 X137.620 Y46.559 F7200
G1 X76.559 Y107.620 E132.4125 F3600
G0 X76.647 Y108.098 F7200
G1 X138.098 Y46.647 E135.3030 F3600
G0 X138.576 Y46.734 F7200
G1 X76.734 Y108.576 E138.2119 F3600
G0 X76.822 Y109.055 F7200
G1 X139.055 Y46.822 E141.1391 F3600
G0 X139.533 Y46.910 F7200
G1 X76.910 Y109.533 E144.0847 F3600
G0 X76.997 Y110.011 F7200
G1 X140.011 Y46.997 E147.0487 F3600
G0 X140.489 Y47.085 F7200
G1 X77.085 Y110.489 E150.0310 F3600
G0 X77.172 Y110.967 F7200
G1 X140.967 Y47.172 E153.0317 F3600
G0 X141.445 Y47.260 F7200
G1 X77.260 Y111.445 E156.0508 F3600
G0 X77.348 Y111.923 F7200
G1 X141.923 Y47.348 E159.0882 F3600
G0 X142.401 Y47.435 F7200
G1 X77.435 Y112.401 E162.1440 F3600
G0 X77.523 Y112.879 F7200
G1 X142.879 Y47.523 E165.2181 F3600
G0 X143.316 Y47.652 F7200
G1 X77.652 Y113.316 E168.3068 F3600
G0 X77.786 Y113.747 F7200
G1 X143.747 Y47.786 E171.4094 F3600
G0 X144.178 Y47.921 F7200
G1 X77.921 Y114.178 E174.5259 F3600
G0 X78.055 Y114.610 F7200
G1 X144.610 Y48.055 E177.6564 F3600
G0 X145.041 Y48.190 F7200
G1 X78.190 Y115.041 E180.8009 F3600
G0 X78.324 Y115.472 F7200
G1 X145.472 Y48.324 E183.9593 F3600
G0 X145.903 Y48.458 F7200
G1 X78.458 Y115.903 E187.1318 F3600
G0 X78.593 Y116.335 F7200
G1 X146.335 Y48.593 E190.3181 F3600
G0 X146.766 Y48.727 F7200
G1 X78.727 Y116.766 E193.5185 F3600
G0 X78.862 Y117.197 F7200
G1 X147.197 Y48.862 E196.7328 F3600
G0 X147.629 Y48.996 F7200
G1 X78.996 Y117.629 E199.9611 F3600
G0 X79.130 Y118.060 F7200
G1 X148.060 Y49.130 E203.2033 F3600
G0 X148.491 Y49.265 F7200
G1 X79.265 Y118.491 E206.4595 F3600
G0 X79.399 Y118.922 F7200
G1 X148.923 Y49.399 E209.7297 F3600
G0 X149.335 Y49.552 F7200
G1 X79.552 Y119.335 E213.0121 F3600
G0 X79.727 Y119.726 F7200
G1 X149.726 Y49.727 E216.3046 F3600
G0 X150.116 Y49.903 F7200
G1 X79.903 Y120.116 E219.6072 F3600
G0 X80.079 Y120.506 F7200
G1 X150.506 Y50.079 E222.9198 F3600
G0 X150.896 Y50.254 F7200
G1 X80.254 Y120.896 E226.2426 F3600
G0 X80.430 Y121.286 F7200
G1 X151.286 Y50.430 E229.5755 F3600
G0 X151.676 Y50.605 F7200
G1 X80.605 Y121.676 E232.9184 F3600
G0 X80.781 Y122.066 F7200
G1 X152.066 Y50.781 E236.2715 F3600
G0 X152.456 Y50.956 F7200
G1 X80.957 Y122.456 E239.6346 F3600
G0 X81.132 Y122.846 F7200
G1 X152.846 Y51.132 E243.0078 F3600
G0 X153.237 Y51.308 F7200
G1 X81.308 Y123.236 E246.3911 F3600
G0 X81.483 Y123.627 F7200
G1 X153.627 Y51.483 E249.7845 F3600
G0 X154.017 Y51.659 F7200
G1 X81.659 Y124.017 E253.1880 F3600
G0 X81.834 Y124.407 F7200
G1 X154.407 Y51.834 E256.6016 F3600
G0 X154.797 Y52.010 F7200
G1 X82.010 Y124.797 E260.0253 F3600
G0 X82.193 Y125.180 F7200
G1 X155.180 Y52.193 E263.4584 F3600
G0 X155.532 Y52.406 F7200
G1 X82.406 Y125.532 E266.8980 F3600
G0 X82.619 Y125.885 F7200
G1 X155.885 Y52.619 E270.3442 F3600
G0 X156.237 Y52.832 F7200
G1 X82.832 Y126.238 E273.7970 F3600
G0 X83.045 Y126.590 F7200
G1 X156.590 Y53.045 E277.2563 F3600
G0 X156.943 Y53.258 F7200
G1 X83.258 Y126.943 E280.7222 F3600
G0 X83.471 Y127.295 F7200
G1 X157.295 Y53.472 E284.1946 F3600
G0 X157.648 Y53.685 F7200
G1 X83.685 Y127.648 E287.6736 F3600
G0 X83.898 Y128.000 F7200
G1 X158.000 Y53.898 E291.1592 F3600
G0 X158.353 Y54.111 F7200
G1 X84.111 Y128.353 E294.6513 F3600
G0 X84.324 Y128.705 F7200
G1 X158.705 Y54.324 E298.1500 F3600
G0 X159.058 Y54.537 F7200
G1 X84.537 Y129.058 E301.6552 F3600
G0 X84.750 Y129.411 F7200
G1 X159.410 Y54.750 E305.1670 F3600
G0 X159.763 Y54.963 F7200
G1 X84.963 Y129.763 E308.6853 F3600
G0 X85.177 Y130.116 F7200
G1 X160.116 Y55.177 E312.2102 F3600
G0 X160.468 Y55.390 F7200
G1 X85.390 Y130.468 E315.7417 F3600
G0 X85.615 Y130.808 F7200
G1 X160.808 Y55.615 E319.2785 F3600
G0 X161.126 Y55.864 F7200
G1 X85.864 Y131.126 E322.8186 F3600
G0 X86.112 Y131.443 F7200
G1 X161.443 Y56.112 E326.3619 F3600
G0 X161.760 Y56.361 F7200
G1 X86.361 Y131.760 E329.9085 F3600
G0 X86.609 Y132.077 F7200
G1 X162.077 Y56.609 E333.4582 F3600
G0 X162.394 Y56.858 F7200
G1 X86.858 Y132.394 E337.0112 F3600
G0 X87.106 Y132.711 F7200
G1 X162.711 Y57.106 E340.5675 F3600
G0 X163.029 Y57.355 F7200
G1 X87.355 Y133.029 E344.1270 F3600
G0 X87.603 Y133.346 F7200
G1 X163.346 Y57.603 E347.6897 F3600
G0 X163.663 Y57.852 F7200
G1 X87.852 Y133.663 E351.2556 F3600
G0 X88.100 Y133.980 F7200
G1 X163.980 Y58.100 E354.8248 F3600
G0 X164.297 Y58.349 F7200
G1 X88.349 Y134.297 E358.3971 F3600
G0 X88.597 Y134.615 F7200
G1 X164.615 Y58.597 E361.9728 F3600
G0 X164.932 Y58.846 F7200
G1 X88.846 Y134.932 E365.5516 F3600
G0 X89.094 Y135.249 F7200
G1 X165.249 Y59.094 E369.1337 F3600
G0 X165.566 Y59.343 F7200
G1 X89.343 Y135.566 E372.7190 F3600
G0 X89.597 Y135.878 F7200
G1 X165.878 Y59.597 E376.3071 F3600
G0 X166.161 Y59.879 F7200
G1 X89.879 Y136.161 E379.8951 F3600
G0 X90.162 Y136.444 F7200
G1 X166.444 Y60.162 E383.4832 F3600
G0 X166.726 Y60.445 F7200
G1 X90.445 Y136.726 E387.0712 F3600
G0 X90.728 Y137.009 F7200
G1 X167.009 Y60.728 E390.6593 F3600
G0 X167.292 Y61.011 F7200
G1 X91.011 Y137.292 E394.2473 F3600
G0 X91.294 Y137.575 F7200
G1 X167.575 Y61.294 E397.8353 F3600
G0 X167.858 Y61.576 F7200
G1 X91.576 Y137.858 E401.4234 F3600
G0 X91.859 Y138.141 F7200
G1 X168.141 Y61.859 E405.0114 F3600
G0 X168.424 Y62.142 F7200
G1 X92.142 Y138.424 E408.5995 F3600
G0 X92.425 Y138.706 F7200
G1 X168.706 Y62.425 E412.1875 F3600
G0 X168.989 Y62.708 F7200
G1 X92.708 Y138.989 E415.7756 F3600
G0 X92.991 Y139.272 F7200
G1 X169.272 Y62.991 E419.3636 F3600
G0 X169.555 Y63.274 F7200
G1 X93.274 Y139.555 E422.9517 F3600
G0 X93.556 Y139.838 F7200
G1 X169.838 Y63.556 E426.5397 F3600
G0 X170.121 Y63.839 F7200
G1 X93.839 Y140.121 E430.1277 F3600
G0 X94.122 Y140.403 F7200
G1 X170.403 Y64.122 E433.7158 F3600
G0 X170.657 Y64.434 F7200
G1 X94.434 Y140.657 E437.3011 F3600
G0 X94.751 Y140.906 F7200
G1 X170.906 Y64.751 E440.8832 F3600
G0 X171.154 Y65.068 F7200
G1 X95.068 Y141.154 E444.4621 F3600
G0 X95.385 Y141.403 F7200
G1 X171.403 Y65.385 E448.0377 F3600
G0 X171.651 Y65.703 F7200
G1 X95.703 Y141.651 E451.6101 F3600
G0 X96.020 Y141.900 F7200
G1 X171.900 Y66.020 E455.1792 F3600
G0 X172.148 Y66.337 F7200
G1 X96.337 Y142.148 E458.7452 F3600
G0 X96.654 Y142.397 F7200
G1 X172.397 Y66.654 E462.3079 F3600
G0 X172.645 Y66.971 F7200
G1 X96.971 Y142.645 E465.8674 F3600
G0 X97.289 Y142.894 F7200
G1 X172.894 Y67.289 E469.4236 F3600
G0 X173.142 Y67.606 F7200
G1 X97.606 Y143.142 E472.9766 F3600
G0 X97.923 Y143.391 F7200
G1 X173.391 Y67.923 E476.5264 F3600
G0 X173.639 Y68.240 F7200
G1 X98.240 Y143.639 E480.0729 F3600
G0 X98.557 Y143.888 F7200
G1 X173.888 Y68.557 E483.6162 F3600
G0 X174.136 Y68.874 F7200
G1 X98.874 Y144.136 E487.1563 F3600
G0 X99.192 Y144.385 F7200
G1 X174.385 Y69.192 E490.6932 F3600
G0 X174.610 Y69.532 F7200
G1 X99.532 Y144.610 E494.2247 F3600
G0 X99.884 Y144.823 F7200
G1 X174.823 Y69.884 E497.7496 F3600
G0 X175.037 Y70.237 F7200
G1 X100.237 Y145.037 E501.2679 F3600
G0 X100.589 Y145.250 F7200
G1 X175.250 Y70.589 E504.7797 F3600
G0 X175.463 Y70.942 F7200
G1 X100.942 Y145.463 E508.2849 F3600
G0 X101.295 Y145.676 F7200
G1 X175.676 Y71.295 E511.7836 F3600
G0 X175.889 Y71.647 F7200
G1 X101.647 Y145.889 E515.2757 F3600
G0 X102.000 Y146.102 F7200
G1 X176.102 Y72.000 E518.7613 F3600
G0 X176.315 Y72.352 F7200
G1 X102.352 Y146.315 E522.2403 F3600
G0 X102.705 Y146.529 F7200
G1 X176.529 Y72.705 E525.7127 F3600
G0 X176.742 Y73.057 F7200
G1 X103.057 Y146.742 E529.1786 F3600
G0 X103.410 Y146.955 F7200
G1 X176.955 Y73.410 E532.6379 F3600
G0 X177.168 Y73.762 F7200
G1 X103.762 Y147.168 E536.0907 F3600
G0 X104.115 Y147.381 F7200
G1 X177.381 Y74.115 E539.5369 F3600
G0 X177.594 Y74.468 F7200
G1 X104.468 Y147.594 E542.9765 F3600
G0 X104.820 Y147.807 F7200
G1 X177.807 Y74.820 E546.4096 F3600
G0 X177.990 Y75.203 F7200
G1 X105.203 Y147.990 E549.8333 F3600
G0 X105.593 Y148.166 F7200
G1 X178.166 Y75.593 E553.2469 F3600
G0 X178.341 Y75.983 F7200
G1 X105.983 Y148.341 E556.6504 F3600
G0 X106.373 Y148.517 F7200
G1 X178.517 Y76.373 E560.0437 F3600
G0 X178.692 Y76.764 F7200
G1 X106.763 Y148.692 E563.4270 F3600
G0 X107.154 Y148.868 F7200
G1 X178.868 Y77.154 E566.8003 F3600
G0 X179.043 Y77.544 F7200
G1 X107.544 Y149.044 E570.1634 F3600
G0 X107.934 Y149.219 F7200
G1 X179.219 Y77.934 E573.5164 F3600
G0 X179.395 Y78.324 F7200
G1 X108.324 Y149.395 E576.8594 F3600
G0 X108.714 Y149.570 F7200
G1 X179.570 Y78.714 E580.1923 F3600
G0 X179.746 Y79.104 F7200
G1 X109.104 Y149.746 E583.5150 F3600
G0 X109.494 Y149.921 F7200
G1 X179.921 Y79.494 E586.8277 F3600
G0 X180.097 Y79.884 F7200
G1 X109.884 Y150.097 E590.1303 F3600
G0 X110.274 Y150.273 F7200
G1 X180.273 Y80.275 E593.4228 F3600
G0 X180.448 Y80.665 F7200
G1 X110.665 Y150.448 E596.7052 F3600
G0 X111.078 Y150.601 F7200
G1 X180.601 Y81.077 E599.9754 F3600
G0 X180.735 Y81.509 F7200
G1 X111.509 Y150.735 E603.2316 F3600
G0 X111.940 Y150.870 F7200
G1 X180.870 Y81.940 E606.4738 F3600
G0 X181.004 Y82.371 F7200
G1 X112.371 Y151.004 E609.7021 F3600
G0 X112.803 Y151.138 F7200
G1 X181.138 Y82.803 E612.9164 F3600
G0 X181.273 Y83.234 F7200
G1 X113.234 Y151.273 E616.1167 F3600
G0 X113.665 Y151.407 F7200
G1 X181.407 Y83.665 E619.3031 F3600
G0 X181.542 Y84.097 F7200
G1 X114.097 Y151.542 E622.4755 F3600
G0 X114.528 Y151.676 F7200
G1 X181.676 Y84.528 E625.6340 F3600
G0 X181.810 Y84.959 F7200
G1 X114.959 Y151.810 E628.7785 F3600
G0 X115.390 Y151.945 F7200
G1 X181.945 Y85.390 E631.9090 F3600
G0 X182.079 Y85.822 F7200
G1 X115.822 Y152.079 E635.0255 F3600
G0 X116.253 Y152.214 F7200
G1 X182.214 Y86.253 E638.1281 F3600
G0 X182.348 Y86.684 F7200
G1 X116.684 Y152.348 E641.2168 F3600
G0 X117.121 Y152.477 F7200
G1 X182.477 Y87.121 E644.2909 F3600
G0 X182.565 Y87.599 F7200
G1 X117.599 Y152.565 E647.3467 F3600
G0 X118.077 Y152.652 F7200
G1 X182.652 Y88.077 E650.3841 F3600
G0 X182.740 Y88.555 F7200
G1 X118.555 Y152.740 E653.4032 F3600
G0 X119.033 Y152.828 F7200
G1 X182.828 Y89.033 E656.4038 F3600
G0 X182.915 Y89.511 F7200
G1 X119.511 Y152.915 E659.3861 F3600
G0 X119.989 Y153.003 F7200
G1 X183.003 Y89.989 E662.3501 F3600
G0 X183.090 Y90.467 F7200
G1 X120.467 Y153.090 E665.2957 F3600
G0 X120.945 Y153.178 F7200
G1 X183.178 Y90.945 E668.2230 F3600
G0 X183.266 Y91.424 F7200
G1 X121.424 Y153.266 E671.1319 F3600
G0 X121.902 Y153.353 F7200
G1 X183.353 Y91.902 E674.0224 F3600
G0 X183.441 Y92.380 F7200
G1 X122.380 Y153.441 E676.8945 F3600
G0 X122.858 Y153.528 F7200
G1 X183.528 Y92.858 E679.7483 F3600
G0 X183.616 Y93.336 F7200
G1 X123.336 Y153.616 E682.5836 F3600
G0 X123.852 Y153.666 F7200
G1 X183.666 Y93.852 E685.3971 F3600
G0 X183.698 Y94.385 F7200
G1 X124.385 Y153.698 E688.1870 F3600
G0 X124.919 Y153.730 F7200
G1 X183.730 Y94.919 E690.9533 F3600
G0 X183.762 Y95.452 F7200
G1 X125.452 Y153.763 E693.6960 F3600
G0 X125.986 Y153.795 F7200
G1 X183.795 Y95.986 E696.4152 F3600
G0 X183.827 Y96.519 F7200
G1 X126.519 Y153.827 E699.1108 F3600
G0 X127.052 Y153.859 F7200
G1 X183.859 Y97.052 E701.7828 F3600
G0 X183.892 Y97.586 F7200
G1 X127.586 Y153.892 E704.4312 F3600
G0 X128.119 Y153.924 F7200
G1 X183.924 Y98.119 E707.0561 F3600
G0 X183.956 Y98.653 F7200
G1 X128.653 Y153.956 E709.6574 F3600
G0 X129.186 Y153.988 F7200
G1 X183.988 Y99.186 E712.2352 F3600
G0 X184.021 Y99.719 F7200
G1 X129.719 Y154.021 E714.7893 F3600
G0 X130.285 Y154.020 F7200
G1 X184.020 Y100.285 E717.3169 F3600
G0 X183.984 Y100.887 F7200
G1 X130.888 Y153.984 E719.8144 F3600
G0 X131.490 Y153.948 F7200
G1 X183.948 Y101.490 E722.2818 F3600
G0 X183.911 Y102.092 F7200
G1 X132.092 Y153.911 E724.7193 F3600
G0 X132.694 Y153.875 F7200
G1 X183.875 Y102.694 E727.1267 F3600
G0 X183.838 Y103.296 F7200
G1 X133.296 Y153.838 E729.5041 F3600
G0 X133.898 Y153.802 F7200
G1 X183.802 Y103.898 E731.8514 F3600
G0 X183.765 Y104.500 F7200
G1 X134.500 Y153.765 E734.1687 F3600
G0 X135.102 Y153.729 F7200
G1 X183.729 Y105.102 E736.4559 F3600
G0 X183.693 Y105.704 F7200
G1 X135.704 Y153.693 E738.7131 F3600
G0 X136.307 Y153.656 F7200
G1 X183.656 Y106.306 E740.9403 F3600
G0 X183.560 Y106.968 F7200
G1 X136.968 Y153.560 E743.1319 F3600
G0 X137.661 Y153.433 F7200
G1 X183.434 Y107.660 E745.2849 F3600
G0 X183.307 Y108.353 F7200
G1 X138.353 Y153.307 E747.3994 F3600
G0 X139.046 Y153.180 F7200
G1 X183.180 Y109.046 E749.4753 F3600
G0 X183.053 Y109.738 F7200
G1 X139.738 Y153.053 E751.5127 F3600
G0 X140.431 Y152.926 F7200
G1 X182.926 Y110.431 E753.5115 F3600
G0 X182.799 Y111.124 F7200
G1 X141.124 Y152.799 E755.4718 F3600
G0 X141.816 Y152.672 F7200
G1 X182.672 Y111.816 E757.3935 F3600
G0 X182.545 Y112.509 F7200
G1 X142.509 Y152.545 E759.2767 F3600
G0 X143.252 Y152.368 F7200
G1 X182.368 Y113.252 E761.1166 F3600
G0 X182.112 Y114.073 F7200
G1 X144.073 Y152.112 E762.9058 F3600
G0 X144.895 Y151.856 F7200
G1 X181.856 Y114.895 E764.6444 F3600
G0 X181.600 Y115.717 F7200
G1 X145.717 Y151.600 E766.3322 F3600
G0 X146.539 Y151.344 F7200
G1 X181.344 Y116.539 E767.9693 F3600
G0 X181.088 Y117.360 F7200
G1 X147.360 Y151.088 E769.5558 F3600
G0 X148.182 Y150.832 F7200
G1 X180.832 Y118.182 E771.0915 F3600
G0 X180.576 Y119.004 F7200
G1 X149.004 Y150.576 E772.5765 F3600
G0 X149.993 Y150.152 F7200
G1 X180.152 Y119.993 E773.9951 F3600
G0 X179.689 Y121.021 F7200
G1 X151.021 Y149.689 E775.3436 F3600
G0 X152.050 Y149.226 F7200
G1 X179.226 Y122.050 E776.6219 F3600
G0 X178.763 Y123.079 F7200
G1 X153.079 Y148.763 E777.8300 F3600
G0 X154.107 Y148.301 F7200
G1 X178.300 Y124.107 E778.9680 F3600
G0 X177.829 Y125.145 F7200
G1 X155.145 Y147.828 E780.0349 F3600
G0 X156.576 Y146.963 F7200
G1 X176.964 Y126.575 E780.9939 F3600
G0 X176.099 Y128.006 F7200
G1 X158.006 Y146.099 E781.8449 F3600
G0 X159.437 Y145.234 F7200
G1 X175.234 Y129.436 E782.5880 F3600
G0 X174.229 Y131.007 F7200
G1 X161.007 Y144.229 E783.2099 F3600
G0 X163.619 Y142.182 F7200
G1 X172.182 Y133.619 E783.6126 F3600
; ------------------------------------
; Layer #2
; ------------------------------------
G92 E0 ;reset extr
G0 F3000 E-1.0000
G0 F600 Z0.600
G0 X183.989 Y100.809 F7200
G0 F3000 E0.0000
;segType:HShell
G1 X129.191 Y46.011 E2.5775 F3600
G0 X129.300 Y45.458 F7200
;segType:Perimeter
G1 X130.059 Y45.204 E2.6041 F2159
G1 X136.606 Y45.601 E2.8223
G1 X143.115 Y46.793 E3.0424
G1 X149.432 Y48.762 E3.2624
G1 X155.466 Y51.477 E3.4825
G1 X161.130 Y54.902 E3.7026
G1 X166.339 Y58.982 E3.9227
G1 X171.018 Y63.661 E4.1428
G1 X175.099 Y68.871 E4.3629
G1 X178.522 Y74.533 E4.5830
G1 X181.239 Y80.569 E4.8031
G1 X183.207 Y86.885 E5.0232
G1 X184.399 Y93.394 E5.2433
G1 X184.799 Y100.001 E5.4634
G1 X184.400 Y106.606 E5.6835
G1 X183.207 Y113.114 E5.9036
G1 X181.238 Y119.431 E6.1236
G1 X178.522 Y125.467 E6.3438
G1 X175.099 Y131.129 E6.5639
G1 X171.018 Y136.339 E6.7840
G1 X166.339 Y141.018 E7.0040
G1 X161.130 Y145.098 E7.2241
G1 X155.466 Y148.523 E7.4443
G1 X149.432 Y151.238 E7.6643
G1 X143.114 Y153.207 E7.8844
G1 X136.605 Y154.400 E8.1045
G1 X130.000 Y154.799 E8.3246
G1 X123.395 Y154.400 E8.5447
G1 X116.886 Y153.207 E8.7648
G1 X110.568 Y151.238 E8.9849
G1 X104.534 Y148.522 E9.2050
G1 X98.870 Y145.099 E9.4251
G1 X93.661 Y141.018 E9.6452
G1 X88.982 Y136.339 E9.8653
G1 X84.901 Y131.129 E10.0854
G1 X81.478 Y125.467 E10.3055
G1 X78.762 Y119.432 E10.5256
G1 X76.793 Y113.114 E10.7457
G1 X75.600 Y106.605 E10.9658
G1 X75.201 Y100.000 E11.1859
G1 X75.600 Y93.395 E11.4060
G1 X76.793 Y86.886 E11.6260
G1 X78.762 Y80.568 E11.8461
G1 X81.477 Y74.534 E12.0662
G1 X84.902 Y68.870 E12.2864
G1 X88.982 Y63.661 E12.5064
G1 X93.661 Y58.982 E12.7265
G1 X98.871 Y54.901 E12.9466
G1 X104.533 Y51.478 E13.1667
G1 X110.569 Y48.762 E13.3868
G1 X116.886 Y46.793 E13.6069
G1 X123.394 Y45.600 E13.8270
G1 X129.939 Y45.204 E14.0451
G0 X130.698 Y45.458 F7200
G0 X131.073 Y45.666
;segType:Loop
G1 X136.558 Y45.998 E14.2278 F3600
G1 X143.019 Y47.182 E14.4463
G1 X149.289 Y49.136 E14.6648
G1 X155.280 Y51.832 E14.8832
G1 X160.902 Y55.231 E15.1018
G1 X166.073 Y59.282 E15.3202
G1 X170.718 Y63.927 E15.5387
G1 X174.769 Y69.098 E15.7572
G1 X178.167 Y74.719 E15.9757
G1 X180.864 Y80.711 E16.1942
G1 X182.818 Y86.981 E16.4126
G1 X184.002 Y93.442 E16.6311
G1 X184.398 Y100.001 E16.8497
G1 X184.002 Y106.558 E17.0681
G1 X182.818 Y113.018 E17.2866
G1 X180.864 Y119.289 E17.5051
G1 X178.167 Y125.281 E17.7236
G1 X174.769 Y130.902 E17.9421
G1 X170.718 Y136.073 E18.1605
G1 X166.073 Y140.718 E18.3790
G1 X160.902 Y144.769 E18.5975
G1 X155.280 Y148.168 E18.8160
G1 X149.290 Y150.864 E19.0345
G1 X143.019 Y152.818 E19.2530
G1 X136.557 Y154.002 E19.4715
G1 X130.000 Y154.398 E19.6899
G1 X123.443 Y154.002 E19.9084
G1 X116.981 Y152.818 E20.1269
G1 X110.710 Y150.864 E20.3454
G1 X104.720 Y148.167 E20.5639
G1 X99.098 Y144.769 E20.7824
G1 X93.927 Y140.718 E21.0009
G1 X89.282 Y136.073 E21.2193
G1 X85.231 Y130.902 E21.4378
G1 X81.833 Y125.280 E21.6563
G1 X79.136 Y119.290 E21.8748
G1 X77.182 Y113.019 E22.0933
G1 X75.998 Y106.557 E22.3118
G1 X75.602 Y100.000 E22.5303
G1 X75.998 Y93.443 E22.7487
G1 X77.182 Y86.982 E22.9672
G1 X79.136 Y80.710 E23.1857
G1 X81.832 Y74.720 E23.4042
G1 X85.231 Y69.098 E23.6227
G1 X89.282 Y63.927 E23.8412
G1 X93.927 Y59.282 E24.0597
G1 X99.098 Y55.231 E24.2781
G1 X104.719 Y51.833 E24.4966
G1 X110.711 Y49.136 E24.7151
G1 X116.982 Y47.182 E24.9336
G1 X123.442 Y45.998 E25.1521
G1 X129.999 Y45.602 E25.3705
G1 X130.873 Y45.654 E25.3997
G0 X129.725 Y45.979 F7200
;segType:HShell
G1 X184.021 Y100.275 E27.9536 F3600
G0 X184.020 Y99.709 F7200
G1 X130.291 Y45.980 E30.4808 F3600
G0 X130.894 Y46.016 F7200
G1 X183.984 Y99.106 E32.9780 F3600
G0 X183.947 Y98.504 F7200
G1 X131.496 Y46.053 E35.4452 F3600
G0 X132.098 Y46.089 F7200
G1 X183.911 Y97.902 E37.8823 F3600
G0 X183.874 Y97.300 F7200
G1 X132.700 Y46.126 E40.2894 F3600
G0 X133.302 Y46.162 F7200
G1 X183.838 Y96.698 E42.6664 F3600
G0 X183.801 Y96.096 F7200
G1 X133.904 Y46.199 E45.0134 F3600
G0 X134.506 Y46.235 F7200
G1 X183.765 Y95.494 E47.3304 F3600
G0 X183.729 Y94.892 F7200
G1 X135.108 Y46.271 E49.6174 F3600
G0 X135.711 Y46.308 F7200
G1 X183.692 Y94.289 E51.8743 F3600
G0 X183.656 Y93.687 F7200
G1 X136.313 Y46.344 E54.1011 F3600
G0 X136.975 Y46.441 F7200
G1 X183.559 Y93.025 E56.2923 F3600
G0 X183.432 Y92.332 F7200
G1 X137.668 Y46.568 E58.4449 F3600
G0 X138.360 Y46.695 F7200
G1 X183.305 Y91.640 E60.5590 F3600
G0 X183.178 Y90.947 F7200
G1 X139.053 Y46.822 E62.6345 F3600
G0 X139.745 Y46.949 F7200
G1 X183.051 Y90.255 E64.6715 F3600
G0 X182.924 Y89.562 F7200
G1 X140.438 Y47.076 E66.6699 F3600
G0 X141.131 Y47.202 F7200
G1 X182.798 Y88.869 E68.6298 F3600
G0 X182.671 Y88.177 F7200
G1 X141.823 Y47.329 E70.5512 F3600
G0 X142.516 Y47.456 F7200
G1 X182.544 Y87.484 E72.4339 F3600
G0 X182.365 Y86.740 F7200
G1 X143.260 Y47.635 E74.2733 F3600
G0 X144.082 Y47.891 F7200
G1 X182.109 Y85.918 E76.0621 F3600
G0 X181.853 Y85.097 F7200
G1 X144.903 Y48.147 E77.8001 F3600
G0 X145.725 Y48.403 F7200
G1 X181.597 Y84.275 E79.4874 F3600
G0 X181.341 Y83.453 F7200
G1 X146.547 Y48.659 E81.1240 F3600
G0 X147.369 Y48.915 F7200
G1 X181.085 Y82.631 E82.7099 F3600
G0 X180.829 Y81.810 F7200
G1 X148.190 Y49.171 E84.2452 F3600
G0 X149.012 Y49.427 F7200
G1 X180.573 Y80.988 E85.7297 F3600
G0 X180.147 Y79.997 F7200
G1 X150.003 Y49.852 E87.1476 F3600
G0 X151.032 Y50.315 F7200
G1 X179.685 Y78.968 E88.4953 F3600
G0 X179.222 Y77.939 F7200
G1 X152.060 Y50.778 E89.7729 F3600
G0 X153.089 Y51.241 F7200
G1 X178.759 Y76.911 E90.9803 F3600
G0 X178.296 Y75.882 F7200
G1 X154.118 Y51.704 E92.1176 F3600
G0 X155.160 Y52.181 F7200
G1 X177.820 Y74.841 E93.1835 F3600
G0 X176.955 Y73.410 F7200
G1 X156.590 Y53.045 E94.1414 F3600
G0 X172.162 Y66.354 F7200
G1 X163.646 Y57.838 E94.5419 F3600
G0 X158.021 Y53.910 F7200
G1 X176.090 Y71.980 E95.3919 F3600
G0 X175.225 Y70.549 F7200
G1 X159.451 Y54.775 E96.1338 F3600
G0 X161.034 Y55.792 F7200
G1 X174.208 Y68.966 E96.7535 F3600
G0 X183.957 Y101.342 F7200
G1 X128.658 Y46.043 E99.3546 F3600
G0 X128.125 Y46.076 F7200
G1 X183.924 Y101.875 E101.9793 F3600
G0 X183.892 Y102.409 F7200
G1 X127.591 Y46.108 E104.6275 F3600
G0 X127.058 Y46.140 F7200
G1 X183.860 Y102.942 E107.2993 F3600
G0 X183.827 Y103.476 F7200
G1 X126.524 Y46.173 E109.9947 F3600
G0 X125.991 Y46.205 F7200
G1 X183.795 Y104.009 E112.7136 F3600
G0 X183.763 Y104.543 F7200
G1 X125.457 Y46.237 E115.4561 F3600
G0 X124.924 Y46.269 F7200
G1 X183.731 Y105.076 E118.2222 F3600
G0 X183.698 Y105.609 F7200
G1 X124.391 Y46.302 E121.0118 F3600
G0 X123.857 Y46.334 F7200
G1 X183.666 Y106.143 E123.8250 F3600
G0 X183.617 Y106.659 F7200
G1 X123.341 Y46.383 E126.6603 F3600
G0 X122.863 Y46.471 F7200
G1 X183.529 Y107.137 E129.5138 F3600
G0 X183.442 Y107.616 F7200
G1 X122.384 Y46.558 E132.3858 F3600
G0 X121.906 Y46.646 F7200
G1 X183.354 Y108.094 E135.2761 F3600
G0 X183.267 Y108.572 F7200
G1 X121.428 Y46.733 E138.1848 F3600
G0 X120.950 Y46.821 F7200
G1 X183.179 Y109.050 E141.1118 F3600
G0 X183.091 Y109.528 F7200
G1 X120.472 Y46.909 E144.0573 F3600
G0 X119.994 Y46.996 F7200
G1 X183.004 Y110.006 E147.0210 F3600
G0 X182.916 Y110.484 F7200
G1 X119.516 Y47.084 E150.0032 F3600
G0 X119.038 Y47.171 F7200
G1 X182.829 Y110.962 E153.0037 F3600
G0 X182.741 Y111.440 F7200
G1 X118.560 Y47.259 E156.0226 F3600
G0 X118.082 Y47.347 F7200
G1 X182.653 Y111.918 E159.0598 F3600
G0 X182.566 Y112.396 F7200
G1 X117.604 Y47.434 E162.1154 F3600
G0 X117.126 Y47.522 F7200
G1 X182.478 Y112.874 E165.1894 F3600
G0 X182.349 Y113.311 F7200
G1 X116.689 Y47.651 E168.2779 F3600
G0 X116.257 Y47.785 F7200
G1 X182.215 Y113.743 E171.3803 F3600
G0 X182.081 Y114.174 F7200
G1 X115.826 Y47.919 E174.4967 F3600
G0 X115.395 Y48.054 F7200
G1 X181.946 Y114.605 E177.6271 F3600
G0 X181.812 Y115.036 F7200
G1 X114.964 Y48.188 E180.7714 F3600
G0 X114.532 Y48.323 F7200
G1 X181.677 Y115.468 E183.9297 F3600
G0 X181.543 Y115.899 F7200
G1 X114.101 Y48.457 E187.1020 F3600
G0 X113.670 Y48.591 F7200
G1 X181.409 Y116.330 E190.2882 F3600
G0 X181.274 Y116.762 F7200
G1 X113.238 Y48.726 E193.4884 F3600
G0 X112.807 Y48.860 F7200
G1 X181.140 Y117.193 E196.7026 F3600
G0 X181.005 Y117.624 F7200
G1 X112.376 Y48.995 E199.9307 F3600
G0 X111.944 Y49.129 F7200
G1 X180.871 Y118.056 E203.1728 F3600
G0 X180.737 Y118.487 F7200
G1 X111.513 Y49.263 E206.4289 F3600
G0 X111.082 Y49.398 F7200
G1 X180.602 Y118.918 E209.6989 F3600
G0 X180.450 Y119.331 F7200
G1 X110.669 Y49.550 E212.9812 F3600
G0 X110.278 Y49.726 F7200
G1 X180.274 Y119.722 E216.2736 F3600
G0 X180.099 Y120.112 F7200
G1 X109.888 Y49.901 E219.5760 F3600
G0 X109.498 Y50.077 F7200
G1 X179.923 Y120.502 E222.8886 F3600
G0 X179.748 Y120.892 F7200
G1 X109.108 Y50.252 E226.2113 F3600
G0 X108.718 Y50.428 F7200
G1 X179.572 Y121.282 E229.5440 F3600
G0 X179.396 Y121.672 F7200
G1 X108.328 Y50.604 E232.8869 F3600
G0 X107.938 Y50.779 F7200
G1 X179.221 Y122.062 E236.2398 F3600
G0 X179.045 Y122.452 F7200
G1 X107.548 Y50.955 E239.6028 F3600
G0 X107.158 Y51.130 F7200
G1 X178.870 Y122.842 E242.9760 F3600
G0 X178.694 Y123.233 F7200
G1 X106.767 Y51.306 E246.3592 F3600
G0 X106.377 Y51.482 F7200
G1 X178.519 Y123.623 E249.7525 F3600
G0 X178.343 Y124.013 F7200
G1 X105.987 Y51.657 E253.1559 F3600
G0 X105.597 Y51.833 F7200
G1 X178.167 Y124.403 E256.5693 F3600
G0 X177.992 Y124.793 F7200
G1 X105.207 Y52.008 E259.9929 F3600
G0 X104.824 Y52.191 F7200
G1 X177.810 Y125.176 E263.4260 F3600
G0 X177.596 Y125.529 F7200
G1 X104.471 Y52.404 E266.8656 F3600
G0 X104.119 Y52.617 F7200
G1 X177.383 Y125.881 E270.3117 F3600
G0 X177.170 Y126.234 F7200
G1 X103.766 Y52.830 E273.7644 F3600
G0 X103.413 Y53.043 F7200
G1 X176.957 Y126.587 E277.2236 F3600
G0 X176.744 Y126.939 F7200
G1 X103.061 Y53.256 E280.6895 F3600
G0 X102.708 Y53.469 F7200
G1 X176.531 Y127.292 E284.1618 F3600
G0 X176.318 Y127.644 F7200
G1 X102.356 Y53.682 E287.6408 F3600
G0 X102.003 Y53.896 F7200
G1 X176.104 Y127.997 E291.1263 F3600
G0 X175.891 Y128.349 F7200
G1 X101.651 Y54.109 E294.6184 F3600
G0 X101.298 Y54.322 F7200
G1 X175.678 Y128.702 E298.1170 F3600
G0 X175.465 Y129.054 F7200
G1 X100.946 Y54.535 E301.6221 F3600
G0 X100.593 Y54.748 F7200
G1 X175.252 Y129.407 E305.1338 F3600
G0 X175.039 Y129.760 F7200
G1 X100.240 Y54.961 E308.6521 F3600
G0 X99.888 Y55.174 F7200
G1 X174.826 Y130.112 E312.1770 F3600
G0 X174.612 Y130.465 F7200
G1 X99.535 Y55.388 E315.7084 F3600
G0 X99.195 Y55.613 F7200
G1 X174.387 Y130.805 E319.2452 F3600
G0 X174.139 Y131.122 F7200
G1 X98.878 Y55.861 E322.7852 F3600
G0 X98.561 Y56.110 F7200
G1 X173.890 Y131.439 E326.3285 F3600
G0 X173.642 Y131.757 F7200
G1 X98.243 Y56.358 E329.8750 F3600
G0 X97.926 Y56.607 F7200
G1 X173.393 Y132.074 E333.4248 F3600
G0 X173.145 Y132.391 F7200
G1 X97.609 Y56.855 E336.9777 F3600
G0 X97.292 Y57.104 F7200
G1 X172.896 Y132.708 E340.5339 F3600
G0 X172.648 Y133.025 F7200
G1 X96.975 Y57.352 E344.0934 F3600
G0 X96.657 Y57.601 F7200
G1 X172.399 Y133.343 E347.6560 F3600
G0 X172.151 Y133.660 F7200
G1 X96.340 Y57.849 E351.2219 F3600
G0 X96.023 Y58.098 F7200
G1 X171.902 Y133.977 E354.7911 F3600
G0 X171.654 Y134.294 F7200
G1 X95.706 Y58.346 E358.3634 F3600
G0 X95.389 Y58.595 F7200
G1 X171.405 Y134.611 E361.9390 F3600
G0 X171.157 Y134.929 F7200
G1 X95.071 Y58.843 E365.5178 F3600
G0 X94.754 Y59.092 F7200
G1 X170.908 Y135.246 E369.0999 F3600
G0 X170.660 Y135.563 F7200
G1 X94.437 Y59.340 E372.6852 F3600
G0 X94.125 Y59.594 F7200
G1 X170.406 Y135.875 E376.2732 F3600
G0 X170.123 Y136.158 F7200
G1 X93.842 Y59.877 E379.8613 F3600
G0 X93.559 Y60.159 F7200
G1 X169.841 Y136.441 E383.4493 F3600
G0 X169.558 Y136.724 F7200
G1 X93.276 Y60.442 E387.0374 F3600
G0 X92.994 Y60.725 F7200
G1 X169.275 Y137.006 E390.6254 F3600
G0 X168.992 Y137.289 F7200
G1 X92.711 Y61.008 E394.2135 F3600
G0 X92.428 Y61.291 F7200
G1 X168.709 Y137.572 E397.8015 F3600
G0 X168.426 Y137.855 F7200
G1 X92.145 Y61.574 E401.3895 F3600
G0 X91.862 Y61.856 F7200
G1 X168.144 Y138.138 E404.9776 F3600
G0 X167.861 Y138.421 F7200
G1 X91.579 Y62.139 E408.5656 F3600
G0 X91.296 Y62.422 F7200
G1 X167.578 Y138.704 E412.1537 F3600
G0 X167.295 Y138.986 F7200
G1 X91.014 Y62.705 E415.7417 F3600
G0 X90.731 Y62.988 F7200
G1 X167.012 Y139.269 E419.3298 F3600
G0 X166.729 Y139.552 F7200
G1 X90.448 Y63.271 E422.9178 F3600
G0 X90.165 Y63.554 F7200
G1 X166.446 Y139.835 E426.5059 F3600
G0 X166.164 Y140.118 F7200
G1 X89.882 Y63.836 E430.0939 F3600
G0 X89.599 Y64.119 F7200
G1 X165.881 Y140.401 E433.6819 F3600
G0 X165.569 Y140.655 F7200
G1 X89.345 Y64.431 E437.2673 F3600
G0 X89.097 Y64.748 F7200
G1 X165.252 Y140.903 E440.8494 F3600
G0 X164.935 Y141.152 F7200
G1 X88.848 Y65.065 E444.4283 F3600
G0 X88.600 Y65.382 F7200
G1 X164.618 Y141.400 E448.0040 F3600
G0 X164.301 Y141.649 F7200
G1 X88.351 Y65.699 E451.5764 F3600
G0 X88.103 Y66.017 F7200
G1 X163.983 Y141.897 E455.1456 F3600
G0 X163.666 Y142.146 F7200
G1 X87.854 Y66.334 E458.7115 F3600
G0 X87.606 Y66.651 F7200
G1 X163.349 Y142.394 E462.2743 F3600
G0 X163.032 Y142.643 F7200
G1 X87.357 Y66.968 E465.8338 F3600
G0 X87.109 Y67.285 F7200
G1 X162.715 Y142.891 E469.3900 F3600
G0 X162.397 Y143.140 F7200
G1 X86.860 Y67.603 E472.9431 F3600
G0 X86.612 Y67.920 F7200
G1 X162.080 Y143.388 E476.4929 F3600
G0 X161.763 Y143.637 F7200
G1 X86.363 Y68.237 E480.0395 F3600
G0 X86.115 Y68.554 F7200
G1 X161.446 Y143.885 E483.5828 F3600
G0 X161.129 Y144.134 F7200
G1 X85.866 Y68.871 E487.1229 F3600
G0 X85.618 Y69.188 F7200
G1 X160.812 Y144.382 E490.6598 F3600
G0 X160.472 Y144.608 F7200
G1 X85.392 Y69.528 E494.1913 F3600
G0 X85.179 Y69.881 F7200
G1 X160.119 Y144.821 E497.7163 F3600
G0 X159.767 Y145.034 F7200
G1 X84.966 Y70.233 E501.2347 F3600
G0 X84.752 Y70.586 F7200
G1 X159.414 Y145.248 E504.7465 F3600
G0 X159.061 Y145.461 F7200
G1 X84.539 Y70.939 E508.2518 F3600
G0 X84.326 Y71.291 F7200
G1 X158.709 Y145.674 E511.7506 F3600
G0 X158.356 Y145.887 F7200
G1 X84.113 Y71.644 E515.2428 F3600
G0 X83.900 Y71.996 F7200
G1 X158.004 Y146.100 E518.7284 F3600
G0 X157.651 Y146.313 F7200
G1 X83.687 Y72.349 E522.2074 F3600
G0 X83.474 Y72.701 F7200
G1 X157.299 Y146.526 E525.6799 F3600
G0 X156.946 Y146.739 F7200
G1 X83.261 Y73.054 E529.1458 F3600
G0 X83.047 Y73.406 F7200
G1 X156.594 Y146.953 E532.6052 F3600
G0 X156.241 Y147.166 F7200
G1 X82.834 Y73.759 E536.0581 F3600
G0 X82.621 Y74.111 F7200
G1 X155.889 Y147.379 E539.5044 F3600
G0 X155.536 Y147.592 F7200
G1 X82.408 Y74.464 E542.9441 F3600
G0 X82.195 Y74.817 F7200
G1 X155.183 Y147.805 E546.3772 F3600
G0 X154.801 Y147.988 F7200
G1 X82.012 Y75.199 E549.8010 F3600
G0 X81.836 Y75.589 F7200
G1 X154.411 Y148.164 E553.2147 F3600
G0 X154.021 Y148.339 F7200
G1 X81.661 Y75.979 E556.6183 F3600
G0 X81.485 Y76.369 F7200
G1 X153.631 Y148.515 E560.0118 F3600
G0 X153.240 Y148.691 F7200
G1 X81.309 Y76.760 E563.3952 F3600
G0 X81.134 Y77.150 F7200
G1 X152.850 Y148.866 E566.7686 F3600
G0 X152.460 Y149.042 F7200
G1 X80.958 Y77.540 E570.1318 F3600
G0 X80.783 Y77.930 F7200
G1 X152.070 Y149.217 E573.4849 F3600
G0 X151.680 Y149.393 F7200
G1 X80.607 Y78.320 E576.8280 F3600
G0 X80.431 Y78.710 F7200
G1 X151.290 Y149.568 E580.1610 F3600
G0 X150.900 Y149.744 F7200
G1 X80.256 Y79.100 E583.4839 F3600
G0 X80.080 Y79.490 F7200
G1 X150.510 Y149.920 E586.7967 F3600
G0 X150.120 Y150.095 F7200
G1 X79.905 Y79.880 E590.0993 F3600
G0 X79.729 Y80.271 F7200
G1 X149.730 Y150.271 E593.3919 F3600
G0 X149.339 Y150.446 F7200
G1 X79.554 Y80.661 E596.6745 F3600
G0 X79.400 Y81.073 F7200
G1 X148.927 Y150.600 E599.9448 F3600
G0 X148.496 Y150.734 F7200
G1 X79.266 Y81.504 E603.2011 F3600
G0 X79.132 Y81.936 F7200
G1 X148.064 Y150.868 E606.4435 F3600
G0 X147.633 Y151.003 F7200
G1 X78.997 Y82.367 E609.6719 F3600
G0 X78.863 Y82.798 F7200
G1 X147.202 Y151.137 E612.8863 F3600
G0 X146.770 Y151.271 F7200
G1 X78.729 Y83.230 E616.0868 F3600
G0 X78.594 Y83.661 F7200
G1 X146.339 Y151.406 E619.2733 F3600
G0 X145.908 Y151.540 F7200
G1 X78.460 Y84.092 E622.4459 F3600
G0 X78.325 Y84.523 F7200
G1 X145.477 Y151.675 E625.6045 F3600
G0 X145.045 Y151.809 F7200
G1 X78.191 Y84.955 E628.7490 F3600
G0 X78.057 Y85.386 F7200
G1 X144.614 Y151.943 E631.8797 F3600
G0 X144.183 Y152.078 F7200
G1 X77.922 Y85.817 E634.9964 F3600
G0 X77.788 Y86.249 F7200
G1 X143.751 Y152.212 E638.0991 F3600
G0 X143.320 Y152.347 F7200
G1 X77.653 Y86.680 E641.1879 F3600
G0 X77.524 Y87.116 F7200
G1 X142.884 Y152.476 E644.2622 F3600
G0 X142.406 Y152.564 F7200
G1 X77.436 Y87.594 E647.3182 F3600
G0 X77.348 Y88.072 F7200
G1 X141.928 Y152.652 E650.3558 F3600
G0 X141.450 Y152.739 F7200
G1 X77.261 Y88.550 E653.3750 F3600
G0 X77.173 Y89.028 F7200
G1 X140.972 Y152.827 E656.3759 F3600
G0 X140.494 Y152.914 F7200
G1 X77.086 Y89.506 E659.3585 F3600
G0 X76.998 Y89.984 F7200
G1 X140.016 Y153.002 E662.3227 F3600
G0 X139.537 Y153.090 F7200
G1 X76.910 Y90.463 E665.2685 F3600
G0 X76.823 Y90.941 F7200
G1 X139.059 Y153.177 E668.1959 F3600
G0 X138.581 Y153.265 F7200
G1 X76.735 Y91.419 E671.1049 F3600
G0 X76.648 Y91.897 F7200
G1 X138.103 Y153.352 E673.9956 F3600
G0 X137.625 Y153.440 F7200
G1 X76.560 Y92.375 E676.8679 F3600
G0 X76.472 Y92.853 F7200
G1 X137.147 Y153.528 E679.7219 F3600
G0 X136.669 Y153.615 F7200
G1 X76.385 Y93.331 E682.5575 F3600
G0 X76.335 Y93.846 F7200
G1 X136.154 Y153.665 E685.3712 F3600
G0 X135.620 Y153.698 F7200
G1 X76.302 Y94.380 E688.1613 F3600
G0 X76.270 Y94.913 F7200
G1 X135.087 Y153.730 E690.9278 F3600
G0 X134.553 Y153.762 F7200
G1 X76.238 Y95.447 E693.6708 F3600
G0 X76.206 Y95.980 F7200
G1 X134.020 Y153.794 E696.3902 F3600
G0 X133.486 Y153.827 F7200
G1 X76.173 Y96.514 E699.0861 F3600
G0 X76.141 Y97.047 F7200
G1 X132.953 Y153.859 E701.7583 F3600
G0 X132.420 Y153.891 F7200
G1 X76.109 Y97.580 E704.4070 F3600
G0 X76.076 Y98.114 F7200
G1 X131.886 Y153.924 E707.0321 F3600
G0 X131.353 Y153.956 F7200
G1 X76.044 Y98.647 E709.6337 F3600
G0 X76.012 Y99.181 F7200
G1 X130.819 Y153.988 E712.2117 F3600
G0 X130.286 Y154.020 F7200
G1 X75.980 Y99.714 E714.7661 F3600
G0 X75.979 Y100.279 F7200
G1 X129.721 Y154.021 E717.2939 F3600
G0 X129.119 Y153.984 F7200
G1 X76.016 Y100.881 E719.7917 F3600
G0 X76.052 Y101.484 F7200
G1 X128.516 Y153.948 E722.2595 F3600
G0 X127.914 Y153.911 F7200
G1 X76.089 Y102.086 E724.6972 F3600
G0 X76.125 Y102.688 F7200
G1 X127.312 Y153.875 E727.1049 F3600
G0 X126.710 Y153.839 F7200
G1 X76.161 Y103.290 E729.4826 F3600
G0 X76.198 Y103.892 F7200
G1 X126.108 Y153.802 E731.8302 F3600
G0 X125.506 Y153.766 F7200
G1 X76.234 Y104.494 E734.1478 F3600
G0 X76.271 Y105.096 F7200
G1 X124.904 Y153.729 E736.4353 F3600
G0 X124.302 Y153.693 F7200
G1 X76.307 Y105.698 E738.6928 F3600
G0 X76.343 Y106.300 F7200
G1 X123.700 Y153.657 E740.9203 F3600
G0 X123.039 Y153.562 F7200
G1 X76.438 Y106.961 E743.1123 F3600
G0 X76.565 Y107.654 F7200
G1 X122.346 Y153.435 E745.2656 F3600
G0 X121.654 Y153.308 F7200
G1 X76.692 Y108.346 E747.3805 F3600
G0 X76.819 Y109.039 F7200
G1 X120.961 Y153.181 E749.4568 F3600
G0 X120.269 Y153.054 F7200
G1 X76.946 Y109.731 E751.4946 F3600
G0 X77.073 Y110.424 F7200
G1 X119.576 Y152.927 E753.4938 F3600
G0 X118.883 Y152.800 F7200
G1 X77.200 Y111.117 E755.4545 F3600
G0 X77.327 Y111.809 F7200
G1 X118.191 Y152.673 E757.3766 F3600
G0 X117.498 Y152.546 F7200
G1 X77.454 Y112.502 E759.2602 F3600
G0 X77.629 Y113.243 F7200
G1 X116.757 Y152.371 E761.1007 F3600
G0 X115.935 Y152.115 F7200
G1 X77.885 Y114.065 E762.8904 F3600
G0 X78.142 Y114.887 F7200
G1 X115.113 Y151.858 E764.6294 F3600
G0 X114.292 Y151.602 F7200
G1 X78.398 Y115.708 E766.3178 F3600
G0 X78.654 Y116.530 F7200
G1 X113.470 Y151.346 E767.9554 F3600
G0 X112.648 Y151.090 F7200
G1 X78.910 Y117.352 E769.5424 F3600
G0 X79.166 Y118.174 F7200
G1 X111.826 Y150.834 E771.0786 F3600
G0 X111.005 Y150.578 F7200
G1 X79.422 Y118.995 E772.5642 F3600
G0 X79.843 Y119.982 F7200
G1 X110.018 Y150.157 E773.9835 F3600
G0 X108.989 Y149.694 F7200
G1 X80.306 Y121.011 E775.3327 F3600
G0 X80.769 Y122.040 F7200
G1 X107.960 Y149.231 E776.6117 F3600
G0 X106.932 Y148.768 F7200
G1 X81.232 Y123.068 E777.8205 F3600
G0 X81.695 Y124.097 F7200
G1 X105.903 Y148.305 E778.9592 F3600
G0 X104.869 Y147.837 F7200
G1 X82.163 Y125.131 E780.0272 F3600
G0 X83.028 Y126.561 F7200
G1 X103.439 Y146.972 E780.9873 F3600
G0 X102.008 Y146.108 F7200
G1 X83.892 Y127.992 E781.8394 F3600
G0 X84.757 Y129.422 F7200
G1 X100.578 Y145.243 E782.5836 F3600
G0 X99.019 Y144.250 F7200
G1 X85.750 Y130.981 E783.2077 F3600
G0 X87.797 Y133.593 F7200
G1 X96.407 Y142.203 E783.6128 F3600
; ------------------------------------
; Layer #3
; ------------------------------------
G92 E0 ;reset extr
G0 F3000 E-1.0000
G0 F600 Z0.800
G0 X76.016 Y99.112 F7200
G0 F3000 E0.0000
;segType:HShell
G1 X129.113 Y46.016 E2.4975 F3600
G0 X129.300 Y45.458 F7200
;segType:Perimeter
G1 X130.059 Y45.204 E2.5241 F2159
G1 X136.606 Y45.601 E2.7423
G1 X143.115 Y46.793 E2.9624
G1 X149.432 Y48.762 E3.1824
G1 X155.466 Y51.477 E3.4025
G1 X161.130 Y54.902 E3.6226
G1 X166.339 Y58.982 E3.8427
G1 X171.018 Y63.661 E4.0628
G1 X175.099 Y68.871 E4.2829
G1 X178.522 Y74.533 E4.5030
G1 X181.239 Y80.569 E4.7231
G1 X183.207 Y86.885 E4.9431
G1 X184.399 Y93.394 E5.1632
G1 X184.799 Y100.001 E5.3834
G1 X184.400 Y106.606 E5.6035
G1 X183.207 Y113.114 E5.8235
G1 X181.238 Y119.431 E6.0436
G1 X178.522 Y125.467 E6.2638
G1 X175.099 Y131.129 E6.4838
G1 X171.018 Y136.339 E6.7039
G1 X166.339 Y141.018 E6.9240
G1 X161.130 Y145.098 E7.1441
G1 X155.466 Y148.523 E7.3642
G1 X149.432 Y151.238 E7.5843
G1 X143.114 Y153.207 E7.8044
G1 X136.605 Y154.400 E8.0245
G1 X130.000 Y154.799 E8.2446
G1 X123.395 Y154.400 E8.4647
G1 X116.886 Y153.207 E8.6848
G1 X110.568 Y151.238 E8.9049
G1 X104.534 Y148.522 E9.1250
G1 X98.870 Y145.099 E9.3451
G1 X93.661 Y141.018 E9.5652
G1 X88.982 Y136.339 E9.7853
G1 X84.901 Y131.129 E10.0054
G1 X81.478 Y125.467 E10.2255
G1 X78.762 Y119.432 E10.4456
G1 X76.793 Y113.114 E10.6657
G1 X75.600 Y106.605 E10.8857
G1 X75.201 Y100.000 E11.1058
G1 X75.600 Y93.395 E11.3259
G1 X76.793 Y86.886 E11.5460
G1 X78.762 Y80.568 E11.7661
G1 X81.477 Y74.534 E11.9862
G1 X84.902 Y68.870 E12.2063
G1 X88.982 Y63.661 E12.4264
G1 X93.661 Y58.982 E12.6465
G1 X98.871 Y54.901 E12.8666
G1 X104.533 Y51.478 E13.0867
G1 X110.569 Y48.762 E13.3068
G1 X116.886 Y46.793 E13.5269
G1 X123.394 Y45.600 E13.7470
G1 X129.939 Y45.204 E13.9651
G0 X130.698 Y45.458 F7200
G0 X131.073 Y45.666
;segType:Loop
G1 X136.558 Y45.998 E14.1478 F3600
G1 X143.019 Y47.182 E14.3663
G1 X149.289 Y49.136 E14.5847
G1 X155.280 Y51.832 E14.8032
G1 X160.902 Y55.231 E15.0218
G1 X166.073 Y59.282 E15.2402
G1 X170.718 Y63.927 E15.4587
G1 X174.769 Y69.098 E15.6772
G1 X178.167 Y74.719 E15.8956
G1 X180.864 Y80.711 E16.1142
G1 X182.818 Y86.981 E16.3326
G1 X184.002 Y93.442 E16.5511
G1 X184.398 Y100.001 E16.7696
G1 X184.002 Y106.558 E16.9881
G1 X182.818 Y113.018 E17.2066
G1 X180.864 Y119.289 E17.4250
G1 X178.167 Y125.281 E17.6436
G1 X174.769 Y130.902 E17.8620
G1 X170.718 Y136.073 E18.0805
G1 X166.073 Y140.718 E18.2990
G1 X160.902 Y144.769 E18.5175
G1 X155.280 Y148.168 E18.7360
G1 X149.290 Y150.864 E18.9545
G1 X143.019 Y152.818 E19.1730
G1 X136.557 Y154.002 E19.3914
G1 X130.000 Y154.398 E19.6099
G1 X123.443 Y154.002 E19.8284
G1 X116.981 Y152.818 E20.0469
G1 X110.710 Y150.864 E20.2654
G1 X104.720 Y148.167 E20.4839
G1 X99.098 Y144.769 E20.7024
G1 X93.927 Y140.718 E20.9208
G1 X89.282 Y136.073 E21.1393
G1 X85.231 Y130.902 E21.3578
G1 X81.833 Y125.280 E21.5763
G1 X79.136 Y119.290 E21.7948
G1 X77.182 Y113.019 E22.0133
G1 X75.998 Y106.557 E22.2318
G1 X75.602 Y100.000 E22.4502
G1 X75.998 Y93.443 E22.6687
G1 X77.182 Y86.982 E22.8872
G1 X79.136 Y80.710 E23.1057
G1 X81.832 Y74.720 E23.3242
G1 X85.231 Y69.098 E23.5427
G1 X89.282 Y63.927 E23.7612
G1 X93.927 Y59.282 E23.9796
G1 X99.098 Y55.231 E24.1981
G1 X104.719 Y51.833 E24.4166
G1 X110.711 Y49.136 E24.6351
G1 X116.982 Y47.182 E24.8536
G1 X123.442 Y45.998 E25.0720
G1 X129.999 Y45.602 E25.2905
G1 X130.873 Y45.654 E25.3197
G0 X128.510 Y46.052 F7200
;segType:HShell
G1 X76.052 Y98.510 E27.7871 F3600
G0 X76.089 Y97.908 F7200
G1 X127.908 Y46.089 E30.2246 F3600
G0 X127.306 Y46.125 F7200
G1 X76.125 Y97.306 E32.6319 F3600
G0 X76.162 Y96.704 F7200
G1 X126.704 Y46.162 E35.0093 F3600
G0 X126.102 Y46.198 F7200
G1 X76.198 Y96.102 E37.3566 F3600
G0 X76.235 Y95.500 F7200
G1 X125.500 Y46.235 E39.6739 F3600
G0 X124.898 Y46.271 F7200
G1 X76.271 Y94.898 E41.9612 F3600
G0 X76.307 Y94.296 F7200
G1 X124.296 Y46.307 E44.2184 F3600
G0 X123.693 Y46.344 F7200
G1 X76.344 Y93.693 E46.4456 F3600
G0 X76.440 Y93.032 F7200
G1 X123.032 Y46.440 E48.6371 F3600
G0 X122.339 Y46.566 F7200
G1 X76.567 Y92.339 E50.7901 F3600
G0 X76.693 Y91.647 F7200
G1 X121.647 Y46.693 E52.9046 F3600
G0 X120.954 Y46.820 F7200
G1 X76.820 Y90.954 E54.9805 F3600
G0 X76.947 Y90.262 F7200
G1 X120.262 Y46.947 E57.0179 F3600
G0 X119.569 Y47.074 F7200
G1 X77.074 Y89.569 E59.0167 F3600
G0 X77.201 Y88.876 F7200
G1 X118.876 Y47.201 E60.9770 F3600
G0 X118.184 Y47.328 F7200
G1 X77.328 Y88.184 E62.8988 F3600
G0 X77.455 Y87.491 F7200
G1 X117.491 Y47.455 E64.7819 F3600
G0 X116.748 Y47.632 F7200
G1 X77.632 Y86.748 E66.6219 F3600
G0 X77.888 Y85.927 F7200
G1 X115.927 Y47.888 E68.4111 F3600
G0 X115.105 Y48.144 F7200
G1 X78.144 Y85.105 E70.1496 F3600
G0 X78.400 Y84.283 F7200
G1 X114.283 Y48.400 E71.8374 F3600
G0 X113.461 Y48.656 F7200
G1 X78.656 Y83.461 E73.4745 F3600
G0 X78.912 Y82.640 F7200
G1 X112.640 Y48.912 E75.0610 F3600
G0 X111.818 Y49.168 F7200
G1 X79.168 Y81.818 E76.5967 F3600
G0 X79.424 Y80.996 F7200
G1 X110.996 Y49.424 E78.0818 F3600
G0 X110.007 Y49.848 F7200
G1 X79.848 Y80.007 E79.5004 F3600
G0 X80.311 Y78.979 F7200
G1 X108.979 Y50.311 E80.8488 F3600
G0 X107.950 Y50.774 F7200
G1 X80.774 Y77.950 E82.1271 F3600
G0 X81.237 Y76.921 F7200
G1 X106.921 Y51.237 E83.3352 F3600
G0 X105.893 Y51.700 F7200
G1 X81.699 Y75.893 E84.4732 F3600
G0 X82.172 Y74.855 F7200
G1 X104.855 Y52.171 E85.5402 F3600
G0 X103.425 Y53.036 F7200
G1 X83.037 Y73.424 E86.4992 F3600
G0 X84.766 Y70.563 F7200
G1 X100.564 Y54.766 E87.2422 F3600
G0 X98.993 Y55.771 F7200
G1 X85.771 Y68.993 E87.8641 F3600
G0 X96.381 Y57.818 F7200
G1 X87.818 Y66.381 E88.2669 F3600
G0 X101.994 Y53.901 F7200
G1 X83.901 Y71.994 E89.1179 F3600
G0 X75.980 Y99.715 F7200
G1 X129.715 Y45.980 E91.6455 F3600
G0 X130.281 Y45.979 F7200
G1 X75.979 Y100.281 E94.1996 F3600
G0 X76.012 Y100.814 F7200
G1 X130.814 Y46.012 E96.7774 F3600
G0 X131.347 Y46.044 F7200
G1 X76.044 Y101.347 E99.3787 F3600
G0 X76.076 Y101.881 F7200
G1 X131.881 Y46.076 E102.0036 F3600
G0 X132.414 Y46.108 F7200
G1 X76.108 Y102.414 E104.6520 F3600
G0 X76.141 Y102.948 F7200
G1 X132.948 Y46.141 E107.3240 F3600
G0 X133.481 Y46.173 F7200
G1 X76.173 Y103.481 E110.0196 F3600
G0 X76.205 Y104.014 F7200
G1 X134.014 Y46.205 E112.7388 F3600
G0 X134.548 Y46.238 F7200
G1 X76.237 Y104.548 E115.4815 F3600
G0 X76.270 Y105.081 F7200
G1 X135.081 Y46.270 E118.2479 F3600
G0 X135.615 Y46.302 F7200
G1 X76.302 Y105.615 E121.0377 F3600
G0 X76.334 Y106.148 F7200
G1 X136.148 Y46.334 E123.8512 F3600
G0 X136.664 Y46.384 F7200
G1 X76.384 Y106.664 E126.6866 F3600
G0 X76.472 Y107.142 F7200
G1 X137.142 Y46.472 E129.5404 F3600
G0 X137.620 Y46.559 F7200
G1 X76.559 Y107.620 E132.4125 F3600
G0 X76.647 Y108.098 F7200
G1 X138.098 Y46.647 E135.3030 F3600
G0 X138.576 Y46.734 F7200
G1 X76.734 Y108.576 E138.2118 F3600
G0 X76.822 Y109.055 F7200
G1 X139.055 Y46.822 E141.1391 F3600
G0 X139.533 Y46.910 F7200
G1 X76.910 Y109.533 E144.0846 F3600
G0 X76.997 Y110.011 F7200
G1 X140.011 Y46.997 E147.0486 F3600
G0 X140.489 Y47.085 F7200
G1 X77.085 Y110.489 E150.0309 F3600
G0 X77.172 Y110.967 F7200
G1 X140.967 Y47.172 E153.0316 F3600
G0 X141.445 Y47.260 F7200
G1 X77.260 Y111.445 E156.0507 F3600
G0 X77.348 Y111.923 F7200
G1 X141.923 Y47.348 E159.0881 F3600
G0 X142.401 Y47.435 F7200
G1 X77.435 Y112.401 E162.1439 F3600
G0 X77.523 Y112.879 F7200
G1 X142.879 Y47.523 E165.2181 F3600
G0 X143.316 Y47.652 F7200
G1 X77.652 Y113.316 E168.3067 F3600
G0 X77.786 Y113.747 F7200
G1 X143.747 Y47.786 E171.4093 F3600
G0 X144.178 Y47.921 F7200
G1 X77.921 Y114.178 E174.5258 F3600
G0 X78.055 Y114.610 F7200
G1 X144.610 Y48.055 E177.6563 F3600
G0 X145.041 Y48.190 F7200
G1 X78.190 Y115.041 E180.8008 F3600
G0 X78.324 Y115.472 F7200
G1 X145.472 Y48.324 E183.9593 F3600
G0 X145.903 Y48.458 F7200
G1 X78.458 Y115.903 E187.1317 F3600
G0 X78.593 Y116.335 F7200
G1 X146.335 Y48.593 E190.3181 F3600
G0 X146.766 Y48.727 F7200
G1 X78.727 Y116.766 E193.5184 F3600
G0 X78.862 Y117.197 F7200
G1 X147.197 Y48.862 E196.7327 F3600
G0 X147.629 Y48.996 F7200
G1 X78.996 Y117.629 E199.9610 F3600
G0 X79.130 Y118.060 F7200
G1 X148.060 Y49.130 E203.2032 F3600
G0 X148.491 Y49.265 F7200
G1 X79.265 Y118.491 E206.4594 F3600
G0 X79.399 Y118.922 F7200
G1 X148.923 Y49.399 E209.7296 F3600
G0 X149.335 Y49.552 F7200
G1 X79.552 Y119.335 E213.0120 F3600
G0 X79.727 Y119.726 F7200
G1 X149.726 Y49.727 E216.3045 F3600
G0 X150.116 Y49.903 F7200
G1 X79.903 Y120.116 E219.6071 F3600
G0 X80.079 Y120.506 F7200
G1 X150.506 Y50.079 E222.9198 F3600
G0 X150.896 Y50.254 F7200
G1 X80.254 Y120.896 E226.2425 F3600
G0 X80.430 Y121.286 F7200
G1 X151.286 Y50.430 E229.5754 F3600
G0 X151.676 Y50.605 F7200
G1 X80.605 Y121.676 E232.9183 F3600
G0 X80.781 Y122.066 F7200
G1 X152.066 Y50.781 E236.2714 F3600
G0 X152.456 Y50.956 F7200
G1 X80.957 Y122.456 E239.6345 F3600
G0 X81.132 Y122.846 F7200
G1 X152.846 Y51.132 E243.0077 F3600
G0 X153.237 Y51.308 F7200
G1 X81.308 Y123.236 E246.3910 F3600
G0 X81.483 Y123.627 F7200
G1 X153.627 Y51.483 E249.7845 F3600
G0 X154.017 Y51.659 F7200
G1 X81.659 Y124.017 E253.1879 F3600
G0 X81.834 Y124.407 F7200
G1 X154.407 Y51.834 E256.6015 F3600
G0 X154.797 Y52.010 F7200
G1 X82.010 Y124.797 E260.0252 F3600
G0 X82.193 Y125.180 F7200
G1 X155.180 Y52.193 E263.4583 F3600
G0 X155.532 Y52.406 F7200
G1 X82.406 Y125.532 E266.8979 F3600
G0 X82.619 Y125.885 F7200
G1 X155.885 Y52.619 E270.3441 F3600
G0 X156.237 Y52.832 F7200
G1 X82.832 Y126.238 E273.7969 F3600
G0 X83.045 Y126.590 F7200
G1 X156.590 Y53.045 E277.2562 F3600
G0 X156.943 Y53.258 F7200
G1 X83.258 Y126.943 E280.7221 F3600
G0 X83.472 Y127.295 F7200
G1 X157.295 Y53.472 E284.1945 F3600
G0 X157.648 Y53.685 F7200
G1 X83.685 Y127.648 E287.6735 F3600
G0 X83.898 Y128.000 F7200
G1 X158.000 Y53.898 E291.1591 F3600
G0 X158.353 Y54.111 F7200
G1 X84.111 Y128.353 E294.6512 F3600
G0 X84.324 Y128.705 F7200
G1 X158.705 Y54.324 E298.1499 F3600
G0 X159.058 Y54.537 F7200
G1 X84.537 Y129.058 E301.6551 F3600
G0 X84.750 Y129.411 F7200
G1 X159.410 Y54.750 E305.1669 F3600
G0 X159.763 Y54.963 F7200
G1 X84.963 Y129.763 E308.6852 F3600
G0 X85.177 Y130.116 F7200
G1 X160.116 Y55.177 E312.2101 F3600
G0 X160.468 Y55.390 F7200
G1 X85.390 Y130.468 E315.7416 F3600
G0 X85.615 Y130.808 F7200
G1 X160.808 Y55.615 E319.2784 F3600
G0 X161.126 Y55.864 F7200
G1 X85.864 Y131.126 E322.8185 F3600
G0 X86.112 Y131.443 F7200
G1 X161.443 Y56.112 E326.3618 F3600
G0 X161.760 Y56.361 F7200
G1 X86.361 Y131.760 E329.9084 F3600
G0 X86.609 Y132.077 F7200
G1 X162.077 Y56.609 E333.4581 F3600
G0 X162.394 Y56.858 F7200
G1 X86.858 Y132.394 E337.0112 F3600
G0 X87.106 Y132.711 F7200
G1 X162.711 Y57.106 E340.5674 F3600
G0 X163.029 Y57.355 F7200
G1 X87.355 Y133.029 E344.1269 F3600
G0 X87.603 Y133.346 F7200
G1 X163.346 Y57.603 E347.6896 F3600
G0 X163.663 Y57.852 F7200
G1 X87.852 Y133.663 E351.2555 F3600
G0 X88.100 Y133.980 F7200
G1 X163.980 Y58.100 E354.8247 F3600
G0 X164.297 Y58.349 F7200
G1 X88.349 Y134.297 E358.3971 F3600
G0 X88.597 Y134.615 F7200
G1 X164.615 Y58.597 E361.9727 F3600
G0 X164.932 Y58.846 F7200
G1 X88.846 Y134.932 E365.5516 F3600
G0 X89.094 Y135.249 F7200
G1 X165.249 Y59.094 E369.1336 F3600
G0 X165.566 Y59.343 F7200
G1 X89.343 Y135.566 E372.7190 F3600
G0 X89.597 Y135.878 F7200
G1 X165.878 Y59.597 E376.3070 F3600
G0 X166.161 Y59.879 F7200
G1 X89.879 Y136.161 E379.8951 F3600
G0 X90.162 Y136.444 F7200
G1 X166.444 Y60.162 E383.4831 F3600
G0 X166.726 Y60.445 F7200
G1 X90.445 Y136.726 E387.0711 F3600
G0 X90.728 Y137.009 F7200
G1 X167.009 Y60.728 E390.6592 F3600
G0 X167.292 Y61.011 F7200
G1 X91.011 Y137.292 E394.2472 F3600
G0 X91.294 Y137.575 F7200
G1 X167.575 Y61.294 E397.8353 F3600
G0 X167.858 Y61.576 F7200
G1 X91.576 Y137.858 E401.4233 F3600
G0 X91.859 Y138.141 F7200
G1 X168.141 Y61.859 E405.0114 F3600
G0 X168.424 Y62.142 F7200
G1 X92.142 Y138.424 E408.5994 F3600
G0 X92.425 Y138.706 F7200
G1 X168.706 Y62.425 E412.1875 F3600
G0 X168.989 Y62.708 F7200
G1 X92.708 Y138.989 E415.7755 F3600
G0 X92.991 Y139.272 F7200
G1 X169.272 Y62.991 E419.3635 F3600
G0 X169.555 Y63.274 F7200
G1 X93.274 Y139.555 E422.9516 F3600
G0 X93.556 Y139.838 F7200
G1 X169.838 Y63.556 E426.5396 F3600
G0 X170.121 Y63.839 F7200
G1 X93.839 Y140.121 E430.1277 F3600
G0 X94.122 Y140.403 F7200
G1 X170.403 Y64.122 E433.7157 F3600
G0 X170.657 Y64.434 F7200
G1 X94.434 Y140.657 E437.3011 F3600
G0 X94.751 Y140.906 F7200
G1 X170.906 Y64.751 E440.8831 F3600
G0 X171.154 Y65.068 F7200
G1 X95.068 Y141.154 E444.4620 F3600
G0 X95.385 Y141.403 F7200
G1 X171.403 Y65.385 E448.0376 F3600
G0 X171.651 Y65.703 F7200
G1 X95.703 Y141.651 E451.6100 F3600
G0 X96.020 Y141.900 F7200
G1 X171.900 Y66.020 E455.1792 F3600
G0 X172.148 Y66.337 F7200
G1 X96.337 Y142.148 E458.7451 F3600
G0 X96.654 Y142.397 F7200
G1 X172.397 Y66.654 E462.3078 F3600
G0 X172.645 Y66.971 F7200
G1 X96.971 Y142.645 E465.8673 F3600
G0 X97.289 Y142.894 F7200
G1 X172.894 Y67.289 E469.4235 F3600
G0 X173.142 Y67.606 F7200
G1 X97.606 Y143.142 E472.9765 F3600
G0 X97.923 Y143.391 F7200
G1 X173.391 Y67.923 E476.5263 F3600
G0 X173.639 Y68.240 F7200
G1 X98.240 Y143.639 E480.0728 F3600
G0 X98.557 Y143.888 F7200
G1 X173.888 Y68.557 E483.6161 F3600
G0 X174.136 Y68.874 F7200
G1 X98.874 Y144.136 E487.1562 F3600
G0 X99.192 Y144.385 F7200
G1 X174.385 Y69.192 E490.6931 F3600
G0 X174.610 Y69.532 F7200
G1 X99.532 Y144.610 E494.2245 F3600
G0 X99.884 Y144.823 F7200
G1 X174.823 Y69.884 E497.7494 F3600
G0 X175.037 Y70.237 F7200
G1 X100.237 Y145.037 E501.2678 F3600
G0 X100.589 Y145.250 F7200
G1 X175.250 Y70.589 E504.7796 F3600
G0 X175.463 Y70.942 F7200
G1 X100.942 Y145.463 E508.2848 F3600
G0 X101.295 Y145.676 F7200
G1 X175.676 Y71.295 E511.7835 F3600
G0 X175.889 Y71.647 F7200
G1 X101.647 Y145.889 E515.2756 F3600
G0 X102.000 Y146.102 F7200
G1 X176.102 Y72.000 E518.7611 F3600
G0 X176.315 Y72.352 F7200
G1 X102.352 Y146.315 E522.2401 F3600
G0 X102.705 Y146.529 F7200
G1 X176.529 Y72.705 E525.7125 F3600
G0 X176.742 Y73.057 F7200
G1 X103.057 Y146.742 E529.1784 F3600
G0 X103.410 Y146.955 F7200
G1 X176.955 Y73.410 E532.6378 F3600
G0 X177.168 Y73.762 F7200
G1 X103.762 Y147.168 E536.0905 F3600
G0 X104.115 Y147.381 F7200
G1 X177.381 Y74.115 E539.5368 F3600
G0 X177.594 Y74.468 F7200
G1 X104.468 Y147.594 E542.9764 F3600
G0 X104.820 Y147.807 F7200
G1 X177.807 Y74.820 E546.4095 F3600
G0 X177.990 Y75.203 F7200
G1 X105.203 Y147.990 E549.8332 F3600
G0 X105.593 Y148.166 F7200
G1 X178.166 Y75.593 E553.2467 F3600
G0 X178.341 Y75.983 F7200
G1 X105.983 Y148.341 E556.6502 F3600
G0 X106.373 Y148.517 F7200
G1 X178.517 Y76.373 E560.0436 F3600
G0 X178.692 Y76.764 F7200
G1 X106.763 Y148.692 E563.4269 F3600
G0 X107.154 Y148.868 F7200
G1 X178.868 Y77.154 E566.8001 F3600
G0 X179.043 Y77.544 F7200
G1 X107.544 Y149.044 E570.1633 F3600
G0 X107.934 Y149.219 F7200
G1 X179.219 Y77.934 E573.5163 F3600
G0 X179.395 Y78.324 F7200
G1 X108.324 Y149.395 E576.8593 F3600
G0 X108.714 Y149.570 F7200
G1 X179.570 Y78.714 E580.1922 F3600
G0 X179.746 Y79.104 F7200
G1 X109.104 Y149.746 E583.5149 F3600
G0 X109.494 Y149.921 F7200
G1 X179.921 Y79.494 E586.8276 F3600
G0 X180.097 Y79.884 F7200
G1 X109.884 Y150.097 E590.1302 F3600
G0 X110.274 Y150.273 F7200
G1 X180.272 Y80.274 E593.4227 F3600
G0 X180.448 Y80.665 F7200
G1 X110.665 Y150.448 E596.7051 F3600
G0 X111.078 Y150.601 F7200
G1 X180.601 Y81.077 E599.9752 F3600
G0 X180.735 Y81.509 F7200
G1 X111.509 Y150.735 E603.2315 F3600
G0 X111.940 Y150.870 F7200
G1 X180.870 Y81.940 E606.4737 F3600
G0 X181.004 Y82.371 F7200
G1 X112.371 Y151.004 E609.7020 F3600
G0 X112.803 Y151.138 F7200
G1 X181.138 Y82.803 E612.9163 F3600
G0 X181.273 Y83.234 F7200
G1 X113.234 Y151.273 E616.1166 F3600
G0 X113.665 Y151.407 F7200
G1 X181.407 Y83.665 E619.3030 F3600
G0 X181.542 Y84.097 F7200
G1 X114.097 Y151.542 E622.4754 F3600
G0 X114.528 Y151.676 F7200
G1 X181.676 Y84.528 E625.6339 F3600
G0 X181.810 Y84.959 F7200
G1 X114.959 Y151.810 E628.7783 F3600
G0 X115.390 Y151.945 F7200
G1 X181.945 Y85.390 E631.9088 F3600
G0 X182.079 Y85.822 F7200
G1 X115.822 Y152.079 E635.0254 F3600
G0 X116.253 Y152.214 F7200
G1 X182.214 Y86.253 E638.1280 F3600
G0 X182.348 Y86.684 F7200
G1 X116.684 Y152.348 E641.2166 F3600
G0 X117.121 Y152.477 F7200
G1 X182.477 Y87.121 E644.2908 F3600
G0 X182.565 Y87.599 F7200
G1 X117.599 Y152.565 E647.3466 F3600
G0 X118.077 Y152.652 F7200
G1 X182.652 Y88.077 E650.3840 F3600
G0 X182.740 Y88.555 F7200
G1 X118.555 Y152.740 E653.4030 F3600
G0 X119.033 Y152.828 F7200
G1 X182.828 Y89.033 E656.4037 F3600
G0 X182.915 Y89.511 F7200
G1 X119.511 Y152.915 E659.3860 F3600
G0 X119.989 Y153.003 F7200
G1 X183.003 Y89.989 E662.3500 F3600
G0 X183.090 Y90.467 F7200
G1 X120.467 Y153.090 E665.2956 F3600
G0 X120.945 Y153.178 F7200
G1 X183.178 Y90.945 E668.2229 F3600
G0 X183.266 Y91.424 F7200
G1 X121.424 Y153.266 E671.1317 F3600
G0 X121.902 Y153.353 F7200
G1 X183.353 Y91.902 E674.0222 F3600
G0 X183.441 Y92.380 F7200
G1 X122.380 Y153.441 E676.8944 F3600
G0 X122.858 Y153.528 F7200
G1 X183.528 Y92.858 E679.7481 F3600
G0 X183.616 Y93.336 F7200
G1 X123.336 Y153.616 E682.5835 F3600
G0 X123.852 Y153.666 F7200
G1 X183.666 Y93.852 E685.3970 F3600
G0 X183.698 Y94.385 F7200
G1 X124.385 Y153.698 E688.1869 F3600
G0 X124.919 Y153.730 F7200
G1 X183.730 Y94.919 E690.9531 F3600
G0 X183.762 Y95.452 F7200
G1 X125.452 Y153.763 E693.6959 F3600
G0 X125.986 Y153.795 F7200
G1 X183.795 Y95.986 E696.4151 F3600
G0 X183.827 Y96.519 F7200
G1 X126.519 Y153.827 E699.1107 F3600
G0 X127.052 Y153.859 F7200
G1 X183.859 Y97.052 E701.7827 F3600
G0 X183.892 Y97.586 F7200
G1 X127.586 Y153.892 E704.4311 F3600
G0 X128.119 Y153.924 F7200
G1 X183.924 Y98.119 E707.0560 F3600
G0 X183.956 Y98.653 F7200
G1 X128.653 Y153.956 E709.6573 F3600
G0 X129.186 Y153.988 F7200
G1 X183.988 Y99.186 E712.2351 F3600
G0 X184.021 Y99.719 F7200
G1 X129.719 Y154.021 E714.7892 F3600
G0 X130.285 Y154.020 F7200
G1 X184.020 Y100.285 E717.3167 F3600
G0 X183.984 Y100.887 F7200
G1 X130.888 Y153.984 E719.8142 F3600
G0 X131.490 Y153.948 F7200
G1 X183.948 Y101.490 E722.2817 F3600
G0 X183.911 Y102.092 F7200
G1 X132.092 Y153.911 E724.7191 F3600
G0 X132.694 Y153.875 F7200
G1 X183.875 Y102.694 E727.1266 F3600
G0 X183.838 Y103.296 F7200
G1 X133.296 Y153.838 E729.5039 F3600
G0 X133.898 Y153.802 F7200
G1 X183.802 Y103.898 E731.8513 F3600
G0 X183.765 Y104.500 F7200
G1 X134.500 Y153.765 E734.1685 F3600
G0 X135.102 Y153.729 F7200
G1 X183.729 Y105.102 E736.4558 F3600
G0 X183.693 Y105.704 F7200
G1 X135.704 Y153.693 E738.7130 F3600
G0 X136.306 Y153.656 F7200
G1 X183.656 Y106.306 E740.9401 F3600
G0 X183.560 Y106.968 F7200
G1 X136.968 Y153.560 E743.1317 F3600
G0 X137.661 Y153.433 F7200
G1 X183.434 Y107.660 E745.2848 F3600
G0 X183.307 Y108.353 F7200
G1 X138.353 Y153.307 E747.3993 F3600
G0 X139.046 Y153.180 F7200
G1 X183.180 Y109.046 E749.4752 F3600
G0 X183.053 Y109.738 F7200
G1 X139.738 Y153.053 E751.5125 F3600
G0 X140.431 Y152.926 F7200
G1 X182.926 Y110.431 E753.5114 F3600
G0 X182.799 Y111.123 F7200
G1 X141.124 Y152.799 E755.4716 F3600
G0 X141.816 Y152.672 F7200
G1 X182.672 Y111.816 E757.3934 F3600
G0 X182.545 Y112.509 F7200
G1 X142.509 Y152.545 E759.2766 F3600
G0 X143.251 Y152.368 F7200
G1 X182.368 Y113.252 E761.1165 F3600
G0 X182.112 Y114.073 F7200
G1 X144.073 Y152.112 E762.9057 F3600
G0 X144.895 Y151.856 F7200
G1 X181.856 Y114.895 E764.6443 F3600
G0 X181.600 Y115.717 F7200
G1 X145.717 Y151.600 E766.3321 F3600
G0 X146.538 Y151.344 F7200
G1 X181.344 Y116.539 E767.9692 F3600
G0 X181.088 Y117.360 F7200
G1 X147.360 Y151.088 E769.5556 F3600
G0 X148.182 Y150.832 F7200
G1 X180.832 Y118.182 E771.0914 F3600
G0 X180.576 Y119.004 F7200
G1 X149.004 Y150.576 E772.5764 F3600
G0 X149.993 Y150.152 F7200
G1 X180.152 Y119.993 E773.9951 F3600
G0 X179.689 Y121.021 F7200
G1 X151.021 Y149.689 E775.3435 F3600
G0 X152.050 Y149.226 F7200
G1 X179.226 Y122.050 E776.6219 F3600
G0 X178.763 Y123.079 F7200
G1 X153.079 Y148.763 E777.8300 F3600
G0 X154.107 Y148.301 F7200
G1 X178.300 Y124.107 E778.9680 F3600
G0 X177.829 Y125.145 F7200
G1 X155.145 Y147.828 E780.0349 F3600
G0 X163.619 Y142.183 F7200
G1 X172.183 Y133.619 E780.4377 F3600
G0 X174.229 Y131.007 F7200
G1 X161.007 Y144.229 E781.0596 F3600
G0 X159.437 Y145.234 F7200
G1 X175.234 Y129.436 E781.8026 F3600
G0 X176.099 Y128.006 F7200
G1 X158.006 Y146.099 E782.6537 F3600
G0 X156.576 Y146.963 F7200
G1 X176.964 Y126.575 E783.6126 F3600
; ------------------------------------
; Layer #4
; ------------------------------------
G92 E0 ;reset extr
G0 F3000 E-1.0000
G0 F600 Z1.000
G0 X183.947 Y98.504 F7200
G0 F3000 E0.0000
;segType:Infill
G1 X131.496 Y46.053 E2.9606 F4500
G0 X129.300 Y45.458 F7200
;segType:Perimeter
G1 X130.059 Y45.204 E2.9872 F2159
G1 X136.606 Y45.601 E3.2053
G1 X143.115 Y46.793 E3.4254
G1 X149.432 Y48.762 E3.6455
G1 X155.466 Y51.477 E3.8656
G1 X161.130 Y54.902 E4.0857
G1 X166.339 Y58.982 E4.3058
G1 X171.018 Y63.661 E4.5259
G1 X175.099 Y68.871 E4.7460
G1 X178.522 Y74.533 E4.9660
G1 X181.239 Y80.569 E5.1862
G1 X183.207 Y86.885 E5.4062
G1 X184.399 Y93.394 E5.6263
G1 X184.799 Y100.001 E5.8465
G1 X184.400 Y106.606 E6.0666
G1 X183.207 Y113.114 E6.2866
G1 X181.238 Y119.431 E6.5067
G1 X178.522 Y125.467 E6.7269
G1 X175.099 Y131.129 E6.9469
G1 X171.018 Y136.339 E7.1670
G1 X166.339 Y141.018 E7.3871
G1 X161.130 Y145.098 E7.6072
G1 X155.466 Y148.523 E7.8273
G1 X149.432 Y151.238 E8.0474
G1 X143.114 Y153.207 E8.2675
G1 X136.605 Y154.400 E8.4876
G1 X130.000 Y154.799 E8.7077
G1 X123.395 Y154.400 E8.9278
G1 X116.886 Y153.207 E9.1479
G1 X110.568 Y151.238 E9.3680
G1 X104.534 Y148.522 E9.5881
G1 X98.870 Y145.099 E9.8082
G1 X93.661 Y141.018 E10.0283
G1 X88.982 Y136.339 E10.2484
G1 X84.901 Y131.129 E10.4685
G1 X81.478 Y125.467 E10.6885
G1 X78.762 Y119.432 E10.9087
G1 X76.793 Y113.114 E11.1287
G1 X75.600 Y106.605 E11.3488
G1 X75.201 Y100.000 E11.5689
G1 X75.600 Y93.395 E11.7890
G1 X76.793 Y86.886 E12.0091
G1 X78.762 Y80.568 E12.2292
G1 X81.477 Y74.534 E12.4493
G1 X84.902 Y68.870 E12.6694
G1 X88.982 Y63.661 E12.8895
G1 X93.661 Y58.982 E13.1096
G1 X98.871 Y54.901 E13.3297
G1 X104.533 Y51.478 E13.5498
G1 X110.569 Y48.762 E13.7699
G1 X116.886 Y46.793 E13.9900
G1 X123.394 Y45.600 E14.2100
G1 X129.939 Y45.204 E14.4282
G0 X130.698 Y45.458 F7200
G0 X131.073 Y45.666
;segType:Loop
G1 X136.558 Y45.998 E14.6109 F3600
G1 X143.019 Y47.182 E14.8294
G1 X149.289 Y49.136 E15.0478
G1 X155.280 Y51.832 E15.2663
G1 X160.902 Y55.231 E15.4848
G1 X166.073 Y59.282 E15.7033
G1 X170.718 Y63.927 E15.9218
G1 X174.769 Y69.098 E16.1403
G1 X178.167 Y74.719 E16.3587
G1 X180.864 Y80.711 E16.5773
G1 X182.818 Y86.981 E16.7957
G1 X184.002 Y93.442 E17.0142
G1 X184.398 Y100.001 E17.2327
G1 X184.002 Y106.558 E17.4512
G1 X182.818 Y113.018 E17.6697
G1 X180.864 Y119.289 E17.8881
G1 X178.167 Y125.281 E18.1067
G1 X174.769 Y130.902 E18.3251
G1 X170.718 Y136.073 E18.5436
G1 X166.073 Y140.718 E18.7621
G1 X160.902 Y144.769 E18.9806
G1 X155.280 Y148.168 E19.1991
G1 X149.290 Y150.864 E19.4176
G1 X143.019 Y152.818 E19.6360
G1 X136.557 Y154.002 E19.8545
G1 X130.000 Y154.398 E20.0730
G1 X123.443 Y154.002 E20.2915
G1 X116.981 Y152.818 E20.5100
G1 X110.710 Y150.864 E20.7285
G1 X104.720 Y148.167 E20.9470
G1 X99.098 Y144.769 E21.1654
G1 X93.927 Y140.718 E21.3839
G1 X89.282 Y136.073 E21.6024
G1 X85.231 Y130.902 E21.8209
G1 X81.833 Y125.280 E22.0394
G1 X79.136 Y119.290 E22.2579
G1 X77.182 Y113.019 E22.4764
G1 X75.998 Y106.557 E22.6948
G1 X75.602 Y100.000 E22.9133
G1 X75.998 Y93.443 E23.1318
G1 X77.182 Y86.982 E23.3503
G1 X79.136 Y80.710 E23.5688
G1 X81.832 Y74.720 E23.7873
G1 X85.231 Y69.098 E24.0058
G1 X89.282 Y63.927 E24.2243
G1 X93.927 Y59.282 E24.4427
G1 X99.098 Y55.231 E24.6612
G1 X104.719 Y51.833 E24.8797
G1 X110.711 Y49.136 E25.0982
G1 X116.982 Y47.182 E25.3167
G1 X123.442 Y45.998 E25.5351
G1 X129.999 Y45.602 E25.7536
G1 X130.873 Y45.654 E25.7828
G0 F3000 E24.7828
G0 X127.058 Y46.140 F7200
G0 F3000 E25.7828
;segType:Infill
G1 X183.860 Y102.942 E28.9889 F4500
G0 X183.529 Y107.137 F7200
G1 X122.863 Y46.471 E32.4132 F4500
G0 X119.038 Y47.171 F7200
G1 X182.829 Y110.962 E36.0138 F4500
G0 X181.946 Y114.605 F7200
G1 X115.395 Y48.054 E39.7703 F4500
G0 X111.944 Y49.129 F7200
G1 X180.871 Y118.056 E43.6608 F4500
G0 X179.572 Y121.282 F7200
G1 X108.718 Y50.428 E47.6601 F4500
G0 X105.597 Y51.833 F7200
G1 X178.167 Y124.403 E51.7563 F4500
G0 X172.896 Y132.708 F7200
G1 X97.292 Y57.104 E56.0237 F4500
G0 X94.754 Y59.092 F7200
G1 X170.908 Y135.246 E60.3222 F4500
G0 X168.709 Y137.572 F7200
G1 X92.428 Y61.291 E64.6278 F4500
G0 X90.165 Y63.554 F7200
G1 X166.446 Y139.835 E68.9335 F4500
G0 X158.709 Y145.674 F7200
G1 X84.326 Y71.291 E73.1319 F4500
G0 X82.621 Y74.111 F7200
G1 X155.889 Y147.379 E77.2675 F4500
G0 X146.339 Y151.406 F7200
G1 X78.594 Y83.661 E81.0913 F4500
G0 X77.524 Y87.116 F7200
G1 X142.884 Y152.476 E84.7805 F4500
G0 X139.059 Y153.177 F7200
G1 X76.823 Y90.941 E88.2934 F4500
G0 X76.270 Y94.913 F7200
G1 X135.087 Y153.730 E91.6133 F4500
G0 X120.961 Y153.181 F7200
G1 X76.819 Y109.039 E94.1049 F4500
G0 X78.142 Y114.887 F7200
G1 X115.113 Y151.858 E96.1917 F4500
G0 X87.797 Y133.593 F7200
G1 X96.407 Y142.203 E96.6777 F4500
G0 X107.960 Y149.231 F7200
G1 X80.769 Y122.040 E98.2125 F4500
G0 X76.198 Y103.892 F7200
