; GCode generated by CraftWare

G28 X0 Y0
G28 Z0


M104 S245 ;set head temp (no wait)
M190 S110 ;set bed temp (wait)
M109 S245 ;set head temp (wait)
; ------------------------------------
; Layer #0
; ------------------------------------
M106 S0 ;turn off fan
G21 ; mm
G90 ; abs
G92 E0 ;reset extr
G0 F1200 Z0.200
;segType:Skirt
G0 F3000 E-1.0000
G0 X100.103 Y146.726 F5400
G0 F3000 E0.0000
G1 X99.971 Y146.330 E0.0139 F2400
G1 X99.773 Y146.000 E0.0267
G1 X99.641 Y145.604 E0.0406
G1 X99.575 Y145.142 E0.0561
G1 X99.443 Y145.010 E0.0623
G1 X99.443 Y144.482 E0.0799
G1 X99.311 Y143.558 E0.1109
G1 X99.311 Y119.799 E0.9011
G1 X99.179 Y119.667 E0.9073
G1 X99.113 Y119.205 E0.9228
G1 X98.915 Y118.875 E0.9357
G1 X98.519 Y118.743 E0.9495
G1 X97.133 Y118.546 E0.9961
G1 X88.686 Y118.546 E1.2771
G1 X87.762 Y118.414 E1.3081
G1 X87.630 Y118.282 E1.3143
G1 X87.168 Y118.215 E1.3298
G1 X86.772 Y118.083 E1.3437
G1 X86.442 Y117.886 E1.3565
G1 X86.046 Y117.754 E1.3704
G1 X85.782 Y117.490 E1.3828
G1 X85.452 Y117.291 E1.3956
G1 X80.700 Y112.539 E1.6191
G1 X79.908 Y111.220 E1.6703
G1 X79.776 Y110.824 E1.6842
G1 X79.776 Y110.560 E1.6930
G1 X79.644 Y110.428 E1.6992
G1 X79.644 Y110.164 E1.7080
G1 X79.512 Y110.032 E1.7142
G1 X79.512 Y109.504 E1.7318
G1 X79.380 Y108.580 E1.7628
G1 X79.380 Y56.310 E3.5013
G1 X79.512 Y55.914 E3.5152
G1 X79.512 Y55.122 E3.5415
G1 X79.644 Y54.990 E3.5477
G1 X79.710 Y54.528 E3.5633
G1 X79.842 Y54.132 E3.5772
G1 X80.040 Y53.802 E3.5899
G1 X80.040 Y53.538 E3.5987
G1 X80.238 Y53.208 E3.6115
G1 X80.502 Y52.944 E3.6239
G1 X80.898 Y52.284 E3.6495
G1 X85.122 Y48.060 E3.8482
G1 X85.452 Y47.862 E3.8610
G1 X85.716 Y47.598 E3.8734
G1 X86.178 Y47.268 E3.8923
G1 X86.442 Y47.268 E3.9011
G1 X87.102 Y46.872 E3.9267
G1 X87.366 Y46.872 E3.9355
G1 X87.498 Y46.740 E3.9417
G1 X89.346 Y46.476 E4.0038
G1 X156.927 Y46.476 E6.2515
G1 X170.654 Y46.476 E6.7081
G1 X172.502 Y46.740 E6.7702
G1 X172.832 Y46.938 E6.7830
G1 X173.228 Y47.070 E6.7969
G1 X174.218 Y47.664 E6.8353
G1 X174.482 Y47.928 E6.8477
G1 X174.812 Y48.126 E6.8605
G1 X179.036 Y52.350 E7.0592
G1 X179.828 Y53.670 E7.1104
G1 X179.960 Y54.066 E7.1243
G1 X180.092 Y54.198 E7.1305
G1 X180.092 Y54.462 E7.1393
G1 X180.224 Y54.594 E7.1455
G1 X180.356 Y55.518 E7.1765
G1 X180.356 Y56.046 E7.1941
G1 X180.488 Y56.178 E7.2003
G1 X180.488 Y123.759 E9.4480
G1 X180.488 Y143.822 E10.1153
G1 X180.356 Y144.218 E10.1292
G1 X180.356 Y145.010 E10.1556
G1 X180.224 Y145.142 E10.1618
G1 X180.224 Y145.406 E10.1705
G1 X180.092 Y145.538 E10.1768
G1 X180.026 Y146.000 E10.1923
G1 X179.828 Y146.330 E10.2051
G1 X179.696 Y146.726 E10.2190
G1 X179.300 Y147.386 E10.2446
G1 X174.284 Y152.402 E10.4805
G1 X173.294 Y152.996 E10.5189
G1 X172.898 Y153.128 E10.5328
G1 X172.766 Y153.260 E10.5390
G1 X172.305 Y153.326 E10.5545
G1 X171.909 Y153.458 E10.5684
G1 X171.446 Y153.524 E10.5839
G1 X108.089 Y153.524 E12.6912
G1 X107.692 Y153.392 E12.7051
G0 F3000 E11.7051
G0 X85.498 Y97.209 F5400
G0 F3000 E12.7051
;segType:HShell
G1 X101.557 Y113.268 E13.4605 F2400
G0 X101.797 Y114.122 F5400
;segType:Perimeter
G1 X101.222 Y113.952 E13.4804 F1439
G1 X100.378 Y113.603 E13.5108
G1 X99.432 Y113.375 E13.5431
G1 X98.470 Y113.300 E13.5753
G1 X90.547 Y113.300 E13.8388
G1 X89.531 Y113.211 E13.8727
G1 X88.555 Y112.949 E13.9063
G1 X87.639 Y112.522 E13.9399
G1 X86.811 Y111.942 E13.9735
G1 X86.096 Y111.227 E14.0072
G1 X85.516 Y110.399 E14.0408
G1 X85.089 Y109.483 E14.0744
G1 X84.827 Y108.507 E14.1080
G1 X84.738 Y107.491 E14.1419
G1 X84.738 Y57.509 E15.8044
G1 X84.827 Y56.493 E15.8383
G1 X85.089 Y55.517 E15.8719
G1 X85.516 Y54.601 E15.9055
G1 X86.096 Y53.773 E15.9391
G1 X86.811 Y53.058 E15.9728
G1 X87.638 Y52.478 E16.0064
G1 X88.555 Y52.051 E16.0400
G1 X89.531 Y51.789 E16.0736
G1 X90.547 Y51.700 E16.1075
G1 X169.454 Y51.700 E18.7320
G1 X170.369 Y51.773 E18.7625
G1 X171.254 Y51.985 E18.7928
G1 X172.095 Y52.333 E18.8230
G1 X172.870 Y52.808 E18.8533
G1 X173.562 Y53.399 E18.8836
G1 X174.154 Y54.092 E18.9138
G1 X174.629 Y54.868 E18.9441
G1 X174.977 Y55.708 E18.9744
G1 X175.190 Y56.593 E19.0046
G1 X175.262 Y57.508 E19.0352
G1 X175.262 Y142.491 E21.8617
G1 X175.173 Y143.507 E21.8956
G1 X174.911 Y144.483 E21.9293
G1 X174.484 Y145.399 E21.9629
G1 X173.904 Y146.227 E21.9965
G1 X173.189 Y146.942 E22.0301
G1 X172.361 Y147.522 E22.0637
G1 X171.445 Y147.949 E22.0974
G1 X170.469 Y148.211 E22.1310
G1 X169.453 Y148.300 E22.1649
G1 X110.471 Y148.300 E24.1266
G1 X109.455 Y148.211 E24.1606
G1 X108.479 Y147.949 E24.1942
G1 X107.563 Y147.522 E24.2278
G1 X106.735 Y146.942 E24.2614
G1 X106.020 Y146.227 E24.2950
G1 X105.440 Y145.399 E24.3287
G1 X105.013 Y144.483 E24.3623
G1 X104.751 Y143.507 E24.3959
G1 X104.663 Y142.491 E24.4298
G1 X104.663 Y119.492 E25.1948
G1 X104.587 Y118.530 E25.2269
G1 X104.360 Y117.584 E25.2592
G1 X103.987 Y116.685 E25.2916
G1 X103.479 Y115.855 E25.3239
G1 X102.847 Y115.115 E25.3563
G1 X102.107 Y114.483 E25.3887
G1 X101.328 Y114.006 E25.4190
G0 X100.694 Y113.519 F5400
G0 X100.405 Y113.198
;segType:Loop
G1 X99.495 Y112.979 E25.4502 F2400
G1 X98.486 Y112.900 E25.4839
G1 X90.564 Y112.900 E25.7473
G1 X89.601 Y112.815 E25.7795
G1 X88.692 Y112.572 E25.8108
G1 X87.839 Y112.174 E25.8421
G1 X87.069 Y111.635 E25.8734
G1 X86.403 Y110.969 E25.9047
G1 X85.864 Y110.199 E25.9359
G1 X85.466 Y109.346 E25.9672
G1 X85.223 Y108.437 E25.9985
G1 X85.138 Y107.474 E26.0307
G1 X85.138 Y57.526 E27.6920
G1 X85.223 Y56.563 E27.7241
G1 X85.466 Y55.654 E27.7554
G1 X85.864 Y54.801 E27.7867
G1 X86.403 Y54.031 E27.8180
G1 X87.069 Y53.365 E27.8493
G1 X87.839 Y52.826 E27.8806
G1 X88.692 Y52.428 E27.9119
G1 X89.601 Y52.185 E27.9432
G1 X90.565 Y52.100 E27.9753
G1 X169.438 Y52.100 E30.5987
G1 X170.306 Y52.169 E30.6277
G1 X171.130 Y52.366 E30.6558
G1 X171.912 Y52.691 E30.6840
G1 X172.635 Y53.133 E30.7122
G1 X173.279 Y53.683 E30.7403
G1 X173.829 Y54.327 E30.7685
G1 X174.272 Y55.050 E30.7967
G1 X174.596 Y55.832 E30.8249
G1 X174.794 Y56.656 E30.8530
G1 X174.862 Y57.524 E30.8820
G1 X174.862 Y142.473 E33.7074
G1 X174.777 Y143.437 E33.7396
G1 X174.534 Y144.346 E33.7709
G1 X174.136 Y145.199 E33.8022
G1 X173.597 Y145.969 E33.8335
G1 X172.931 Y146.635 E33.8648
G1 X172.161 Y147.174 E33.8961
G1 X171.308 Y147.572 E33.9274
G1 X170.399 Y147.815 E33.9586
G1 X169.436 Y147.900 E33.9908
G1 X110.488 Y147.900 E35.9514
G1 X109.525 Y147.815 E35.9836
G1 X108.616 Y147.572 E36.0149
G1 X107.763 Y147.174 E36.0462
G1 X106.993 Y146.635 E36.0775
G1 X106.328 Y145.969 E36.1088
G1 X105.788 Y145.199 E36.1400
G1 X105.390 Y144.346 E36.1713
G1 X105.147 Y143.437 E36.2026
G1 X105.063 Y142.474 E36.2348
G1 X105.063 Y119.476 E36.9997
G1 X104.983 Y118.467 E37.0334
G1 X104.741 Y117.460 E37.0678
G1 X104.345 Y116.502 E37.1023
G1 X103.804 Y115.619 E37.1367
G1 X103.131 Y114.831 E37.1712
G1 X102.343 Y114.159 E37.2056
G1 X101.459 Y113.617 E37.2401
G1 X100.595 Y113.259 E37.2712
G0 F3000 E36.2712
G0 X85.498 Y81.936 F5400
G0 F3000 E37.2712
;segType:HShell
G1 X108.606 Y105.043 E38.3581 F2400
G0 X109.115 Y105.257 F5400
;segType:Perimeter
G1 X109.866 Y104.982 E38.3847 F1439
G1 X110.175 Y104.838 E38.3961
G1 X110.562 Y104.734 E38.4094
G1 X110.962 Y104.699 E38.4228
G1 X111.362 Y104.734 E38.4361
G1 X111.749 Y104.838 E38.4495
G1 X112.113 Y105.007 E38.4628
G1 X112.441 Y105.237 E38.4762
G1 X112.725 Y105.521 E38.4895
G1 X112.955 Y105.850 E38.5028
G1 X113.124 Y106.213 E38.5162
G1 X113.228 Y106.600 E38.5295
G1 X113.263 Y107.000 E38.5429
G1 X113.228 Y107.400 E38.5562
G1 X113.124 Y107.787 E38.5695
G1 X112.955 Y108.151 E38.5829
G1 X112.725 Y108.479 E38.5962
G1 X112.441 Y108.763 E38.6096
G1 X112.113 Y108.993 E38.6229
G1 X111.749 Y109.162 E38.6362
G1 X111.362 Y109.266 E38.6496
G1 X110.962 Y109.301 E38.6629
G1 X110.562 Y109.266 E38.6763
G1 X110.175 Y109.162 E38.6896
G1 X109.812 Y108.993 E38.7030
G1 X109.483 Y108.763 E38.7163
G1 X109.199 Y108.479 E38.7296
G1 X108.969 Y108.151 E38.7430
G1 X108.800 Y107.787 E38.7563
G1 X108.696 Y107.400 E38.7697
G1 X108.661 Y107.000 E38.7830
G1 X108.696 Y106.600 E38.7963
G1 X108.800 Y106.213 E38.8097
G1 X108.969 Y105.849 E38.8230
G1 X109.199 Y105.521 E38.8364
G1 X109.479 Y105.241 E38.8495
G1 X109.762 Y105.042 E38.8610
G0 X110.375 Y104.528 F5400
G0 X110.824 Y104.309
;segType:Loop
G1 X110.962 Y104.297 E38.8657 F2400
G1 X111.431 Y104.338 E38.8813
G1 X111.886 Y104.460 E38.8970
G1 X112.314 Y104.659 E38.9127
G1 X112.699 Y104.930 E38.9283
G1 X113.032 Y105.263 E38.9440
G1 X113.303 Y105.649 E38.9597
G1 X113.502 Y106.076 E38.9753
G1 X113.624 Y106.530 E38.9910
G1 X113.665 Y107.000 E39.0067
G1 X113.624 Y107.469 E39.0224
G1 X113.502 Y107.925 E39.0380
G1 X113.303 Y108.351 E39.0537
G1 X113.033 Y108.737 E39.0694
G1 X112.699 Y109.071 E39.0850
G1 X112.313 Y109.341 E39.1007
G1 X111.887 Y109.540 E39.1164
G1 X111.431 Y109.662 E39.1320
G1 X110.962 Y109.703 E39.1477
G1 X110.493 Y109.662 E39.1634
G1 X110.038 Y109.540 E39.1790
G1 X109.611 Y109.341 E39.1947
G1 X109.225 Y109.071 E39.2104
G1 X108.892 Y108.737 E39.2260
G1 X108.621 Y108.351 E39.2417
G1 X108.422 Y107.924 E39.2574
G1 X108.300 Y107.469 E39.2731
G1 X108.259 Y107.000 E39.2887
G1 X108.300 Y106.531 E39.3044
G1 X108.422 Y106.076 E39.3201
G1 X108.621 Y105.649 E39.3357
G1 X108.892 Y105.263 E39.3514
G1 X109.221 Y104.933 E39.3669
G1 X109.610 Y104.660 E39.3827
G1 X110.038 Y104.460 E39.3984
G1 X110.493 Y104.338 E39.4141
G1 X110.625 Y104.327 E39.4185
G0 F3000 E38.4185
G0 X110.625 Y104.327 F5400
G0 X110.962 Y104.297
G0 X111.431 Y104.338
G0 X111.886 Y104.460
G0 X112.314 Y104.659
G0 X112.699 Y104.930
G0 X113.032 Y105.263
G0 X113.303 Y105.649
G0 X113.502 Y106.076
G0 X113.624 Y106.530
G0 X113.665 Y107.000
G0 X113.624 Y107.469
G0 X113.502 Y107.925
G0 X113.380 Y108.185
G0 X113.380 Y108.185
G0 X141.743 Y147.900
G0 X141.486 Y147.539
G0 F3000 E39.4185
;segType:HShell
G1 X113.874 Y119.928 E40.7173 F2400
G0 X113.434 Y119.586 F5400
;segType:Perimeter
G1 X112.921 Y120.200 E40.7439 F1439
G1 X112.725 Y120.479 E40.7552
G1 X112.441 Y120.763 E40.7686
G1 X112.113 Y120.993 E40.7819
G1 X111.749 Y121.163 E40.7952
G1 X111.362 Y121.266 E40.8086
G1 X110.962 Y121.301 E40.8219
G1 X110.562 Y121.266 E40.8353
G1 X110.175 Y121.163 E40.8486
G1 X109.811 Y120.993 E40.8619
G1 X109.483 Y120.763 E40.8753
G1 X109.199 Y120.479 E40.8886
G1 X108.969 Y120.151 E40.9020
G1 X108.800 Y119.787 E40.9153
G1 X108.696 Y119.400 E40.9286
G1 X108.661 Y119.000 E40.9420
G1 X108.696 Y118.601 E40.9553
G1 X108.800 Y118.213 E40.9687
G1 X108.969 Y117.849 E40.9820
G1 X109.199 Y117.521 E40.9954
G1 X109.483 Y117.237 E41.0087
G1 X109.811 Y117.007 E41.0220
G1 X110.175 Y116.837 E41.0354
G1 X110.562 Y116.734 E41.0487
G1 X110.962 Y116.699 E41.0621
G1 X111.362 Y116.734 E41.0754
G1 X111.749 Y116.837 E41.0887
G1 X112.113 Y117.007 E41.1021
G1 X112.441 Y117.237 E41.1154
G1 X112.725 Y117.521 E41.1288
G1 X112.955 Y117.849 E41.1421
G1 X113.124 Y118.213 E41.1554
G1 X113.228 Y118.600 E41.1688
G1 X113.263 Y119.000 E41.1821
G1 X113.228 Y119.400 E41.1955
G1 X113.126 Y119.783 E41.2087
G1 X112.980 Y120.096 E41.2202
G0 X112.707 Y120.848 F5400
G0 X112.427 Y121.261
;segType:Loop
G1 X112.314 Y121.340 E41.2247 F2400
G1 X111.887 Y121.540 E41.2404
G1 X111.431 Y121.662 E41.2561
G1 X110.962 Y121.703 E41.2718
G1 X110.493 Y121.662 E41.2874
G1 X110.038 Y121.540 E41.3031
G1 X109.611 Y121.340 E41.3188
G1 X109.225 Y121.070 E41.3344
G1 X108.892 Y120.737 E41.3501
G1 X108.621 Y120.351 E41.3658
G1 X108.422 Y119.924 E41.3815
G1 X108.300 Y119.469 E41.3971
G1 X108.259 Y119.000 E41.4128
G1 X108.300 Y118.531 E41.4285
G1 X108.422 Y118.076 E41.4441
G1 X108.621 Y117.649 E41.4598
G1 X108.892 Y117.263 E41.4755
G1 X109.225 Y116.930 E41.4911
G1 X109.611 Y116.660 E41.5068
G1 X110.038 Y116.460 E41.5225
G1 X110.493 Y116.338 E41.5381
G1 X110.962 Y116.297 E41.5538
G1 X111.431 Y116.338 E41.5695
G1 X111.887 Y116.460 E41.5851
G1 X112.314 Y116.660 E41.6008
G1 X112.699 Y116.930 E41.6165
G1 X113.033 Y117.263 E41.6322
G1 X113.303 Y117.649 E41.6478
G1 X113.502 Y118.076 E41.6635
G1 X113.624 Y118.531 E41.6792
G1 X113.665 Y119.000 E41.6948
G1 X113.624 Y119.470 E41.7105
G1 X113.503 Y119.920 E41.7260
G1 X113.303 Y120.351 E41.7418
G1 X113.033 Y120.737 E41.7575
G1 X112.699 Y121.070 E41.7732
G1 X112.591 Y121.147 E41.7776
G0 F3000 E40.7776
G0 X105.423 Y140.892 F5400
G0 F3000 E41.7776
;segType:HShell
G1 X112.070 Y147.539 E42.0903 F2400
G0 X112.636 Y147.539 F5400
G1 X109.998 Y144.902 E42.2143 F2400
G0 X110.376 Y144.472 F5400
;segType:Perimeter
G1 X109.762 Y143.959 E42.2409 F1439
G1 X109.483 Y143.763 E42.2523
G1 X109.199 Y143.479 E42.2656
G1 X108.969 Y143.151 E42.2790
G1 X108.800 Y142.787 E42.2923
G1 X108.696 Y142.399 E42.3056
G1 X108.661 Y142.000 E42.3190
G1 X108.696 Y141.600 E42.3323
G1 X108.800 Y141.213 E42.3457
G1 X108.969 Y140.849 E42.3590
G1 X109.199 Y140.521 E42.3724
G1 X109.483 Y140.237 E42.3857
G1 X109.811 Y140.007 E42.3990
G1 X110.175 Y139.838 E42.4124
G1 X110.562 Y139.734 E42.4257
G1 X110.962 Y139.699 E42.4391
G1 X111.362 Y139.734 E42.4524
G1 X111.749 Y139.838 E42.4657
G1 X112.113 Y140.007 E42.4791
G1 X112.441 Y140.237 E42.4924
G1 X112.725 Y140.521 E42.5058
G1 X112.955 Y140.849 E42.5191
G1 X113.124 Y141.213 E42.5324
G1 X113.228 Y141.600 E42.5458
G1 X113.263 Y142.000 E42.5591
G1 X113.228 Y142.400 E42.5725
G1 X113.124 Y142.787 E42.5858
G1 X112.955 Y143.151 E42.5992
G1 X112.725 Y143.479 E42.6125
G1 X112.441 Y143.763 E42.6258
G1 X112.113 Y143.993 E42.6392
G1 X111.749 Y144.162 E42.6525
G1 X111.362 Y144.266 E42.6659
G1 X110.962 Y144.301 E42.6792
G1 X110.562 Y144.266 E42.6926
G1 X110.179 Y144.164 E42.7057
G1 X109.866 Y144.018 E42.7172
G0 X109.302 Y143.813 F5400
G0 X108.701 Y143.465
;segType:Loop
G1 X108.621 Y143.352 E42.7218 F2400
G1 X108.422 Y142.924 E42.7375
G1 X108.300 Y142.469 E42.7532
G1 X108.259 Y142.000 E42.7688
G1 X108.300 Y141.531 E42.7845
G1 X108.422 Y141.076 E42.8002
G1 X108.621 Y140.649 E42.8159
G1 X108.892 Y140.263 E42.8315
G1 X109.225 Y139.930 E42.8472
G1 X109.611 Y139.659 E42.8629
G1 X110.038 Y139.460 E42.8785
G1 X110.493 Y139.338 E42.8942
G1 X110.962 Y139.297 E42.9099
G1 X111.431 Y139.338 E42.9255
G1 X111.886 Y139.460 E42.9412
G1 X112.314 Y139.659 E42.9569
G1 X112.699 Y139.930 E42.9726
G1 X113.033 Y140.263 E42.9882
G1 X113.303 Y140.649 E43.0039
G1 X113.502 Y141.076 E43.0195
G1 X113.624 Y141.530 E43.0352
G1 X113.665 Y142.000 E43.0509
G1 X113.624 Y142.469 E43.0666
G1 X113.502 Y142.924 E43.0822
G1 X113.303 Y143.351 E43.0979
G1 X113.033 Y143.737 E43.1136
G1 X112.699 Y144.070 E43.1292
G1 X112.313 Y144.341 E43.1449
G1 X111.887 Y144.540 E43.1606
G1 X111.431 Y144.662 E43.1762
G1 X110.962 Y144.703 E43.1919
G1 X110.493 Y144.662 E43.2076
G1 X110.042 Y144.541 E43.2231
G1 X109.611 Y144.341 E43.2389
G1 X109.225 Y144.070 E43.2546
G1 X108.892 Y143.737 E43.2702
G1 X108.816 Y143.629 E43.2747
G0 F3000 E42.2747
G0 X108.816 Y143.629 F5400
G0 X108.892 Y143.737
G0 X109.225 Y144.070
G0 X109.611 Y144.341
G0 X110.042 Y144.541
G0 X110.493 Y144.662
G0 X110.962 Y144.703
G0 X111.431 Y144.662
G0 X111.887 Y144.540
G0 X112.313 Y144.341
G0 X112.699 Y144.070
G0 X113.033 Y143.737
G0 X113.047 Y143.716
G0 X169.953 Y144.895
G0 F3000 E43.2747
;segType:HShell
G1 X171.939 Y146.880 E43.3681 F2400
G0 X171.553 Y147.060 F5400
G1 X169.507 Y145.014 E43.4643 F2400
G0 X168.989 Y145.062 F5400
G1 X171.165 Y147.237 E43.5666 F2400
G0 X170.719 Y147.357 F5400
G1 X168.361 Y144.999 E43.6775 F2400
G0 X168.376 Y144.472 F5400
;segType:Perimeter
G1 X167.763 Y143.959 E43.7041 F1439
G1 X167.483 Y143.763 E43.7155
G1 X167.199 Y143.479 E43.7288
G1 X166.969 Y143.151 E43.7421
G1 X166.800 Y142.787 E43.7555
G1 X166.696 Y142.400 E43.7688
G1 X166.661 Y142.000 E43.7822
G1 X166.696 Y141.600 E43.7955
G1 X166.800 Y141.213 E43.8088
G1 X166.969 Y140.849 E43.8222
G1 X167.199 Y140.521 E43.8355
G1 X167.483 Y140.237 E43.8489
G1 X167.811 Y140.007 E43.8622
G1 X168.175 Y139.838 E43.8756
G1 X168.562 Y139.734 E43.8889
G1 X168.962 Y139.699 E43.9022
G1 X169.362 Y139.734 E43.9156
G1 X169.749 Y139.838 E43.9289
G1 X170.113 Y140.007 E43.9423
G1 X170.441 Y140.237 E43.9556
G1 X170.725 Y140.521 E43.9689
G1 X170.955 Y140.849 E43.9823
G1 X171.124 Y141.213 E43.9956
G1 X171.228 Y141.600 E44.0090
G1 X171.263 Y142.000 E44.0223
G1 X171.228 Y142.400 E44.0356
G1 X171.124 Y142.787 E44.0490
G1 X170.955 Y143.151 E44.0623
G1 X170.725 Y143.479 E44.0757
G1 X170.441 Y143.763 E44.0890
G1 X170.113 Y143.993 E44.1024
G1 X169.749 Y144.162 E44.1157
G1 X169.362 Y144.266 E44.1290
G1 X168.962 Y144.301 E44.1424
G1 X168.562 Y144.266 E44.1557
G1 X168.179 Y144.164 E44.1689
G1 X167.866 Y144.018 E44.1804
G0 X167.302 Y143.813 F5400
G0 X166.701 Y143.465
;segType:Loop
G1 X166.621 Y143.352 E44.1850 F2400
G1 X166.422 Y142.924 E44.2007
G1 X166.300 Y142.469 E44.2164
G1 X166.259 Y142.000 E44.2320
G1 X166.301 Y141.531 E44.2477
G1 X166.422 Y141.076 E44.2634
G1 X166.621 Y140.649 E44.2790
G1 X166.892 Y140.263 E44.2947
G1 X167.225 Y139.930 E44.3104
G1 X167.611 Y139.659 E44.3260
G1 X168.038 Y139.460 E44.3417
G1 X168.493 Y139.338 E44.3574
G1 X168.962 Y139.297 E44.3731
G1 X169.431 Y139.338 E44.3887
G1 X169.886 Y139.460 E44.4044
G1 X170.314 Y139.659 E44.4201
G1 X170.699 Y139.930 E44.4357
G1 X171.033 Y140.263 E44.4514
G1 X171.303 Y140.649 E44.4671
G1 X171.502 Y141.076 E44.4827
G1 X171.624 Y141.530 E44.4984
G1 X171.665 Y142.000 E44.5141
G1 X171.624 Y142.469 E44.5297
G1 X171.502 Y142.924 E44.5454
G1 X171.303 Y143.351 E44.5611
G1 X171.032 Y143.737 E44.5768
G1 X170.699 Y144.070 E44.5924
G1 X170.313 Y144.341 E44.6081
G1 X169.887 Y144.540 E44.6238
G1 X169.431 Y144.662 E44.6394
G1 X168.962 Y144.703 E44.6551
G1 X168.493 Y144.662 E44.6708
G1 X168.042 Y144.541 E44.6863
G1 X167.611 Y144.341 E44.7021
G1 X167.225 Y144.070 E44.7178
G1 X166.892 Y143.737 E44.7334
G1 X166.816 Y143.629 E44.7378
G0 F3000 E43.7378
G0 X166.816 Y143.629 F5400
G0 X166.621 Y143.352
G0 X166.422 Y142.924
G0 X166.300 Y142.469
G0 X166.259 Y142.000
G0 X166.301 Y141.531
G0 X166.422 Y141.076
G0 X166.621 Y140.649
G0 X166.892 Y140.263
G0 X167.225 Y139.930
G0 X167.611 Y139.659
G0 X168.038 Y139.460
G0 X168.442 Y139.352
G0 X174.502 Y123.421
G0 F3000 E44.7378
;segType:HShell
G1 X171.614 Y120.534 E44.8737 F2400
G0 X171.794 Y120.148 F5400
G1 X174.502 Y122.856 E45.0010 F2400
G0 X174.502 Y122.290 F5400
G1 X171.930 Y119.718 E45.1220 F2400
G0 X171.305 Y119.739 F5400
;segType:Perimeter
G1 X170.921 Y120.200 E45.1419 F1439
G1 X170.725 Y120.479 E45.1533
G1 X170.441 Y120.763 E45.1666
G1 X170.113 Y120.993 E45.1799
G1 X169.749 Y121.163 E45.1933
G1 X169.362 Y121.266 E45.2066
G1 X168.962 Y121.301 E45.2200
G1 X168.562 Y121.266 E45.2333
G1 X168.175 Y121.163 E45.2467
G1 X167.811 Y120.993 E45.2600
G1 X167.483 Y120.763 E45.2733
G1 X167.199 Y120.479 E45.2867
G1 X166.969 Y120.151 E45.3000
G1 X166.800 Y119.787 E45.3134
G1 X166.696 Y119.400 E45.3267
G1 X166.661 Y119.000 E45.3400
G1 X166.696 Y118.601 E45.3534
G1 X166.800 Y118.213 E45.3667
G1 X166.969 Y117.849 E45.3801
G1 X167.199 Y117.521 E45.3934
G1 X167.483 Y117.237 E45.4067
G1 X167.811 Y117.007 E45.4201
G1 X168.175 Y116.837 E45.4334
G1 X168.562 Y116.734 E45.4468
G1 X168.962 Y116.699 E45.4601
G1 X169.362 Y116.734 E45.4735
G1 X169.749 Y116.837 E45.4868
G1 X170.113 Y117.007 E45.5001
G1 X170.441 Y117.237 E45.5135
G1 X170.725 Y117.521 E45.5268
G1 X170.955 Y117.849 E45.5402
G1 X171.124 Y118.213 E45.5535
G1 X171.228 Y118.600 E45.5668
G1 X171.263 Y119.000 E45.5802
G1 X171.228 Y119.400 E45.5935
G1 X171.126 Y119.783 E45.6067
G1 X170.980 Y120.096 E45.6182
G0 X170.775 Y120.660 F5400
G0 X170.427 Y121.261
;segType:Loop
G1 X170.314 Y121.340 E45.6228 F2400
G1 X169.887 Y121.540 E45.6385
G1 X169.431 Y121.662 E45.6542
G1 X168.962 Y121.703 E45.6698
G1 X168.493 Y121.662 E45.6855
G1 X168.038 Y121.540 E45.7012
G1 X167.611 Y121.340 E45.7168
G1 X167.225 Y121.070 E45.7325
G1 X166.892 Y120.737 E45.7482
G1 X166.621 Y120.352 E45.7638
G1 X166.422 Y119.924 E45.7795
G1 X166.300 Y119.469 E45.7952
G1 X166.259 Y119.000 E45.8108
G1 X166.300 Y118.531 E45.8265
G1 X166.422 Y118.076 E45.8422
G1 X166.621 Y117.649 E45.8579
G1 X166.892 Y117.263 E45.8735
G1 X167.225 Y116.930 E45.8892
G1 X167.611 Y116.660 E45.9049
G1 X168.038 Y116.460 E45.9205
G1 X168.493 Y116.338 E45.9362
G1 X168.962 Y116.297 E45.9519
G1 X169.431 Y116.338 E45.9675
G1 X169.886 Y116.460 E45.9832
G1 X170.314 Y116.660 E45.9989
G1 X170.699 Y116.930 E46.0145
G1 X171.033 Y117.263 E46.0302
G1 X171.303 Y117.649 E46.0459
G1 X171.502 Y118.076 E46.0616
G1 X171.624 Y118.531 E46.0772
G1 X171.665 Y119.000 E46.0929
G1 X171.624 Y119.469 E46.1086
G1 X171.503 Y119.920 E46.1241
G1 X171.303 Y120.351 E46.1399
G1 X171.033 Y120.737 E46.1556
G1 X170.699 Y121.070 E46.1712
G1 X170.591 Y121.147 E46.1756
G0 F3000 E45.1756
G0 X170.591 Y121.147 F5400
G0 X170.314 Y121.340
G0 X169.887 Y121.540
G0 X169.431 Y121.662
G0 X168.962 Y121.703
G0 X168.493 Y121.662
G0 X168.038 Y121.540
G0 X167.611 Y121.340
G0 X167.225 Y121.070
G0 X166.892 Y120.737
G0 X166.621 Y120.352
G0 X166.422 Y119.924
G0 X166.300 Y119.469
G0 X166.259 Y119.000
G0 X166.300 Y118.531
G0 X166.422 Y118.076
G0 X166.621 Y117.649
G0 X166.892 Y117.263
G0 X167.175 Y116.980
G0 X167.175 Y116.980
G0 X113.994 Y52.100
G0 X114.289 Y52.461
G0 F3000 E46.1756
;segType:HShell
G1 X166.737 Y104.908 E48.6426 F2400
G0 X167.115 Y105.257 F5400
;segType:Perimeter
G1 X167.866 Y104.982 E48.6692 F1439
G1 X168.175 Y104.838 E48.6806
G1 X168.562 Y104.734 E48.6939
G1 X168.962 Y104.699 E48.7073
G1 X169.362 Y104.734 E48.7206
G1 X169.749 Y104.838 E48.7340
G1 X170.113 Y105.007 E48.7473
G1 X170.441 Y105.237 E48.7606
G1 X170.725 Y105.521 E48.7740
G1 X170.955 Y105.849 E48.7873
G1 X171.124 Y106.213 E48.8007
G1 X171.228 Y106.600 E48.8140
G1 X171.263 Y107.000 E48.8274
G1 X171.228 Y107.400 E48.8407
G1 X171.124 Y107.787 E48.8540
G1 X170.955 Y108.151 E48.8674
G1 X170.725 Y108.479 E48.8807
G1 X170.441 Y108.763 E48.8941
G1 X170.113 Y108.993 E48.9074
G1 X169.749 Y109.162 E48.9207
G1 X169.362 Y109.266 E48.9341
G1 X168.962 Y109.301 E48.9474
G1 X168.562 Y109.266 E48.9608
G1 X168.175 Y109.162 E48.9741
G1 X167.812 Y108.993 E48.9875
G1 X167.483 Y108.763 E49.0008
G1 X167.199 Y108.479 E49.0141
G1 X166.969 Y108.151 E49.0275
G1 X166.800 Y107.787 E49.0408
G1 X166.696 Y107.400 E49.0542
G1 X166.661 Y107.000 E49.0675
G1 X166.696 Y106.600 E49.0808
G1 X166.800 Y106.213 E49.0942
G1 X166.969 Y105.849 E49.1075
G1 X167.199 Y105.521 E49.1209
G1 X167.479 Y105.241 E49.1341
G1 X167.762 Y105.042 E49.1456
G0 X168.375 Y104.528 F5400
G0 X168.824 Y104.309
;segType:Loop
G1 X168.962 Y104.297 E49.1502 F2400
G1 X169.431 Y104.338 E49.1658
G1 X169.886 Y104.460 E49.1815
G1 X170.314 Y104.659 E49.1972
G1 X170.699 Y104.930 E49.2128
G1 X171.033 Y105.263 E49.2285
G1 X171.303 Y105.649 E49.2442
G1 X171.502 Y106.076 E49.2598
G1 X171.624 Y106.530 E49.2755
G1 X171.665 Y107.000 E49.2912
G1 X171.624 Y107.469 E49.3069
G1 X171.502 Y107.925 E49.3225
G1 X171.303 Y108.351 E49.3382
G1 X171.033 Y108.737 E49.3539
G1 X170.699 Y109.071 E49.3695
G1 X170.313 Y109.341 E49.3852
G1 X169.887 Y109.540 E49.4009
G1 X169.431 Y109.662 E49.4165
G1 X168.962 Y109.703 E49.4322
G1 X168.493 Y109.662 E49.4479
G1 X168.038 Y109.540 E49.4635
G1 X167.611 Y109.341 E49.4792
G1 X167.225 Y109.071 E49.4949
G1 X166.892 Y108.737 E49.5105
G1 X166.621 Y108.352 E49.5262
G1 X166.422 Y107.924 E49.5419
G1 X166.300 Y107.469 E49.5576
G1 X166.259 Y107.000 E49.5732
G1 X166.300 Y106.531 E49.5889
G1 X166.422 Y106.076 E49.6046
G1 X166.621 Y105.649 E49.6202
G1 X166.892 Y105.263 E49.6359
G1 X167.221 Y104.933 E49.6514
G1 X167.610 Y104.660 E49.6672
G1 X168.038 Y104.460 E49.6829
G1 X168.493 Y104.338 E49.6986
G1 X168.625 Y104.327 E49.7030
G0 F3000 E48.7030
G0 X168.625 Y104.327 F5400
G0 X168.690 Y60.679
G0 X168.689 Y61.040
G0 F3000 E49.7030
;segType:HShell
G1 X174.502 Y66.853 E49.9764 F2400
G0 X174.502 Y67.418 F5400
G1 X167.980 Y60.897 E50.2831 F2400
G0 X167.219 Y59.848 F5400
;segType:Perimeter
G1 X166.944 Y59.096 E50.3097 F1439
G1 X166.800 Y58.787 E50.3211
G1 X166.696 Y58.400 E50.3344
G1 X166.661 Y58.000 E50.3478
G1 X166.696 Y57.601 E50.3611
G1 X166.800 Y57.213 E50.3744
G1 X166.969 Y56.849 E50.3878
G1 X167.199 Y56.521 E50.4011
G1 X167.483 Y56.237 E50.4145
G1 X167.812 Y56.007 E50.4278
G1 X168.175 Y55.838 E50.4412
G1 X168.562 Y55.734 E50.4545
G1 X168.962 Y55.699 E50.4678
G1 X169.362 Y55.734 E50.4812
G1 X169.749 Y55.838 E50.4945
G1 X170.113 Y56.007 E50.5079
G1 X170.441 Y56.237 E50.5212
G1 X170.725 Y56.521 E50.5345
G1 X170.955 Y56.849 E50.5479
G1 X171.124 Y57.213 E50.5612
G1 X171.228 Y57.600 E50.5746
G1 X171.263 Y58.000 E50.5879
G1 X171.228 Y58.400 E50.6013
G1 X171.124 Y58.787 E50.6146
G1 X170.955 Y59.151 E50.6279
G1 X170.725 Y59.479 E50.6413
G1 X170.441 Y59.763 E50.6546
G1 X170.113 Y59.993 E50.6680
G1 X169.749 Y60.162 E50.6813
G1 X169.366 Y60.265 E50.6945
G1 X168.962 Y60.301 E50.7080
G1 X168.562 Y60.266 E50.7213
G1 X168.175 Y60.162 E50.7347
G1 X167.811 Y59.993 E50.7480
G1 X167.483 Y59.763 E50.7613
G1 X167.203 Y59.483 E50.7745
G1 X167.004 Y59.200 E50.7860
G0 X166.618 Y58.740 F5400
G0 X166.271 Y58.138
;segType:Loop
G1 X166.259 Y58.000 E50.7906 F2400
G1 X166.300 Y57.531 E50.8063
G1 X166.422 Y57.076 E50.8220
G1 X166.621 Y56.649 E50.8376
G1 X166.892 Y56.263 E50.8533
G1 X167.225 Y55.930 E50.8690
G1 X167.611 Y55.659 E50.8847
G1 X168.038 Y55.460 E50.9003
G1 X168.492 Y55.338 E50.9160
G1 X168.962 Y55.297 E50.9317
G1 X169.431 Y55.338 E50.9473
G1 X169.886 Y55.460 E50.9630
G1 X170.313 Y55.659 E50.9787
G1 X170.699 Y55.930 E50.9943
G1 X171.033 Y56.263 E51.0100
G1 X171.303 Y56.649 E51.0257
G1 X171.502 Y57.076 E51.0413
G1 X171.624 Y57.531 E51.0570
G1 X171.665 Y58.000 E51.0727
G1 X171.624 Y58.470 E51.0884
G1 X171.502 Y58.924 E51.1040
G1 X171.303 Y59.351 E51.1197
G1 X171.033 Y59.737 E51.1353
G1 X170.699 Y60.070 E51.1510
G1 X170.314 Y60.341 E51.1667
G1 X169.886 Y60.540 E51.1824
G1 X169.437 Y60.660 E51.1979
G1 X168.963 Y60.703 E51.2137
G1 X168.493 Y60.662 E51.2294
G1 X168.038 Y60.540 E51.2450
G1 X167.611 Y60.341 E51.2607
G1 X167.225 Y60.070 E51.2764
G1 X166.895 Y59.741 E51.2919
G1 X166.622 Y59.352 E51.3077
G1 X166.422 Y58.924 E51.3234
G1 X166.300 Y58.469 E51.3391
G1 X166.289 Y58.337 E51.3435
G0 F3000 E50.3435
G0 X166.301 Y117.483 F5400
G0 F3000 E51.3435
;segType:HShell
G1 X109.507 Y60.690 E54.0149 F2400
G0 X109.219 Y59.848 F5400
;segType:Perimeter
G1 X108.944 Y59.096 E54.0415 F1439
G1 X108.800 Y58.787 E54.0528
G1 X108.696 Y58.400 E54.0662
G1 X108.661 Y58.000 E54.0795
G1 X108.696 Y57.601 E54.0928
G1 X108.800 Y57.213 E54.1062
G1 X108.969 Y56.849 E54.1195
G1 X109.199 Y56.521 E54.1329
G1 X109.483 Y56.237 E54.1462
G1 X109.811 Y56.007 E54.1595
G1 X110.175 Y55.838 E54.1729
G1 X110.562 Y55.734 E54.1862
G1 X110.962 Y55.699 E54.1996
G1 X111.362 Y55.734 E54.2129
G1 X111.749 Y55.838 E54.2263
G1 X112.113 Y56.007 E54.2396
G1 X112.441 Y56.237 E54.2529
G1 X112.725 Y56.521 E54.2663
G1 X112.955 Y56.849 E54.2796
G1 X113.124 Y57.213 E54.2930
G1 X113.228 Y57.600 E54.3063
G1 X113.263 Y58.000 E54.3196
G1 X113.228 Y58.400 E54.3330
G1 X113.124 Y58.787 E54.3463
G1 X112.955 Y59.151 E54.3597
G1 X112.725 Y59.479 E54.3730
G1 X112.441 Y59.763 E54.3863
G1 X112.113 Y59.993 E54.3997
G1 X111.749 Y60.162 E54.4130
G1 X111.366 Y60.265 E54.4262
G1 X110.962 Y60.301 E54.4397
G1 X110.562 Y60.266 E54.4531
G1 X110.175 Y60.162 E54.4664
G1 X109.811 Y59.993 E54.4797
G1 X109.483 Y59.763 E54.4931
G1 X109.203 Y59.483 E54.5063
G1 X109.004 Y59.200 E54.5178
G0 X108.490 Y58.587 F5400
G0 X108.271 Y58.138
;segType:Loop
G1 X108.259 Y58.000 E54.5224 F2400
G1 X108.300 Y57.531 E54.5380
G1 X108.422 Y57.076 E54.5537
G1 X108.621 Y56.649 E54.5694
G1 X108.892 Y56.263 E54.5851
G1 X109.225 Y55.930 E54.6007
G1 X109.611 Y55.659 E54.6164
G1 X110.038 Y55.460 E54.6320
G1 X110.492 Y55.338 E54.6477
G1 X110.962 Y55.297 E54.6634
G1 X111.431 Y55.338 E54.6791
G1 X111.886 Y55.460 E54.6947
G1 X112.313 Y55.659 E54.7104
G1 X112.699 Y55.930 E54.7261
G1 X113.032 Y56.263 E54.7417
G1 X113.303 Y56.649 E54.7574
G1 X113.502 Y57.076 E54.7731
G1 X113.624 Y57.531 E54.7887
G1 X113.665 Y58.000 E54.8044
G1 X113.624 Y58.470 E54.8201
G1 X113.502 Y58.924 E54.8357
G1 X113.303 Y59.351 E54.8514
G1 X113.033 Y59.737 E54.8671
G1 X112.699 Y60.070 E54.8827
G1 X112.314 Y60.341 E54.8984
G1 X111.887 Y60.540 E54.9141
G1 X111.437 Y60.660 E54.9296
G1 X110.963 Y60.703 E54.9454
G1 X110.493 Y60.662 E54.9611
G1 X110.038 Y60.540 E54.9768
G1 X109.611 Y60.341 E54.9924
G1 X109.225 Y60.070 E55.0081
G1 X108.895 Y59.741 E55.0236
G1 X108.622 Y59.352 E55.0394
G1 X108.422 Y58.924 E55.0551
G1 X108.300 Y58.469 E55.0708
G1 X108.289 Y58.337 E55.0752
G0 F3000 E54.0752
G0 X110.390 Y61.007 F5400
G0 F3000 E55.0752
;segType:HShell
G1 X166.532 Y117.149 E57.7159 F2400
G0 X166.797 Y116.848 F5400
G1 X111.009 Y61.060 E60.3400 F2400
G0 X111.524 Y61.010 F5400
G1 X167.095 Y116.581 E62.9539 F2400
G0 X167.428 Y116.348 F5400
G1 X111.970 Y60.890 E65.5625 F2400
G0 X112.362 Y60.716 F5400
G1 X167.813 Y116.167 E68.1708 F2400
G0 X168.244 Y116.032 F5400
G1 X112.712 Y60.501 E70.7828 F2400
G0 X113.028 Y60.251 F5400
G1 X168.733 Y115.956 E73.4030 F2400
G0 X169.309 Y115.966 F5400
G1 X113.311 Y59.968 E76.0370 F2400
G0 X113.544 Y59.635 F5400
G1 X170.046 Y116.137 E78.6947 F2400
G0 X172.006 Y119.229 F5400
G1 X174.502 Y121.724 E78.8120 F2400
G0 X174.502 Y121.159 F5400
G1 X171.996 Y118.653 E78.9299 F2400
G0 X171.824 Y117.916 F5400
G1 X174.502 Y120.593 E79.0558 F2400
G0 X174.502 Y120.027 F5400
G1 X113.740 Y59.266 E81.9139 F2400
G0 X113.894 Y58.853 F5400
G1 X174.502 Y119.461 E84.7647 F2400
G0 X174.502 Y118.896 F5400
G1 X113.992 Y58.387 E87.6108 F2400
G0 X114.012 Y57.841 F5400
G1 X174.502 Y118.330 E90.4561 F2400
G0 X174.502 Y117.764 F5400
G1 X113.897 Y57.160 E93.3067 F2400
G0 X111.802 Y55.065 F5400
G1 X109.198 Y52.461 E93.4292 F2400
G0 X108.632 Y52.461 F5400
G1 X111.121 Y54.950 E93.5463 F2400
G0 X110.575 Y54.970 F5400
G1 X108.066 Y52.461 E93.6643 F2400
G0 X107.501 Y52.461 F5400
G1 X110.109 Y55.069 E93.7870 F2400
G0 X109.697 Y55.222 F5400
G1 X106.935 Y52.461 E93.9169 F2400
G0 X106.369 Y52.461 F5400
G1 X109.327 Y55.418 E94.0560 F2400
G0 X108.994 Y55.651 F5400
G1 X105.804 Y52.461 E94.2061 F2400
G0 X105.238 Y52.461 F5400
G1 X108.711 Y55.934 E94.3695 F2400
G0 X108.461 Y56.250 F5400
G1 X104.672 Y52.461 E94.5477 F2400
G0 X104.106 Y52.461 F5400
G1 X108.246 Y56.600 E94.7424 F2400
G0 X108.072 Y56.992 F5400
G1 X103.541 Y52.461 E94.9555 F2400
G0 X102.975 Y52.461 F5400
G1 X107.953 Y57.438 E95.1897 F2400
G0 X107.902 Y57.953 F5400
G1 X102.409 Y52.461 E95.4480 F2400
G0 X101.844 Y52.461 F5400
G1 X107.955 Y58.572 E95.7355 F2400
G0 X108.272 Y59.455 F5400
G1 X101.278 Y52.461 E96.0645 F2400
G0 X109.763 Y52.461 F5400
G1 X174.502 Y117.199 E99.1096 F2400
G0 X174.502 Y116.633 F5400
G1 X167.603 Y109.734 E99.4341 F2400
G0 X168.454 Y110.020 F5400
G1 X174.502 Y116.067 E99.7185 F2400
G0 X174.502 Y115.502 F5400
G1 X169.056 Y110.056 E99.9747 F2400
G0 X169.564 Y109.999 F5400
G1 X174.502 Y114.936 E100.2069 F2400
G0 X174.502 Y114.370 F5400
G1 X170.010 Y109.879 E100.4181 F2400
G0 X170.396 Y109.699 F5400
G1 X174.502 Y113.805 E100.6112 F2400
G0 X174.502 Y113.239 F5400
G1 X170.743 Y109.480 E100.7880 F2400
G0 X171.054 Y109.225 F5400
G1 X174.502 Y112.673 E100.9502 F2400
G0 X174.502 Y112.108 F5400
G1 X171.332 Y108.938 E101.0993 F2400
G0 X171.565 Y108.605 F5400
G1 X174.502 Y111.542 E101.2375 F2400
G0 X174.502 Y110.976 F5400
G1 X171.756 Y108.231 E101.3666 F2400
G0 X171.904 Y107.813 F5400
G1 X174.502 Y110.411 E101.4888 F2400
G0 X174.502 Y109.845 F5400
G1 X171.997 Y107.340 E101.6066 F2400
G0 X172.008 Y106.785 F5400
G1 X174.502 Y109.279 E101.7239 F2400
G0 X174.502 Y108.713 F5400
G1 X171.878 Y106.090 E101.8473 F2400
G0 X174.502 Y123.987 F5400
G1 X171.381 Y120.867 E101.9940 F2400
G0 X171.114 Y121.165 F5400
G1 X174.502 Y124.553 E102.1534 F2400
G0 X174.502 Y125.118 F5400
G1 X170.813 Y121.430 E102.3269 F2400
G0 X170.478 Y121.661 F5400
G1 X174.502 Y125.684 E102.5161 F2400
G0 X174.502 Y126.250 F5400
G1 X170.093 Y121.841 E102.7235 F2400
G0 X169.660 Y121.973 F5400
G1 X174.502 Y126.815 E102.9512 F2400
G0 X174.502 Y127.381 F5400
G1 X169.167 Y122.046 E103.2022 F2400
G0 X168.586 Y122.031 F5400
G1 X174.502 Y127.947 E103.4804 F2400
G0 X174.502 Y128.512 F5400
G1 X167.829 Y121.840 E103.7943 F2400
G0 F3000 E102.7943
G0 X167.615 Y121.342 F5400
G0 X167.611 Y121.340
G0 X167.225 Y121.070
G0 X166.892 Y120.737
G0 X166.621 Y120.352
G0 X166.422 Y119.924
G0 X166.300 Y119.469
G0 X166.259 Y119.000
G0 X166.300 Y118.531
G0 X166.341 Y118.380
G0 X166.121 Y117.869
G0 F3000 E103.7943
G1 X100.712 Y52.461 E106.8709 F2400
G0 X100.147 Y52.461 F5400
G1 X165.989 Y118.303 E109.9679 F2400
G0 X165.916 Y118.795 F5400
G1 X99.581 Y52.461 E113.0881 F2400
G0 X99.015 Y52.461 F5400
G1 X165.931 Y119.376 E116.2356 F2400
G0 X166.122 Y120.133 F5400
G1 X98.450 Y52.461 E119.4187 F2400
G0 X97.884 Y52.461 F5400
G1 X174.502 Y129.078 E123.0226 F2400
G0 X174.502 Y129.644 F5400
G1 X97.318 Y52.461 E126.6530 F2400
G0 X96.753 Y52.461 F5400
G1 X174.502 Y130.210 E130.3101 F2400
G0 X174.502 Y130.775 F5400
G1 X96.187 Y52.461 E133.9938 F2400
G0 X95.621 Y52.461 F5400
G1 X174.502 Y131.341 E137.7041 F2400
G0 X174.502 Y131.907 F5400
G1 X95.056 Y52.461 E141.4410 F2400
G0 X94.490 Y52.461 F5400
G1 X174.502 Y132.472 E145.2045 F2400
G0 X174.502 Y133.038 F5400
G1 X93.924 Y52.461 E148.9946 F2400
G0 X93.358 Y52.461 F5400
G1 X174.502 Y133.604 E152.8113 F2400
G0 X174.502 Y134.169 F5400
G1 X92.793 Y52.461 E156.6546 F2400
G0 X92.227 Y52.461 F5400
G1 X174.502 Y134.735 E160.5246 F2400
G0 X174.502 Y135.301 F5400
G1 X91.661 Y52.461 E164.4211 F2400
G0 X91.096 Y52.461 F5400
G1 X174.502 Y135.866 E168.3443 F2400
G0 X174.502 Y136.432 F5400
G1 X90.534 Y52.465 E172.2938 F2400
G0 X90.014 Y52.510 F5400
G1 X174.502 Y136.998 E176.2679 F2400
G0 X174.502 Y137.563 F5400
G1 X89.518 Y52.580 E180.2653 F2400
G0 X89.072 Y52.699 F5400
G1 X174.502 Y138.129 E184.2836 F2400
G0 X174.502 Y138.695 F5400
G1 X88.651 Y52.845 E188.3218 F2400
G0 X88.266 Y53.024 F5400
G1 X174.502 Y139.260 E192.3780 F2400
G0 X174.502 Y139.826 F5400
G1 X87.899 Y53.224 E196.4515 F2400
G0 X87.566 Y53.457 F5400
G1 X174.502 Y140.392 E200.5407 F2400
G0 X174.502 Y140.958 F5400
G1 X87.244 Y53.700 E204.6451 F2400
G0 X86.961 Y53.983 F5400
G1 X174.502 Y141.523 E208.7627 F2400
G0 X174.502 Y142.089 F5400
G1 X86.678 Y54.266 E212.8936 F2400
G0 X86.445 Y54.598 F5400
G1 X174.486 Y142.639 E217.0348 F2400
G0 X174.440 Y143.159 F5400
G1 X86.212 Y54.931 E221.1848 F2400
G0 X85.498 Y62.702 F5400
G1 X166.291 Y143.495 E224.9850 F2400
G0 X165.963 Y142.601 F5400
G1 X85.498 Y62.137 E228.7698 F2400
G0 X85.498 Y61.571 F5400
G1 X165.900 Y141.973 E232.5516 F2400
G0 X165.948 Y141.455 F5400
G1 X85.498 Y61.005 E236.3357 F2400
G0 X85.498 Y60.440 F5400
G1 X166.067 Y141.009 E240.1255 F2400
G0 X166.240 Y140.615 F5400
G1 X85.498 Y59.874 E243.9233 F2400
G0 X85.498 Y59.308 F5400
G1 X166.452 Y140.262 E247.7311 F2400
G0 X166.701 Y139.945 F5400
G1 X85.498 Y58.743 E251.5506 F2400
G0 X85.498 Y58.177 F5400
G1 X166.983 Y139.662 E255.3834 F2400
G0 X167.314 Y139.427 F5400
G1 X85.498 Y57.611 E259.2318 F2400
G0 X85.538 Y57.086 F5400
G1 X167.682 Y139.229 E263.0955 F2400
G0 X168.092 Y139.073 F5400
G1 X85.593 Y56.574 E266.9760 F2400
G0 X85.712 Y56.128 F5400
G1 X168.556 Y138.971 E270.8727 F2400
G0 X169.098 Y138.948 F5400
G1 X85.845 Y55.695 E274.7887 F2400
G0 X86.024 Y55.309 F5400
G1 X169.773 Y139.057 E278.7279 F2400
G0 X171.905 Y141.189 F5400
G1 X174.351 Y143.636 E278.8430 F2400
G0 X174.232 Y144.082 F5400
G1 X172.014 Y141.865 E278.9472 F2400
G0 X171.991 Y142.407 F5400
G1 X174.071 Y144.487 E279.0451 F2400
G0 X173.891 Y144.872 F5400
G1 X171.889 Y142.870 E279.1393 F2400
G0 X171.733 Y143.280 F5400
G1 X173.678 Y145.225 E279.2308 F2400
G0 X173.445 Y145.558 F5400
G1 X171.535 Y143.648 E279.3206 F2400
G0 X171.300 Y143.979 F5400
G1 X173.189 Y145.868 E279.4094 F2400
G0 X172.906 Y146.150 F5400
G1 X171.017 Y144.262 E279.4983 F2400
G0 X170.700 Y144.510 F5400
G1 X172.610 Y146.420 E279.5881 F2400
G0 X172.277 Y146.653 F5400
G1 X170.347 Y144.722 E279.6789 F2400
G0 X167.467 Y144.671 F5400
G1 X170.262 Y147.466 E279.8104 F2400
G0 X169.742 Y147.511 F5400
G1 X85.498 Y63.268 E283.7729 F2400
G0 X85.498 Y63.834 F5400
G1 X169.204 Y147.539 E287.7102 F2400
G0 X168.638 Y147.539 F5400
G1 X85.498 Y64.400 E291.6208 F2400
G0 X85.498 Y64.965 F5400
G1 X168.073 Y147.539 E295.5049 F2400
G0 X167.507 Y147.539 F5400
G1 X85.498 Y65.531 E299.3623 F2400
G0 X85.498 Y66.097 F5400
G1 X166.941 Y147.539 E303.1931 F2400
G0 X166.376 Y147.539 F5400
G1 X85.498 Y66.662 E306.9973 F2400
G0 X85.498 Y67.228 F5400
G1 X165.810 Y147.539 E310.7749 F2400
G0 X165.244 Y147.539 F5400
G1 X85.498 Y67.794 E314.5260 F2400
G0 X85.498 Y68.359 F5400
G1 X164.679 Y147.539 E318.2503 F2400
G0 X164.113 Y147.539 F5400
G1 X85.498 Y68.925 E321.9481 F2400
G0 X85.498 Y69.491 F5400
G1 X163.547 Y147.539 E325.6193 F2400
G0 X162.982 Y147.539 F5400
G1 X85.498 Y70.056 E329.2639 F2400
G0 X85.498 Y70.622 F5400
G1 X162.416 Y147.539 E332.8818 F2400
G0 X161.850 Y147.539 F5400
G1 X85.498 Y71.188 E336.4732 F2400
G0 X85.498 Y71.753 F5400
G1 X161.284 Y147.539 E340.0379 F2400
G0 X160.719 Y147.539 F5400
G1 X85.498 Y72.319 E343.5760 F2400
G0 X85.498 Y72.885 F5400
G1 X160.153 Y147.539 E347.0876 F2400
G0 X159.587 Y147.539 F5400
G1 X85.498 Y73.451 E350.5725 F2400
G0 X85.498 Y74.016 F5400
G1 X159.022 Y147.539 E354.0308 F2400
G0 X158.456 Y147.539 F5400
G1 X85.498 Y74.582 E357.4625 F2400
G0 X85.498 Y75.148 F5400
G1 X157.890 Y147.539 E360.8676 F2400
G0 X157.325 Y147.539 F5400
G1 X85.498 Y75.713 E364.2461 F2400
G0 X85.498 Y76.279 F5400
G1 X156.759 Y147.539 E367.5979 F2400
G0 X156.193 Y147.539 F5400
G1 X85.498 Y76.845 E370.9232 F2400
G0 X85.498 Y82.501 F5400
G1 X108.373 Y105.376 E371.9991 F2400
G0 X108.178 Y105.747 F5400
G1 X85.498 Y83.067 E373.0659 F2400
G0 X85.498 Y83.633 F5400
G1 X108.027 Y106.161 E374.1256 F2400
G0 X107.930 Y106.630 F5400
G1 X85.498 Y84.199 E375.1807 F2400
G0 X85.498 Y84.764 F5400
G1 X107.914 Y107.179 E376.2350 F2400
G0 X108.034 Y107.865 F5400
G1 X85.498 Y85.330 E377.2950 F2400
G0 X85.498 Y89.290 F5400
G1 X112.698 Y116.489 E378.5743 F2400
G0 X111.673 Y116.030 F5400
G1 X85.498 Y89.855 E379.8055 F2400
G0 X85.498 Y90.421 F5400
G1 X111.018 Y115.941 E381.0059 F2400
G0 X110.489 Y115.977 F5400
G1 X85.498 Y90.987 E382.1813 F2400
G0 X85.498 Y91.552 F5400
G1 X110.034 Y116.088 E383.3354 F2400
G0 X109.632 Y116.252 F5400
G1 X85.498 Y92.118 E384.4706 F2400
G0 X85.498 Y92.684 F5400
G1 X109.272 Y116.457 E385.5888 F2400
G0 X108.947 Y116.698 F5400
G1 X85.498 Y93.249 E386.6918 F2400
G0 X85.498 Y93.815 F5400
G1 X108.664 Y116.981 E387.7814 F2400
G0 X108.422 Y117.305 F5400
G1 X85.498 Y94.381 E388.8597 F2400
G0 X85.498 Y94.947 F5400
G1 X108.217 Y117.665 E389.9283 F2400
G0 X108.052 Y118.066 F5400
G1 X85.498 Y95.512 E390.9892 F2400
G0 X85.498 Y96.078 F5400
G1 X107.940 Y118.519 E392.0448 F2400
G0 X107.902 Y119.047 F5400
G1 X85.498 Y96.644 E393.0986 F2400
G0 X85.958 Y109.548 F5400
G1 X88.490 Y112.080 E393.2177 F2400
G0 X89.351 Y112.376 F5400
G1 X85.662 Y108.687 E393.3912 F2400
G0 X85.546 Y108.005 F5400
G1 X90.033 Y112.492 E393.6022 F2400
G0 X90.646 Y112.540 F5400
G1 X85.498 Y107.392 E393.8443 F2400
G0 X85.498 Y106.826 F5400
G1 X91.212 Y112.540 E394.1130 F2400
G0 X91.778 Y112.540 F5400
G1 X85.498 Y106.260 E394.4084 F2400
G0 X85.498 Y105.695 F5400
G1 X92.343 Y112.540 E394.7304 F2400
G0 X92.909 Y112.540 F5400
G1 X85.498 Y105.129 E395.0789 F2400
G0 X85.498 Y104.563 F5400
G1 X93.475 Y112.540 E395.4541 F2400
G0 X94.040 Y112.540 F5400
G1 X85.498 Y103.998 E395.8559 F2400
G0 X85.498 Y103.432 F5400
G1 X94.606 Y112.540 E396.2843 F2400
G0 X95.172 Y112.540 F5400
G1 X85.498 Y102.866 E396.7393 F2400
G0 X85.498 Y102.300 F5400
G1 X95.738 Y112.540 E397.2210 F2400
G0 X96.303 Y112.540 F5400
G1 X85.498 Y101.735 E397.7292 F2400
G0 X85.498 Y101.169 F5400
G1 X96.869 Y112.540 E398.2640 F2400
G0 X97.435 Y112.540 F5400
G1 X85.498 Y100.603 E398.8254 F2400
G0 X85.498 Y100.038 F5400
G1 X98.000 Y112.540 E399.4135 F2400
G0 X98.572 Y112.545 F5400
G1 X85.498 Y99.472 E400.0284 F2400
G0 X85.498 Y98.906 F5400
G1 X99.186 Y112.593 E400.6722 F2400
G0 X99.852 Y112.694 F5400
G1 X85.498 Y98.341 E401.3474 F2400
G0 X85.498 Y97.775 F5400
G1 X100.597 Y112.873 E402.0575 F2400
G0 X104.694 Y116.405 F5400
G1 X107.989 Y119.700 E402.2125 F2400
G0 X108.431 Y120.708 F5400
G1 X105.089 Y117.365 E402.3698 F2400
G0 X108.887 Y104.758 F5400
G1 X85.498 Y81.370 E403.4699 F2400
G0 X85.498 Y80.804 F5400
G1 X109.201 Y104.507 E404.5848 F2400
G0 X109.550 Y104.290 F5400
G1 X85.498 Y80.239 E405.7161 F2400
G0 X85.498 Y79.673 F5400
G1 X109.939 Y104.114 E406.8657 F2400
G0 X110.385 Y103.994 F5400
G1 X85.498 Y79.107 E408.0363 F2400
G0 X85.498 Y78.542 F5400
G1 X110.898 Y103.941 E409.2311 F2400
G0 X111.509 Y103.986 F5400
G1 X85.498 Y77.976 E410.4545 F2400
G0 X85.498 Y77.410 F5400
G1 X112.382 Y104.294 E411.7190 F2400
G0 X113.668 Y105.579 F5400
G1 X155.628 Y147.539 E413.6927 F2400
G0 X155.062 Y147.539 F5400
G1 X113.976 Y106.453 E415.6253 F2400
G0 X114.021 Y107.064 F5400
G1 X154.496 Y147.539 E417.5291 F2400
G0 X153.931 Y147.539 F5400
G1 X113.968 Y107.577 E419.4088 F2400
G0 X113.848 Y108.023 F5400
G1 X153.365 Y147.539 E421.2676 F2400
G0 X152.799 Y147.539 F5400
G1 X113.672 Y108.412 E423.1080 F2400
G0 X113.455 Y108.761 F5400
G1 X152.234 Y147.539 E424.9320 F2400
G0 X151.668 Y147.539 F5400
G1 X113.204 Y109.075 E426.7412 F2400
G0 X112.919 Y109.356 F5400
G1 X151.102 Y147.539 E428.5373 F2400
G0 X150.536 Y147.539 F5400
G1 X112.586 Y109.589 E430.3223 F2400
G0 X112.215 Y109.784 F5400
G1 X149.971 Y147.539 E432.0982 F2400
G0 X149.405 Y147.539 F5400
G1 X111.801 Y109.935 E433.8670 F2400
G0 X111.332 Y110.032 F5400
G1 X148.839 Y147.539 E435.6313 F2400
G0 X148.274 Y147.539 F5400
G1 X110.783 Y110.048 E437.3947 F2400
G0 X110.097 Y109.928 F5400
G1 X147.708 Y147.539 E439.1638 F2400
G0 X147.142 Y147.539 F5400
G1 X85.498 Y85.896 E442.0633 F2400
G0 X85.498 Y86.461 F5400
G1 X146.577 Y147.539 E444.9363 F2400
G0 X146.011 Y147.539 F5400
G1 X85.498 Y87.027 E447.7826 F2400
G0 X85.498 Y87.593 F5400
G1 X145.445 Y147.539 E450.6023 F2400
G0 X144.880 Y147.539 F5400
G1 X85.498 Y88.158 E453.3954 F2400
G0 X85.498 Y88.724 F5400
G1 X144.314 Y147.539 E456.1619 F2400
G0 X143.748 Y147.539 F5400
G1 X113.473 Y117.265 E457.5860 F2400
G0 X113.932 Y118.289 F5400
G1 X143.183 Y147.539 E458.9618 F2400
G0 X142.617 Y147.539 F5400
G1 X114.021 Y118.944 E460.3069 F2400
G0 X113.985 Y119.473 F5400
G1 X142.051 Y147.539 E461.6270 F2400
G0 X113.731 Y140.715 F5400
G1 X120.555 Y147.539 E461.9480 F2400
G0 X119.989 Y147.539 F5400
G1 X113.986 Y141.536 E462.2304 F2400
G0 X114.015 Y142.131 F5400
G1 X119.424 Y147.539 E462.4849 F2400
G0 X118.858 Y147.539 F5400
G1 X113.952 Y142.634 E462.7156 F2400
G0 X113.829 Y143.076 F5400
G1 X118.292 Y147.539 E462.9256 F2400
G0 X117.727 Y147.539 F5400
G1 X113.649 Y143.461 E463.1174 F2400
G0 X113.425 Y143.804 F5400
G1 X117.161 Y147.539 E463.2931 F2400
G0 X116.595 Y147.539 F5400
G1 X113.167 Y144.112 E463.4543 F2400
G0 X112.876 Y144.386 F5400
G1 X116.030 Y147.539 E463.6027 F2400
G0 X115.464 Y147.539 F5400
G1 X112.544 Y144.619 E463.7400 F2400
G0 X112.166 Y144.807 F5400
G1 X114.898 Y147.539 E463.8686 F2400
G0 X114.333 Y147.539 F5400
G1 X111.744 Y144.951 E463.9903 F2400
G0 X111.265 Y145.038 F5400
G1 X113.767 Y147.539 E464.1080 F2400
G0 X113.201 Y147.539 F5400
G1 X110.703 Y145.042 E464.2255 F2400
G0 X106.055 Y144.918 F5400
G1 X108.044 Y146.908 E464.3191 F2400
G0 X109.005 Y147.303 F5400
G1 X105.659 Y143.957 E464.4765 F2400
G0 X105.489 Y143.222 F5400
G1 X109.740 Y147.473 E464.6764 F2400
G0 X110.360 Y147.527 F5400
G1 X105.435 Y142.602 E464.9081 F2400
G0 X105.423 Y142.024 F5400
G1 X110.939 Y147.539 E465.1675 F2400
G0 X111.504 Y147.539 F5400
G1 X105.423 Y141.458 E465.4536 F2400
G0 F3000 E464.4536
G0 X105.063 Y141.576 F5400
G0 X108.835 Y140.344
G0 X108.835 Y140.344
G0 X108.892 Y140.263
G0 X109.225 Y139.930
G0 X109.611 Y139.659
G0 X110.038 Y139.460
G0 X110.493 Y139.338
G0 X110.962 Y139.297
G0 X111.431 Y139.338
G0 X111.698 Y139.410
G0 X112.246 Y139.231
G0 F3000 E465.4536
G1 X105.423 Y132.407 E465.7745 F2400
G0 X105.423 Y132.973 F5400
G1 X111.426 Y138.977 E466.0569 F2400
G0 X110.832 Y138.947 F5400
G1 X105.423 Y133.538 E466.3114 F2400
G0 X105.423 Y134.104 F5400
G1 X110.328 Y139.010 E466.5421 F2400
G0 X109.886 Y139.133 F5400
G1 X105.423 Y134.670 E466.7521 F2400
G0 X105.423 Y135.235 F5400
G1 X109.501 Y139.313 E466.9439 F2400
G0 X109.158 Y139.537 F5400
G1 X105.423 Y135.801 E467.1196 F2400
G0 X105.423 Y136.367 F5400
G1 X108.851 Y139.795 E467.2808 F2400
G0 X108.576 Y140.086 F5400
G1 X105.423 Y136.933 E467.4291 F2400
G0 X105.423 Y137.498 F5400
G1 X108.343 Y140.418 E467.5665 F2400
G0 X108.155 Y140.796 F5400
G1 X105.423 Y138.064 E467.6950 F2400
G0 X105.423 Y138.630 F5400
G1 X108.011 Y141.218 E467.8168 F2400
G0 X107.924 Y141.697 F5400
G1 X105.423 Y139.195 E467.9345 F2400
G0 X105.423 Y139.761 F5400
G1 X107.921 Y142.259 E468.0520 F2400
G0 X108.060 Y142.964 F5400
G1 X105.423 Y140.327 E468.1760 F2400
G0 X105.423 Y131.841 F5400
G1 X121.121 Y147.539 E468.9144 F2400
G0 X121.687 Y147.539 F5400
G1 X105.423 Y131.276 E469.6794 F2400
G0 X105.423 Y130.710 F5400
G1 X122.252 Y147.539 E470.4710 F2400
G0 X122.818 Y147.539 F5400
G1 X105.423 Y130.144 E471.2892 F2400
G0 X105.423 Y129.579 F5400
G1 X123.384 Y147.539 E472.1341 F2400
G0 X123.949 Y147.539 F5400
G1 X105.423 Y129.013 E473.0055 F2400
G0 X105.423 Y128.447 F5400
G1 X124.515 Y147.539 E473.9035 F2400
G0 X125.081 Y147.539 F5400
G1 X105.423 Y127.882 E474.8282 F2400
G0 X105.423 Y127.316 F5400
G1 X125.646 Y147.539 E475.7794 F2400
G0 X126.212 Y147.539 F5400
G1 X105.423 Y126.750 E476.7573 F2400
G0 X105.423 Y126.184 F5400
G1 X126.778 Y147.539 E477.7618 F2400
G0 X127.343 Y147.539 F5400
G1 X105.423 Y125.619 E478.7929 F2400
G0 X105.423 Y125.053 F5400
G1 X127.909 Y147.539 E479.8505 F2400
G0 X128.475 Y147.539 F5400
G1 X105.423 Y124.487 E480.9348 F2400
G0 X105.423 Y123.922 F5400
G1 X129.040 Y147.539 E482.0457 F2400
G0 X129.606 Y147.539 F5400
G1 X105.423 Y123.356 E483.1833 F2400
G0 X105.423 Y122.790 F5400
G1 X130.172 Y147.539 E484.3474 F2400
G0 X130.737 Y147.539 F5400
G1 X105.423 Y122.225 E485.5381 F2400
G0 X105.423 Y121.659 F5400
G1 X131.303 Y147.539 E486.7555 F2400
G0 X131.869 Y147.539 F5400
G1 X105.423 Y121.093 E487.9994 F2400
G0 X105.423 Y120.528 F5400
G1 X132.435 Y147.539 E489.2700 F2400
G0 X133.000 Y147.539 F5400
G1 X105.423 Y119.962 E490.5671 F2400
G0 X105.417 Y119.391 F5400
G1 X133.566 Y147.539 E491.8912 F2400
G0 X134.132 Y147.539 F5400
G1 X105.369 Y118.777 E493.2441 F2400
G0 X105.268 Y118.110 F5400
G1 X134.697 Y147.539 E494.6284 F2400
G0 X135.263 Y147.539 F5400
G1 X109.254 Y121.530 E495.8518 F2400
G0 X110.262 Y121.973 F5400
G1 X135.829 Y147.539 E497.0543 F2400
G0 X136.394 Y147.539 F5400
G1 X110.915 Y122.060 E498.2528 F2400
G0 X111.443 Y122.022 F5400
G1 X136.960 Y147.539 E499.4531 F2400
G0 X137.526 Y147.539 F5400
G1 X111.896 Y121.910 E500.6586 F2400
G0 X112.297 Y121.745 F5400
G1 X138.091 Y147.539 E501.8719 F2400
G0 X138.657 Y147.539 F5400
G1 X112.657 Y121.540 E503.0948 F2400
G0 X112.981 Y121.298 F5400
G1 X139.223 Y147.539 E504.3292 F2400
G0 X139.788 Y147.539 F5400
G1 X113.264 Y121.015 E505.5768 F2400
G0 X113.505 Y120.690 F5400
G1 X140.354 Y147.539 E506.8397 F2400
G0 X140.920 Y147.539 F5400
G1 X113.710 Y120.330 E508.1196 F2400
G0 X169.253 Y61.038 F5400
G1 X174.502 Y66.287 E508.3664 F2400
G0 X174.502 Y65.721 F5400
G1 X169.734 Y60.954 E508.5907 F2400
G0 X170.157 Y60.811 F5400
G1 X174.502 Y65.156 E508.7951 F2400
G0 X174.502 Y64.590 F5400
G1 X170.536 Y60.625 E508.9816 F2400
G0 X170.869 Y60.391 F5400
G1 X174.502 Y64.024 E509.1525 F2400
G0 X174.502 Y63.459 F5400
G1 X171.161 Y60.118 E509.3096 F2400
G0 X171.420 Y59.811 F5400
G1 X174.502 Y62.893 E509.4545 F2400
G0 X174.502 Y62.327 F5400
G1 X171.645 Y59.470 E509.5889 F2400
G0 X171.824 Y59.084 F5400
G1 X174.502 Y61.762 E509.7148 F2400
G0 X174.502 Y61.196 F5400
G1 X171.950 Y58.644 E509.8349 F2400
G0 X172.014 Y58.143 F5400
G1 X174.502 Y60.630 E509.9519 F2400
G0 X174.502 Y60.065 F5400
G1 X171.987 Y57.550 E510.0702 F2400
G0 X171.742 Y56.740 F5400
G1 X174.502 Y59.499 E510.1999 F2400
G0 X174.502 Y58.933 F5400
G1 X168.029 Y52.461 E510.5044 F2400
G0 X168.595 Y52.461 F5400
G1 X174.502 Y58.367 E510.7822 F2400
G0 X174.502 Y57.802 F5400
G1 X169.160 Y52.461 E511.0335 F2400
G0 X169.752 Y52.486 F5400
G1 X174.476 Y57.210 E511.2557 F2400
G0 X174.403 Y56.572 F5400
G1 X170.391 Y52.559 E511.4444 F2400
G0 X171.169 Y52.773 F5400
G1 X174.189 Y55.793 E511.5865 F2400
G0 X173.591 Y54.629 F5400
G1 X172.333 Y53.371 E511.6456 F2400
G0 X170.222 Y55.220 F5400
G1 X167.463 Y52.460 E511.7754 F2400
G0 X166.898 Y52.460 F5400
G1 X169.412 Y54.975 E511.8937 F2400
G0 X168.820 Y54.948 F5400
G1 X166.332 Y52.461 E512.0107 F2400
G0 X165.766 Y52.461 F5400
G1 X168.318 Y55.012 E512.1308 F2400
G0 X167.878 Y55.138 F5400
G1 X165.200 Y52.461 E512.2567 F2400
G0 X164.635 Y52.460 F5400
G1 X167.492 Y55.318 E512.3911 F2400
G0 X167.151 Y55.542 F5400
G1 X164.069 Y52.461 E512.5360 F2400
G0 X163.503 Y52.461 F5400
G1 X166.844 Y55.801 E512.6931 F2400
G0 X166.571 Y56.093 F5400
G1 X162.938 Y52.461 E512.8640 F2400
G0 X162.372 Y52.461 F5400
G1 X166.338 Y56.426 E513.0506 F2400
G0 X166.151 Y56.805 F5400
G1 X161.806 Y52.461 E513.2549 F2400
G0 X161.241 Y52.461 F5400
G1 X166.009 Y57.228 E513.4792 F2400
G0 X165.923 Y57.709 F5400
G1 X160.675 Y52.461 E513.7260 F2400
G0 X160.109 Y52.461 F5400
G1 X165.922 Y58.273 E513.9994 F2400
G0 X166.065 Y58.982 F5400
G1 X159.544 Y52.461 E514.3062 F2400
G0 X158.978 Y52.461 F5400
G1 X174.502 Y67.984 E515.0363 F2400
G0 X174.502 Y68.550 F5400
G1 X158.412 Y52.461 E515.7931 F2400
G0 X157.847 Y52.461 F5400
G1 X174.502 Y69.116 E516.5765 F2400
G0 X174.502 Y69.681 F5400
G1 X157.281 Y52.461 E517.3865 F2400
G0 X156.715 Y52.461 F5400
G1 X174.502 Y70.247 E518.2231 F2400
G0 X174.502 Y70.813 F5400
G1 X156.150 Y52.461 E519.0863 F2400
G0 X155.584 Y52.461 F5400
G1 X174.502 Y71.378 E519.9762 F2400
G0 X174.502 Y71.944 F5400
G1 X155.018 Y52.461 E520.8926 F2400
G0 X154.452 Y52.461 F5400
G1 X174.502 Y72.510 E521.8357 F2400
G0 X174.502 Y73.075 F5400
G1 X153.887 Y52.461 E522.8053 F2400
G0 X153.321 Y52.461 F5400
G1 X174.502 Y73.641 E523.8016 F2400
G0 X174.502 Y74.207 F5400
G1 X152.755 Y52.461 E524.8245 F2400
G0 X152.190 Y52.461 F5400
G1 X174.502 Y74.772 E525.8740 F2400
G0 X174.502 Y75.338 F5400
G1 X151.624 Y52.461 E526.9501 F2400
G0 X151.058 Y52.461 F5400
G1 X174.502 Y75.904 E528.0528 F2400
G0 X174.502 Y76.469 F5400
G1 X150.493 Y52.461 E529.1822 F2400
G0 X149.927 Y52.461 F5400
G1 X174.502 Y77.035 E530.3380 F2400
G0 X174.502 Y77.601 F5400
G1 X149.361 Y52.461 E531.5205 F2400
G0 X148.796 Y52.461 F5400
G1 X174.502 Y78.166 E532.7296 F2400
G0 X174.502 Y78.732 F5400
G1 X148.230 Y52.461 E533.9654 F2400
G0 X147.664 Y52.461 F5400
G1 X174.502 Y79.298 E535.2277 F2400
G0 X174.502 Y79.864 F5400
G1 X147.099 Y52.461 E536.5166 F2400
G0 X146.533 Y52.461 F5400
G1 X174.502 Y80.429 E537.8322 F2400
G0 X174.502 Y80.995 F5400
G1 X145.967 Y52.461 E539.1743 F2400
G0 X145.401 Y52.461 F5400
G1 X174.502 Y81.561 E540.5431 F2400
G0 X174.502 Y82.126 F5400
G1 X144.836 Y52.461 E541.9385 F2400
G0 X144.270 Y52.461 F5400
G1 X174.502 Y82.692 E543.3605 F2400
G0 X174.502 Y83.258 F5400
G1 X143.704 Y52.461 E544.8091 F2400
G0 X143.139 Y52.461 F5400
G1 X174.502 Y83.823 E546.2843 F2400
G0 X174.502 Y84.389 F5400
G1 X142.573 Y52.461 E547.7862 F2400
G0 X142.007 Y52.461 F5400
G1 X174.502 Y84.955 E549.3146 F2400
G0 X174.502 Y85.520 F5400
G1 X141.442 Y52.461 E550.8697 F2400
G0 X140.876 Y52.461 F5400
G1 X174.502 Y86.086 E552.4513 F2400
G0 X174.502 Y86.652 F5400
G1 X140.310 Y52.461 E554.0596 F2400
G0 X139.745 Y52.461 F5400
G1 X174.502 Y87.217 E555.6945 F2400
G0 X174.502 Y87.783 F5400
G1 X139.179 Y52.461 E557.3559 F2400
G0 X138.613 Y52.461 F5400
G1 X174.502 Y88.349 E559.0440 F2400
G0 X174.502 Y88.914 F5400
G1 X138.048 Y52.461 E560.7586 F2400
G0 X137.482 Y52.461 F5400
G1 X174.502 Y89.480 E562.4999 F2400
G0 X174.502 Y90.046 F5400
G1 X136.916 Y52.461 E564.2678 F2400
G0 X136.351 Y52.461 F5400
G1 X174.502 Y90.612 E566.0623 F2400
G0 X174.502 Y91.177 F5400
G1 X135.785 Y52.461 E567.8834 F2400
G0 X135.219 Y52.461 F5400
G1 X174.502 Y91.743 E569.7311 F2400
G0 X174.502 Y92.309 F5400
G1 X134.653 Y52.461 E571.6054 F2400
G0 X134.088 Y52.461 F5400
G1 X174.502 Y92.874 E573.5064 F2400
G0 X174.502 Y93.440 F5400
G1 X133.522 Y52.461 E575.4339 F2400
G0 X132.956 Y52.461 F5400
G1 X174.502 Y94.006 E577.3881 F2400
G0 X174.502 Y94.571 F5400
G1 X132.391 Y52.461 E579.3689 F2400
G0 X131.825 Y52.461 F5400
G1 X174.502 Y95.137 E581.3762 F2400
G0 X174.502 Y95.703 F5400
G1 X131.259 Y52.461 E583.4102 F2400
G0 X130.694 Y52.461 F5400
G1 X174.502 Y96.268 E585.4709 F2400
G0 X174.502 Y96.834 F5400
G1 X130.128 Y52.461 E587.5581 F2400
G0 X129.562 Y52.461 F5400
G1 X174.502 Y97.400 E589.6719 F2400
G0 X174.502 Y97.965 F5400
G1 X128.997 Y52.461 E591.8123 F2400
G0 X128.431 Y52.461 F5400
G1 X174.502 Y98.531 E593.9793 F2400
G0 X174.502 Y99.097 F5400
G1 X127.865 Y52.461 E596.1729 F2400
G0 X127.300 Y52.461 F5400
G1 X174.502 Y99.663 E598.3932 F2400
G0 X174.502 Y100.228 F5400
G1 X126.734 Y52.461 E600.6400 F2400
G0 X126.168 Y52.461 F5400
G1 X174.502 Y100.794 E602.9134 F2400
G0 X174.502 Y101.360 F5400
G1 X125.603 Y52.461 E605.2135 F2400
G0 X125.037 Y52.461 F5400
G1 X174.502 Y101.925 E607.5401 F2400
G0 X174.502 Y102.491 F5400
G1 X124.471 Y52.461 E609.8934 F2400
G0 X123.905 Y52.461 F5400
G1 X174.502 Y103.057 E612.2733 F2400
G0 X174.502 Y103.622 F5400
G1 X123.340 Y52.461 E614.6798 F2400
G0 X122.774 Y52.461 F5400
G1 X174.502 Y104.188 E617.1129 F2400
G0 X174.502 Y104.754 F5400
G1 X122.208 Y52.461 E619.5726 F2400
G0 X121.643 Y52.461 F5400
G1 X174.502 Y105.319 E622.0589 F2400
G0 X174.502 Y105.885 F5400
G1 X121.077 Y52.461 E624.5719 F2400
G0 X120.511 Y52.461 F5400
G1 X174.502 Y106.451 E627.1114 F2400
G0 X174.502 Y107.016 F5400
G1 X119.946 Y52.461 E629.6776 F2400
G0 X119.380 Y52.461 F5400
G1 X174.502 Y107.582 E632.2703 F2400
G0 X174.502 Y108.148 F5400
G1 X118.814 Y52.461 E634.8897 F2400
G0 X114.854 Y52.461 F5400
G1 X167.025 Y104.631 E637.3437 F2400
G0 X167.357 Y104.397 F5400
G1 X115.420 Y52.461 E639.7866 F2400
G0 X115.986 Y52.461 F5400
G1 X167.731 Y104.206 E642.2205 F2400
G0 X168.149 Y104.058 F5400
G1 X116.552 Y52.461 E644.6475 F2400
G0 X117.117 Y52.461 F5400
G1 X168.622 Y103.966 E647.0702 F2400
G0 X169.177 Y103.955 F5400
G1 X117.683 Y52.461 E649.4923 F2400
G0 X118.249 Y52.461 F5400
G1 X169.872 Y104.083 E651.9205 F2400
G0 X166.482 Y105.220 F5400
G1 X113.723 Y52.461 E654.4021 F2400
G0 X113.157 Y52.461 F5400
G1 X166.263 Y105.566 E656.9000 F2400
G0 X166.083 Y105.952 F5400
G1 X112.592 Y52.461 E659.4161 F2400
G0 X112.026 Y52.461 F5400
G1 X165.963 Y106.398 E661.9531 F2400
G0 X165.906 Y106.906 F5400
G1 X111.460 Y52.461 E664.5141 F2400
G0 X110.895 Y52.461 F5400
G1 X165.942 Y107.508 E667.1034 F2400
G0 X166.228 Y108.359 F5400
G1 X110.329 Y52.461 E669.7327 F2400
; ------------------------------------
; Layer #1
; ------------------------------------
M106 S0 ;turn off fan
G92 E0 ;reset extr
G0 F3000 E-1.0000
G0 F1200 Z0.400
G0 X110.378 Y52.100 F7200
G0 X109.913 Y55.519
G0 X109.913 Y55.519
G0 X109.611 Y55.659
G0 X109.225 Y55.930
G0 X108.892 Y56.263
G0 X108.621 Y56.649
G0 X108.422 Y57.076
G0 X108.300 Y57.531
G0 X108.259 Y58.000
G0 X108.300 Y58.469
G0 X108.422 Y58.924
G0 X108.621 Y59.351
G0 X108.892 Y59.737
G0 X109.225 Y60.070
G0 X109.288 Y60.114
G0 X109.288 Y60.114
G0 X101.966 Y113.928
G0 X102.019 Y113.538
G0 F3000 E0.0000
;segType:HShell
G1 X107.961 Y107.595 E0.2795 F3600
G0 X108.081 Y108.041 F7200
G1 X102.369 Y113.753 E0.5482 F3600
G0 X101.797 Y114.122 F7200
;segType:Perimeter
G1 X101.222 Y113.952 E0.5681 F2159
G1 X100.378 Y113.603 E0.5985
G1 X99.432 Y113.375 E0.6309
G1 X98.470 Y113.300 E0.6630
G1 X90.547 Y113.300 E0.9265
G1 X89.531 Y113.211 E0.9604
G1 X88.555 Y112.949 E0.9940
G1 X87.639 Y112.522 E1.0276
G1 X86.811 Y111.942 E1.0613
G1 X86.096 Y111.227 E1.0949
G1 X85.516 Y110.399 E1.1285
G1 X85.089 Y109.483 E1.1621
G1 X84.827 Y108.507 E1.1957
G1 X84.738 Y107.491 E1.2296
G1 X84.738 Y57.509 E2.8921
G1 X84.827 Y56.493 E2.9260
G1 X85.089 Y55.517 E2.9596
G1 X85.516 Y54.601 E2.9932
G1 X86.096 Y53.773 E3.0268
G1 X86.811 Y53.058 E3.0605
G1 X87.638 Y52.478 E3.0941
G1 X88.555 Y52.051 E3.1277
G1 X89.531 Y51.789 E3.1613
G1 X90.547 Y51.700 E3.1952
G1 X169.454 Y51.700 E5.8197
G1 X170.369 Y51.773 E5.8502
G1 X171.254 Y51.985 E5.8805
G1 X172.095 Y52.333 E5.9108
G1 X172.870 Y52.808 E5.9410
G1 X173.562 Y53.399 E5.9713
G1 X174.154 Y54.092 E6.0016
G1 X174.629 Y54.868 E6.0318
G1 X174.977 Y55.708 E6.0621
G1 X175.190 Y56.593 E6.0924
G1 X175.262 Y57.508 E6.1229
G1 X175.262 Y142.491 E8.9494
G1 X175.173 Y143.507 E8.9833
G1 X174.911 Y144.483 E9.0170
G1 X174.484 Y145.399 E9.0506
G1 X173.904 Y146.227 E9.0842
G1 X173.189 Y146.942 E9.1178
G1 X172.361 Y147.522 E9.1514
G1 X171.445 Y147.949 E9.1851
G1 X170.469 Y148.211 E9.2187
G1 X169.453 Y148.300 E9.2526
G1 X110.471 Y148.300 E11.2144
G1 X109.455 Y148.211 E11.2483
G1 X108.479 Y147.949 E11.2819
G1 X107.563 Y147.522 E11.3155
G1 X106.735 Y146.942 E11.3491
G1 X106.020 Y146.227 E11.3828
G1 X105.440 Y145.399 E11.4164
G1 X105.013 Y144.483 E11.4500
G1 X104.751 Y143.507 E11.4836
G1 X104.663 Y142.491 E11.5175
G1 X104.663 Y119.492 E12.2825
G1 X104.587 Y118.530 E12.3146
G1 X104.360 Y117.584 E12.3469
G1 X103.987 Y116.685 E12.3793
G1 X103.479 Y115.855 E12.4117
G1 X102.847 Y115.115 E12.4440
G1 X102.107 Y114.483 E12.4764
G1 X101.328 Y114.006 E12.5068
G0 X100.694 Y113.519 F7200
G0 X100.405 Y113.198
;segType:Loop
G1 X99.495 Y112.979 E12.5379 F3600
G1 X98.486 Y112.900 E12.5716
G1 X90.564 Y112.900 E12.8350
G1 X89.601 Y112.815 E12.8672
G1 X88.692 Y112.572 E12.8985
G1 X87.839 Y112.174 E12.9298
G1 X87.069 Y111.635 E12.9611
G1 X86.403 Y110.969 E12.9924
G1 X85.864 Y110.199 E13.0237
G1 X85.466 Y109.346 E13.0550
G1 X85.223 Y108.437 E13.0862
G1 X85.138 Y107.474 E13.1184
G1 X85.138 Y57.526 E14.7797
G1 X85.223 Y56.563 E14.8118
G1 X85.466 Y55.654 E14.8431
G1 X85.864 Y54.801 E14.8744
G1 X86.403 Y54.031 E14.9057
G1 X87.069 Y53.365 E14.9370
G1 X87.839 Y52.826 E14.9683
G1 X88.692 Y52.428 E14.9996
G1 X89.601 Y52.185 E15.0309
G1 X90.565 Y52.100 E15.0631
G1 X169.438 Y52.100 E17.6864
G1 X170.306 Y52.169 E17.7154
G1 X171.130 Y52.366 E17.7436
G1 X171.912 Y52.691 E17.7717
G1 X172.635 Y53.133 E17.7999
G1 X173.279 Y53.683 E17.8281
G1 X173.829 Y54.327 E17.8562
G1 X174.272 Y55.050 E17.8844
G1 X174.596 Y55.832 E17.9126
G1 X174.794 Y56.656 E17.9408
G1 X174.862 Y57.524 E17.9697
G1 X174.862 Y142.473 E20.7952
G1 X174.777 Y143.437 E20.8273
G1 X174.534 Y144.346 E20.8586
G1 X174.136 Y145.199 E20.8899
G1 X173.597 Y145.969 E20.9212
G1 X172.931 Y146.635 E20.9525
G1 X172.161 Y147.174 E20.9838
G1 X171.308 Y147.572 E21.0151
G1 X170.399 Y147.815 E21.0464
G1 X169.436 Y147.900 E21.0785
G1 X110.488 Y147.900 E23.0391
G1 X109.525 Y147.815 E23.0713
G1 X108.616 Y147.572 E23.1026
G1 X107.763 Y147.174 E23.1339
G1 X106.993 Y146.635 E23.1652
G1 X106.328 Y145.969 E23.1965
G1 X105.788 Y145.199 E23.2278
G1 X105.390 Y144.346 E23.2591
G1 X105.147 Y143.437 E23.2903
G1 X105.063 Y142.474 E23.3225
G1 X105.063 Y119.476 E24.0874
G1 X104.983 Y118.467 E24.1211
G1 X104.741 Y117.460 E24.1555
G1 X104.345 Y116.502 E24.1900
G1 X103.804 Y115.619 E24.2244
G1 X103.131 Y114.831 E24.2589
G1 X102.343 Y114.159 E24.2934
G1 X101.459 Y113.617 E24.3278
G1 X100.595 Y113.259 E24.3590
G0 X100.874 Y112.985 F7200
;segType:HShell
G1 X108.236 Y105.623 E24.7052 F3600
G0 X109.114 Y105.256 F7200
;segType:Perimeter
G1 X109.866 Y104.982 E24.7318 F2159
G1 X110.175 Y104.838 E24.7432
G1 X110.562 Y104.734 E24.7565
G1 X110.962 Y104.699 E24.7699
G1 X111.362 Y104.734 E24.7832
G1 X111.749 Y104.838 E24.7966
G1 X112.113 Y105.007 E24.8099
G1 X112.441 Y105.237 E24.8233
G1 X112.725 Y105.521 E24.8366
G1 X112.955 Y105.850 E24.8499
G1 X113.124 Y106.213 E24.8633
G1 X113.228 Y106.600 E24.8766
G1 X113.263 Y107.000 E24.8900
G1 X113.228 Y107.400 E24.9033
G1 X113.124 Y107.787 E24.9166
G1 X112.955 Y108.151 E24.9300
G1 X112.725 Y108.479 E24.9433
G1 X112.441 Y108.763 E24.9567
G1 X112.113 Y108.993 E24.9700
G1 X111.749 Y109.162 E24.9833
G1 X111.362 Y109.266 E24.9967
G1 X110.962 Y109.301 E25.0100
G1 X110.562 Y109.266 E25.0234
G1 X110.175 Y109.162 E25.0367
G1 X109.812 Y108.993 E25.0500
G1 X109.483 Y108.763 E25.0634
G1 X109.199 Y108.479 E25.0767
G1 X108.969 Y108.151 E25.0901
G1 X108.800 Y107.787 E25.1034
G1 X108.696 Y107.400 E25.1168
G1 X108.661 Y107.000 E25.1301
G1 X108.696 Y106.600 E25.1434
G1 X108.800 Y106.213 E25.1568
G1 X108.969 Y105.849 E25.1701
G1 X109.199 Y105.521 E25.1835
G1 X109.483 Y105.237 E25.1968
G1 X109.762 Y105.042 E25.2081
G0 X110.222 Y104.656 F7200
G0 X110.824 Y104.309
;segType:Loop
G1 X110.962 Y104.297 E25.2128 F3600
G1 X111.431 Y104.338 E25.2284
G1 X111.886 Y104.460 E25.2441
G1 X112.314 Y104.659 E25.2598
G1 X112.699 Y104.930 E25.2754
G1 X113.032 Y105.263 E25.2911
G1 X113.303 Y105.649 E25.3068
G1 X113.502 Y106.076 E25.3224
G1 X113.624 Y106.530 E25.3381
G1 X113.665 Y107.000 E25.3538
G1 X113.624 Y107.469 E25.3694
G1 X113.502 Y107.925 E25.3851
G1 X113.303 Y108.351 E25.4008
G1 X113.033 Y108.737 E25.4164
G1 X112.699 Y109.071 E25.4321
G1 X112.313 Y109.341 E25.4478
G1 X111.887 Y109.540 E25.4635
G1 X111.431 Y109.662 E25.4791
G1 X110.962 Y109.703 E25.4948
G1 X110.493 Y109.662 E25.5105
G1 X110.038 Y109.540 E25.5261
G1 X109.611 Y109.341 E25.5418
G1 X109.225 Y109.071 E25.5575
G1 X108.892 Y108.737 E25.5731
G1 X108.621 Y108.351 E25.5888
G1 X108.422 Y107.924 E25.6045
G1 X108.300 Y107.469 E25.6202
G1 X108.259 Y107.000 E25.6358
G1 X108.300 Y106.531 E25.6515
G1 X108.422 Y106.076 E25.6671
G1 X108.621 Y105.649 E25.6828
G1 X108.892 Y105.263 E25.6985
G1 X109.225 Y104.930 E25.7142
G1 X109.611 Y104.659 E25.7298
G1 X110.038 Y104.460 E25.7455
G1 X110.493 Y104.338 E25.7612
G1 X110.625 Y104.327 E25.7656
G0 F3000 E24.7656
G0 X174.502 Y59.157 F7200
G0 F3000 E25.7656
;segType:HShell
G1 X113.926 Y119.732 E28.6149 F3600
G0 X113.435 Y119.587 F7200
;segType:Perimeter
G1 X112.920 Y120.200 E28.6415 F2159
G1 X112.725 Y120.479 E28.6528
G1 X112.441 Y120.763 E28.6662
G1 X112.113 Y120.993 E28.6795
G1 X111.749 Y121.163 E28.6928
G1 X111.362 Y121.266 E28.7062
G1 X110.962 Y121.301 E28.7195
G1 X110.562 Y121.266 E28.7329
G1 X110.175 Y121.163 E28.7462
G1 X109.811 Y120.993 E28.7596
G1 X109.483 Y120.763 E28.7729
G1 X109.199 Y120.479 E28.7862
G1 X108.969 Y120.151 E28.7996
G1 X108.800 Y119.787 E28.8129
G1 X108.696 Y119.400 E28.8263
G1 X108.661 Y119.000 E28.8396
G1 X108.696 Y118.601 E28.8529
G1 X108.800 Y118.213 E28.8663
G1 X108.969 Y117.849 E28.8796
G1 X109.199 Y117.521 E28.8930
G1 X109.483 Y117.237 E28.9063
G1 X109.811 Y117.007 E28.9196
G1 X110.175 Y116.837 E28.9330
G1 X110.562 Y116.734 E28.9463
G1 X110.962 Y116.699 E28.9597
G1 X111.362 Y116.734 E28.9730
G1 X111.749 Y116.837 E28.9864
G1 X112.113 Y117.007 E28.9997
G1 X112.441 Y117.237 E29.0130
G1 X112.725 Y117.521 E29.0264
G1 X112.955 Y117.849 E29.0397
G1 X113.124 Y118.213 E29.0531
G1 X113.228 Y118.600 E29.0664
G1 X113.263 Y119.000 E29.0797
G1 X113.228 Y119.400 E29.0931
G1 X113.124 Y119.787 E29.1064
G1 X112.980 Y120.096 E29.1178
G0 X112.707 Y120.848 F7200
G0 X112.427 Y121.261
;segType:Loop
G1 X112.314 Y121.340 E29.1224 F3600
G1 X111.887 Y121.540 E29.1380
G1 X111.431 Y121.662 E29.1537
G1 X110.962 Y121.703 E29.1694
G1 X110.493 Y121.662 E29.1851
G1 X110.038 Y121.540 E29.2007
G1 X109.611 Y121.340 E29.2164
G1 X109.225 Y121.070 E29.2321
G1 X108.892 Y120.737 E29.2477
G1 X108.621 Y120.351 E29.2634
G1 X108.422 Y119.924 E29.2791
G1 X108.300 Y119.469 E29.2947
G1 X108.259 Y119.000 E29.3104
G1 X108.300 Y118.531 E29.3261
G1 X108.422 Y118.076 E29.3417
G1 X108.621 Y117.649 E29.3574
G1 X108.892 Y117.263 E29.3731
G1 X109.225 Y116.930 E29.3888
G1 X109.611 Y116.660 E29.4044
G1 X110.038 Y116.460 E29.4201
G1 X110.493 Y116.338 E29.4358
G1 X110.962 Y116.297 E29.4514
G1 X111.431 Y116.338 E29.4671
G1 X111.887 Y116.460 E29.4828
G1 X112.314 Y116.660 E29.4984
G1 X112.699 Y116.930 E29.5141
G1 X113.033 Y117.263 E29.5298
G1 X113.303 Y117.649 E29.5454
G1 X113.502 Y118.076 E29.5611
G1 X113.624 Y118.531 E29.5768
G1 X113.665 Y119.000 E29.5925
G1 X113.624 Y119.470 E29.6081
G1 X113.502 Y119.924 E29.6238
G1 X113.303 Y120.351 E29.6395
G1 X113.033 Y120.737 E29.6551
G1 X112.699 Y121.070 E29.6708
G1 X112.590 Y121.147 E29.6752
G0 F3000 E28.6752
G0 X112.590 Y121.147 F7200
G0 X109.793 Y139.574
G0 X109.793 Y139.574
G0 X109.611 Y139.659
G0 X109.225 Y139.930
G0 X108.892 Y140.263
G0 X108.621 Y140.649
G0 X108.422 Y141.076
G0 X108.300 Y141.531
G0 X108.259 Y142.000
G0 X108.300 Y142.469
G0 X108.422 Y142.924
G0 X108.621 Y143.352
G0 X108.892 Y143.737
G0 X109.126 Y143.971
G0 X109.061 Y144.396
G0 F3000 E29.6752
;segType:HShell
G1 X107.162 Y146.295 E29.7645 F3600
G0 X107.484 Y146.539 F7200
G1 X109.394 Y144.629 E29.8544 F3600
G0 X109.774 Y144.814 F7200
G1 X107.817 Y146.772 E29.9465 F3600
G0 X108.182 Y146.972 F7200
G1 X110.199 Y144.956 E30.0413 F3600
G0 X110.375 Y144.473 F7200
;segType:Perimeter
G1 X109.762 Y143.958 E30.0679 F2159
G1 X109.483 Y143.763 E30.0793
G1 X109.199 Y143.479 E30.0926
G1 X108.969 Y143.151 E30.1060
G1 X108.800 Y142.787 E30.1193
G1 X108.696 Y142.399 E30.1327
G1 X108.661 Y142.000 E30.1460
G1 X108.696 Y141.600 E30.1593
G1 X108.800 Y141.213 E30.1727
G1 X108.969 Y140.849 E30.1860
G1 X109.199 Y140.521 E30.1994
G1 X109.483 Y140.237 E30.2127
G1 X109.811 Y140.007 E30.2260
G1 X110.175 Y139.838 E30.2394
G1 X110.562 Y139.734 E30.2527
G1 X110.962 Y139.699 E30.2661
G1 X111.362 Y139.734 E30.2794
G1 X111.749 Y139.838 E30.2927
G1 X112.113 Y140.007 E30.3061
G1 X112.441 Y140.237 E30.3194
G1 X112.725 Y140.521 E30.3328
G1 X112.955 Y140.849 E30.3461
G1 X113.124 Y141.213 E30.3595
G1 X113.228 Y141.600 E30.3728
G1 X113.263 Y142.000 E30.3861
G1 X113.228 Y142.400 E30.3995
G1 X113.124 Y142.787 E30.4128
G1 X112.955 Y143.151 E30.4262
G1 X112.725 Y143.479 E30.4395
G1 X112.441 Y143.763 E30.4528
G1 X112.113 Y143.993 E30.4662
G1 X111.749 Y144.162 E30.4795
G1 X111.362 Y144.266 E30.4929
G1 X110.962 Y144.301 E30.5062
G1 X110.562 Y144.266 E30.5196
G1 X110.175 Y144.162 E30.5329
G1 X109.866 Y144.018 E30.5442
G0 X109.114 Y143.745 F7200
G0 X108.701 Y143.465
;segType:Loop
G1 X108.621 Y143.352 E30.5488 F3600
G1 X108.422 Y142.924 E30.5645
G1 X108.300 Y142.469 E30.5802
G1 X108.259 Y142.000 E30.5959
G1 X108.300 Y141.531 E30.6115
G1 X108.422 Y141.076 E30.6272
G1 X108.621 Y140.649 E30.6429
G1 X108.892 Y140.263 E30.6585
G1 X109.225 Y139.930 E30.6742
G1 X109.611 Y139.659 E30.6899
G1 X110.038 Y139.460 E30.7055
G1 X110.493 Y139.338 E30.7212
G1 X110.962 Y139.297 E30.7369
G1 X111.431 Y139.338 E30.7525
G1 X111.886 Y139.460 E30.7682
G1 X112.314 Y139.659 E30.7839
G1 X112.699 Y139.930 E30.7996
G1 X113.033 Y140.263 E30.8152
G1 X113.303 Y140.649 E30.8309
G1 X113.502 Y141.076 E30.8466
G1 X113.624 Y141.530 E30.8622
G1 X113.665 Y142.000 E30.8779
G1 X113.624 Y142.469 E30.8936
G1 X113.502 Y142.924 E30.9092
G1 X113.303 Y143.351 E30.9249
G1 X113.033 Y143.737 E30.9406
G1 X112.699 Y144.070 E30.9563
G1 X112.313 Y144.341 E30.9719
G1 X111.887 Y144.540 E30.9876
G1 X111.431 Y144.662 E31.0033
G1 X110.962 Y144.703 E31.0189
G1 X110.492 Y144.662 E31.0346
G1 X110.038 Y144.540 E31.0503
G1 X109.611 Y144.341 E31.0659
G1 X109.225 Y144.070 E31.0816
G1 X108.892 Y143.737 E31.0973
G1 X108.816 Y143.629 E31.1017
G0 F3000 E30.1017
G0 X108.816 Y143.629 F7200
G0 X108.892 Y143.737
G0 X109.225 Y144.070
G0 X109.611 Y144.341
G0 X110.038 Y144.540
G0 X110.492 Y144.662
G0 X110.962 Y144.703
G0 X111.431 Y144.662
G0 X111.887 Y144.540
G0 X112.313 Y144.341
G0 X112.699 Y144.070
G0 X112.856 Y143.914
G0 X164.183 Y147.540
G0 F3000 E31.1017
;segType:HShell
G1 X167.218 Y144.505 E31.2444 F3600
G0 X167.570 Y144.719 F7200
G1 X164.749 Y147.540 E31.3771 F3600
G0 X165.315 Y147.540 F7200
G1 X167.962 Y144.892 E31.5016 F3600
G0 X168.375 Y144.473 F7200
;segType:Perimeter
G1 X167.762 Y143.958 E31.5282 F2159
G1 X167.483 Y143.763 E31.5396
G1 X167.199 Y143.479 E31.5529
G1 X166.969 Y143.151 E31.5663
G1 X166.800 Y142.787 E31.5796
G1 X166.696 Y142.400 E31.5929
G1 X166.661 Y142.000 E31.6063
G1 X166.696 Y141.600 E31.6196
G1 X166.800 Y141.213 E31.6330
G1 X166.969 Y140.849 E31.6463
G1 X167.199 Y140.521 E31.6596
G1 X167.483 Y140.237 E31.6730
G1 X167.811 Y140.007 E31.6863
G1 X168.175 Y139.838 E31.6997
G1 X168.562 Y139.734 E31.7130
G1 X168.962 Y139.699 E31.7264
G1 X169.362 Y139.734 E31.7397
G1 X169.749 Y139.838 E31.7530
G1 X170.113 Y140.007 E31.7664
G1 X170.441 Y140.237 E31.7797
G1 X170.725 Y140.521 E31.7931
G1 X170.955 Y140.849 E31.8064
G1 X171.124 Y141.213 E31.8197
G1 X171.228 Y141.600 E31.8331
G1 X171.263 Y142.000 E31.8464
G1 X171.228 Y142.400 E31.8598
G1 X171.124 Y142.787 E31.8731
G1 X170.955 Y143.151 E31.8864
G1 X170.725 Y143.479 E31.8998
G1 X170.441 Y143.763 E31.9131
G1 X170.113 Y143.993 E31.9265
G1 X169.749 Y144.162 E31.9398
G1 X169.362 Y144.266 E31.9532
G1 X168.962 Y144.301 E31.9665
G1 X168.562 Y144.266 E31.9798
G1 X168.175 Y144.162 E31.9932
G1 X167.866 Y144.018 E32.0045
G0 X167.114 Y143.745 F7200
G0 X166.701 Y143.465
;segType:Loop
G1 X166.621 Y143.352 E32.0091 F3600
G1 X166.422 Y142.924 E32.0248
G1 X166.300 Y142.469 E32.0405
G1 X166.259 Y142.000 E32.0561
G1 X166.301 Y141.531 E32.0718
G1 X166.422 Y141.076 E32.0875
G1 X166.621 Y140.649 E32.1032
G1 X166.892 Y140.263 E32.1188
G1 X167.225 Y139.930 E32.1345
G1 X167.611 Y139.659 E32.1502
G1 X168.038 Y139.460 E32.1658
G1 X168.493 Y139.338 E32.1815
G1 X168.962 Y139.297 E32.1972
G1 X169.431 Y139.338 E32.2128
G1 X169.886 Y139.460 E32.2285
G1 X170.314 Y139.659 E32.2442
G1 X170.699 Y139.930 E32.2599
G1 X171.033 Y140.263 E32.2755
G1 X171.303 Y140.649 E32.2912
G1 X171.502 Y141.076 E32.3069
G1 X171.624 Y141.530 E32.3225
G1 X171.665 Y142.000 E32.3382
G1 X171.624 Y142.469 E32.3539
G1 X171.502 Y142.924 E32.3695
G1 X171.303 Y143.351 E32.3852
G1 X171.032 Y143.737 E32.4009
G1 X170.699 Y144.070 E32.4165
G1 X170.313 Y144.341 E32.4322
G1 X169.887 Y144.540 E32.4479
G1 X169.431 Y144.662 E32.4635
G1 X168.962 Y144.703 E32.4792
G1 X168.493 Y144.662 E32.4949
G1 X168.038 Y144.540 E32.5106
G1 X167.611 Y144.341 E32.5262
G1 X167.225 Y144.070 E32.5419
G1 X166.892 Y143.737 E32.5576
G1 X166.816 Y143.629 E32.5620
G0 F3000 E31.5620
G0 X166.816 Y143.629 F7200
G0 X166.621 Y143.352
G0 X166.422 Y142.924
G0 X166.300 Y142.469
G0 X166.259 Y142.000
G0 X166.301 Y141.531
G0 X166.422 Y141.076
G0 X166.621 Y140.649
G0 X166.892 Y140.263
G0 X167.225 Y139.930
G0 X167.611 Y139.659
G0 X167.980 Y139.487
G0 X174.501 Y116.291
G0 F3000 E32.5620
;segType:HShell
G1 X172.008 Y118.785 E32.6793 F3600
G0 X171.995 Y119.364 F7200
G1 X174.501 Y116.857 E32.7972 F3600
G0 X174.501 Y117.422 F7200
G1 X171.811 Y120.112 E32.9237 F3600
G0 X171.306 Y119.740 F7200
;segType:Perimeter
G1 X170.920 Y120.200 E32.9437 F2159
G1 X170.725 Y120.479 E32.9550
G1 X170.441 Y120.763 E32.9683
G1 X170.113 Y120.993 E32.9817
G1 X169.749 Y121.163 E32.9950
G1 X169.362 Y121.266 E33.0084
G1 X168.962 Y121.301 E33.0217
G1 X168.562 Y121.266 E33.0351
G1 X168.175 Y121.163 E33.0484
G1 X167.811 Y120.993 E33.0617
G1 X167.483 Y120.763 E33.0751
G1 X167.199 Y120.479 E33.0884
G1 X166.969 Y120.151 E33.1017
G1 X166.800 Y119.787 E33.1151
G1 X166.696 Y119.400 E33.1284
G1 X166.661 Y119.000 E33.1418
G1 X166.696 Y118.601 E33.1551
G1 X166.800 Y118.213 E33.1685
G1 X166.969 Y117.849 E33.1818
G1 X167.199 Y117.521 E33.1951
G1 X167.483 Y117.237 E33.2085
G1 X167.811 Y117.007 E33.2218
G1 X168.175 Y116.837 E33.2352
G1 X168.562 Y116.734 E33.2485
G1 X168.962 Y116.699 E33.2618
G1 X169.362 Y116.734 E33.2752
G1 X169.749 Y116.837 E33.2885
G1 X170.113 Y117.007 E33.3019
G1 X170.441 Y117.237 E33.3152
G1 X170.725 Y117.521 E33.3285
G1 X170.955 Y117.849 E33.3419
G1 X171.124 Y118.213 E33.3552
G1 X171.228 Y118.600 E33.3686
G1 X171.263 Y119.000 E33.3819
G1 X171.228 Y119.400 E33.3953
G1 X171.124 Y119.787 E33.4086
G1 X170.980 Y120.096 E33.4199
G0 X170.707 Y120.848 F7200
G0 X170.427 Y121.261
;segType:Loop
G1 X170.314 Y121.340 E33.4245 F3600
G1 X169.887 Y121.540 E33.4402
G1 X169.431 Y121.662 E33.4559
G1 X168.962 Y121.703 E33.4716
G1 X168.493 Y121.662 E33.4872
G1 X168.038 Y121.540 E33.5029
G1 X167.611 Y121.340 E33.5186
G1 X167.225 Y121.070 E33.5342
G1 X166.892 Y120.737 E33.5499
G1 X166.621 Y120.352 E33.5656
G1 X166.422 Y119.924 E33.5812
G1 X166.300 Y119.469 E33.5969
G1 X166.259 Y119.000 E33.6126
G1 X166.300 Y118.531 E33.6282
G1 X166.422 Y118.076 E33.6439
G1 X166.621 Y117.649 E33.6596
G1 X166.892 Y117.263 E33.6753
G1 X167.225 Y116.930 E33.6909
G1 X167.611 Y116.660 E33.7066
G1 X168.038 Y116.460 E33.7223
G1 X168.493 Y116.338 E33.7379
G1 X168.962 Y116.297 E33.7536
G1 X169.431 Y116.338 E33.7693
G1 X169.886 Y116.460 E33.7849
G1 X170.314 Y116.660 E33.8006
G1 X170.699 Y116.930 E33.8163
G1 X171.033 Y117.263 E33.8320
G1 X171.303 Y117.649 E33.8476
G1 X171.502 Y118.076 E33.8633
G1 X171.624 Y118.531 E33.8790
G1 X171.665 Y119.000 E33.8946
G1 X171.624 Y119.470 E33.9103
G1 X171.502 Y119.924 E33.9260
G1 X171.303 Y120.351 E33.9416
G1 X171.033 Y120.737 E33.9573
G1 X170.699 Y121.070 E33.9730
G1 X170.590 Y121.147 E33.9774
G0 F3000 E32.9774
G0 X124.585 Y147.539 F7200
G0 F3000 E33.9774
;segType:HShell
G1 X166.050 Y106.075 E35.9278 F3600
G0 X167.114 Y105.256 F7200
;segType:Perimeter
G1 X167.866 Y104.982 E35.9544 F2159
G1 X168.175 Y104.838 E35.9657
G1 X168.562 Y104.734 E35.9790
G1 X168.962 Y104.699 E35.9924
G1 X169.362 Y104.734 E36.0057
G1 X169.749 Y104.838 E36.0191
G1 X170.113 Y105.007 E36.0324
G1 X170.441 Y105.237 E36.0458
G1 X170.725 Y105.521 E36.0591
G1 X170.955 Y105.849 E36.0724
G1 X171.124 Y106.213 E36.0858
G1 X171.228 Y106.600 E36.0991
G1 X171.263 Y107.000 E36.1125
G1 X171.228 Y107.400 E36.1258
G1 X171.124 Y107.787 E36.1391
G1 X170.955 Y108.151 E36.1525
G1 X170.725 Y108.479 E36.1658
G1 X170.441 Y108.763 E36.1792
G1 X170.113 Y108.993 E36.1925
G1 X169.749 Y109.162 E36.2059
G1 X169.362 Y109.266 E36.2192
G1 X168.962 Y109.301 E36.2325
G1 X168.562 Y109.266 E36.2459
G1 X168.175 Y109.162 E36.2592
G1 X167.812 Y108.993 E36.2726
G1 X167.483 Y108.763 E36.2859
G1 X167.199 Y108.479 E36.2992
G1 X166.969 Y108.151 E36.3126
G1 X166.800 Y107.787 E36.3259
G1 X166.696 Y107.400 E36.3393
G1 X166.661 Y107.000 E36.3526
G1 X166.696 Y106.600 E36.3659
G1 X166.800 Y106.213 E36.3793
G1 X166.969 Y105.849 E36.3926
G1 X167.199 Y105.521 E36.4060
G1 X167.483 Y105.237 E36.4193
G1 X167.762 Y105.042 E36.4307
G0 X168.375 Y104.527 F7200
G0 X168.824 Y104.309
;segType:Loop
G1 X168.962 Y104.297 E36.4353 F3600
G1 X169.431 Y104.338 E36.4509
G1 X169.886 Y104.460 E36.4666
G1 X170.314 Y104.659 E36.4823
G1 X170.699 Y104.930 E36.4979
G1 X171.033 Y105.263 E36.5136
G1 X171.303 Y105.649 E36.5293
G1 X171.502 Y106.076 E36.5449
G1 X171.624 Y106.530 E36.5606
G1 X171.665 Y107.000 E36.5763
G1 X171.624 Y107.469 E36.5920
G1 X171.502 Y107.925 E36.6076
G1 X171.303 Y108.351 E36.6233
G1 X171.033 Y108.737 E36.6390
G1 X170.699 Y109.071 E36.6546
G1 X170.313 Y109.341 E36.6703
G1 X169.887 Y109.540 E36.6860
G1 X169.431 Y109.662 E36.7016
G1 X168.962 Y109.703 E36.7173
G1 X168.493 Y109.662 E36.7330
G1 X168.038 Y109.540 E36.7486
G1 X167.611 Y109.341 E36.7643
G1 X167.225 Y109.071 E36.7800
G1 X166.892 Y108.737 E36.7957
G1 X166.621 Y108.352 E36.8113
G1 X166.422 Y107.924 E36.8270
G1 X166.300 Y107.469 E36.8427
G1 X166.259 Y107.000 E36.8583
G1 X166.300 Y106.531 E36.8740
G1 X166.422 Y106.076 E36.8897
G1 X166.621 Y105.649 E36.9053
G1 X166.892 Y105.263 E36.9210
G1 X167.225 Y104.930 E36.9367
G1 X167.611 Y104.659 E36.9523
G1 X168.038 Y104.460 E36.9680
G1 X168.493 Y104.338 E36.9837
G1 X168.625 Y104.327 E36.9881
G0 F3000 E35.9881
G0 X110.932 Y115.938 F7200
G0 F3000 E36.9881
;segType:HShell
G1 X166.758 Y60.112 E39.6140 F3600
G0 X167.218 Y59.848 F7200
;segType:Perimeter
G1 X166.944 Y59.096 E39.6406 F2159
G1 X166.800 Y58.787 E39.6519
G1 X166.696 Y58.400 E39.6653
G1 X166.661 Y58.000 E39.6786
G1 X166.696 Y57.601 E39.6920
G1 X166.800 Y57.213 E39.7053
G1 X166.969 Y56.849 E39.7186
G1 X167.199 Y56.521 E39.7320
G1 X167.483 Y56.237 E39.7453
G1 X167.812 Y56.007 E39.7587
G1 X168.175 Y55.838 E39.7720
G1 X168.562 Y55.734 E39.7853
G1 X168.962 Y55.699 E39.7987
G1 X169.362 Y55.734 E39.8120
G1 X169.749 Y55.838 E39.8254
G1 X170.113 Y56.007 E39.8387
G1 X170.441 Y56.237 E39.8521
G1 X170.725 Y56.521 E39.8654
G1 X170.955 Y56.849 E39.8787
G1 X171.124 Y57.213 E39.8921
G1 X171.228 Y57.600 E39.9054
G1 X171.263 Y58.000 E39.9188
G1 X171.228 Y58.400 E39.9321
G1 X171.124 Y58.787 E39.9454
G1 X170.955 Y59.151 E39.9588
G1 X170.725 Y59.479 E39.9721
G1 X170.441 Y59.763 E39.9855
G1 X170.113 Y59.993 E39.9988
G1 X169.749 Y60.162 E40.0122
G1 X169.362 Y60.266 E40.0255
G1 X168.962 Y60.301 E40.0388
G1 X168.562 Y60.266 E40.0522
G1 X168.175 Y60.162 E40.0655
G1 X167.811 Y59.993 E40.0789
G1 X167.483 Y59.763 E40.0922
G1 X167.199 Y59.479 E40.1055
G1 X167.004 Y59.200 E40.1169
G0 X166.489 Y58.587 F7200
G0 X166.271 Y58.138
;segType:Loop
G1 X166.259 Y58.000 E40.1215 F3600
G1 X166.300 Y57.531 E40.1372
G1 X166.422 Y57.076 E40.1528
G1 X166.621 Y56.649 E40.1685
G1 X166.892 Y56.263 E40.1842
G1 X167.225 Y55.930 E40.1998
G1 X167.611 Y55.659 E40.2155
G1 X168.038 Y55.460 E40.2312
G1 X168.492 Y55.338 E40.2468
G1 X168.962 Y55.297 E40.2625
G1 X169.431 Y55.338 E40.2782
G1 X169.886 Y55.460 E40.2939
G1 X170.313 Y55.659 E40.3095
G1 X170.699 Y55.930 E40.3252
G1 X171.033 Y56.263 E40.3409
G1 X171.303 Y56.649 E40.3565
G1 X171.502 Y57.076 E40.3722
G1 X171.624 Y57.531 E40.3879
G1 X171.665 Y58.000 E40.4035
G1 X171.624 Y58.470 E40.4192
G1 X171.502 Y58.924 E40.4349
G1 X171.303 Y59.351 E40.4505
G1 X171.033 Y59.737 E40.4662
G1 X170.699 Y60.070 E40.4819
G1 X170.314 Y60.341 E40.4975
G1 X169.886 Y60.540 E40.5132
G1 X169.431 Y60.662 E40.5289
G1 X168.962 Y60.703 E40.5446
G1 X168.493 Y60.662 E40.5602
G1 X168.038 Y60.540 E40.5759
G1 X167.611 Y60.341 E40.5916
G1 X167.225 Y60.070 E40.6072
G1 X166.892 Y59.737 E40.6229
G1 X166.621 Y59.351 E40.6386
G1 X166.422 Y58.924 E40.6542
G1 X166.300 Y58.469 E40.6699
G1 X166.289 Y58.337 E40.6743
G0 F3000 E39.6743
G0 X166.289 Y58.337 F7200
G0 X85.138 Y83.784
G0 X85.498 Y83.672
G0 F3000 E40.6743
;segType:HShell
G1 X108.908 Y60.262 E41.7754 F3600
G0 X109.218 Y59.848 F7200
;segType:Perimeter
G1 X108.944 Y59.096 E41.8020 F2159
G1 X108.800 Y58.787 E41.8134
G1 X108.696 Y58.400 E41.8267
G1 X108.661 Y58.000 E41.8401
G1 X108.696 Y57.601 E41.8534
G1 X108.800 Y57.213 E41.8667
G1 X108.969 Y56.849 E41.8801
G1 X109.199 Y56.521 E41.8934
G1 X109.483 Y56.237 E41.9068
G1 X109.811 Y56.007 E41.9201
G1 X110.175 Y55.838 E41.9334
G1 X110.562 Y55.734 E41.9468
G1 X110.962 Y55.699 E41.9601
G1 X111.362 Y55.734 E41.9735
G1 X111.749 Y55.838 E41.9868
G1 X112.113 Y56.007 E42.0002
G1 X112.441 Y56.237 E42.0135
G1 X112.725 Y56.521 E42.0268
G1 X112.955 Y56.849 E42.0402
G1 X113.124 Y57.213 E42.0535
G1 X113.228 Y57.600 E42.0669
G1 X113.263 Y58.000 E42.0802
G1 X113.228 Y58.400 E42.0935
G1 X113.124 Y58.787 E42.1069
G1 X112.955 Y59.151 E42.1202
G1 X112.725 Y59.479 E42.1336
G1 X112.441 Y59.763 E42.1469
G1 X112.113 Y59.993 E42.1602
G1 X111.749 Y60.162 E42.1736
G1 X111.362 Y60.266 E42.1869
G1 X110.962 Y60.301 E42.2003
G1 X110.562 Y60.266 E42.2136
G1 X110.175 Y60.162 E42.2270
G1 X109.811 Y59.993 E42.2403
G1 X109.483 Y59.763 E42.2536
G1 X109.199 Y59.479 E42.2670
G1 X109.004 Y59.200 E42.2783
G0 X108.489 Y58.587 F7200
G0 X108.271 Y58.138
;segType:Loop
G1 X108.259 Y58.000 E42.2829 F3600
G1 X108.300 Y57.531 E42.2986
G1 X108.422 Y57.076 E42.3143
G1 X108.621 Y56.649 E42.3299
G1 X108.892 Y56.263 E42.3456
G1 X109.225 Y55.930 E42.3613
G1 X109.611 Y55.659 E42.3769
G1 X110.038 Y55.460 E42.3926
G1 X110.492 Y55.338 E42.4083
G1 X110.962 Y55.297 E42.4240
G1 X111.431 Y55.338 E42.4396
G1 X111.886 Y55.460 E42.4553
G1 X112.313 Y55.659 E42.4710
G1 X112.699 Y55.930 E42.4866
G1 X113.032 Y56.263 E42.5023
G1 X113.303 Y56.649 E42.5180
G1 X113.502 Y57.076 E42.5336
G1 X113.624 Y57.531 E42.5493
G1 X113.665 Y58.000 E42.5650
G1 X113.624 Y58.470 E42.5806
G1 X113.502 Y58.924 E42.5963
G1 X113.303 Y59.351 E42.6120
G1 X113.033 Y59.737 E42.6276
G1 X112.699 Y60.070 E42.6433
G1 X112.314 Y60.341 E42.6590
G1 X111.886 Y60.540 E42.6746
G1 X111.431 Y60.662 E42.6903
G1 X110.962 Y60.703 E42.7060
G1 X110.493 Y60.662 E42.7217
G1 X110.038 Y60.540 E42.7373
G1 X109.611 Y60.341 E42.7530
G1 X109.225 Y60.070 E42.7687
G1 X108.892 Y59.737 E42.7843
G1 X108.621 Y59.351 E42.8000
G1 X108.422 Y58.924 E42.8157
G1 X108.300 Y58.469 E42.8313
G1 X108.289 Y58.337 E42.8358
G0 X108.018 Y57.192 F7200
;segType:HShell
G1 X85.498 Y79.712 E43.8950 F3600
G0 X85.498 Y80.277 F7200
G1 X107.910 Y57.866 E44.9492 F3600
G0 X107.934 Y58.408 F7200
G1 X85.498 Y80.843 E46.0044 F3600
G0 X85.498 Y81.409 F7200
G1 X108.035 Y58.872 E47.0645 F3600
G0 X108.191 Y59.282 F7200
G1 X85.498 Y81.974 E48.1319 F3600
G0 X85.498 Y82.540 F7200
G1 X108.390 Y59.649 E49.2087 F3600
G0 X108.625 Y59.980 F7200
G1 X85.498 Y83.106 E50.2965 F3600
G0 X88.568 Y52.884 F7200
G1 X85.921 Y55.530 E50.4209 F3600
G0 X85.647 Y56.370 F7200
G1 X89.408 Y52.609 E50.5978 F3600
G0 X90.078 Y52.504 F7200
G1 X85.542 Y57.040 E50.8112 F3600
G0 X85.498 Y57.650 F7200
G1 X90.688 Y52.461 E51.0553 F3600
G0 X91.254 Y52.461 F7200
G1 X85.498 Y58.216 E51.3260 F3600
G0 X85.498 Y58.781 F7200
G1 X91.819 Y52.461 E51.6233 F3600
G0 X92.385 Y52.461 F7200
G1 X85.498 Y59.347 E51.9472 F3600
G0 X85.498 Y59.913 F7200
G1 X92.951 Y52.461 E52.2977 F3600
G0 X93.516 Y52.461 F7200
G1 X85.498 Y60.478 E52.6749 F3600
G0 X85.498 Y61.044 F7200
G1 X94.082 Y52.461 E53.0786 F3600
G0 X94.648 Y52.461 F7200
G1 X85.498 Y61.610 E53.5090 F3600
G0 X85.498 Y62.175 F7200
G1 X95.213 Y52.461 E53.9660 F3600
G0 X95.779 Y52.461 F7200
G1 X85.498 Y62.741 E54.4495 F3600
G0 X85.498 Y63.307 F7200
G1 X96.345 Y52.461 E54.9597 F3600
G0 X96.911 Y52.460 F7200
G1 X85.498 Y63.873 E55.4965 F3600
G0 X85.498 Y64.438 F7200
G1 X97.476 Y52.460 E56.0599 F3600
G0 X98.042 Y52.460 F7200
G1 X85.498 Y65.004 E56.6499 F3600
G0 X85.498 Y65.570 F7200
G1 X98.608 Y52.460 E57.2665 F3600
G0 X99.173 Y52.460 F7200
G1 X85.498 Y66.135 E57.9097 F3600
G0 X85.498 Y66.701 F7200
G1 X99.739 Y52.460 E58.5796 F3600
G0 X100.305 Y52.460 F7200
G1 X85.498 Y67.267 E59.2760 F3600
G0 X85.498 Y67.832 F7200
G1 X100.870 Y52.460 E59.9990 F3600
G0 X101.436 Y52.460 F7200
G1 X85.498 Y68.398 E60.7487 F3600
G0 X85.498 Y68.964 F7200
G1 X102.002 Y52.460 E61.5250 F3600
G0 X102.567 Y52.460 F7200
G1 X85.498 Y69.529 E62.3278 F3600
G0 X85.498 Y70.095 F7200
G1 X103.133 Y52.460 E63.1573 F3600
G0 X103.699 Y52.460 F7200
G1 X85.498 Y70.661 E64.0134 F3600
G0 X85.498 Y71.226 F7200
G1 X104.264 Y52.460 E64.8961 F3600
G0 X104.830 Y52.460 F7200
G1 X85.498 Y71.792 E65.8054 F3600
G0 X85.498 Y72.358 F7200
G1 X105.396 Y52.460 E66.7413 F3600
G0 X105.962 Y52.460 F7200
G1 X85.498 Y72.924 E67.7038 F3600
G0 X85.498 Y73.489 F7200
G1 X106.527 Y52.460 E68.6929 F3600
G0 X107.093 Y52.460 F7200
G1 X85.498 Y74.055 E69.7087 F3600
G0 X85.498 Y74.621 F7200
G1 X107.659 Y52.460 E70.7510 F3600
G0 X108.224 Y52.460 F7200
G1 X85.498 Y75.186 E71.8200 F3600
G0 X85.498 Y75.752 F7200
G1 X108.790 Y52.460 E72.9155 F3600
G0 X109.356 Y52.460 F7200
G1 X85.498 Y76.318 E74.0377 F3600
G0 X85.498 Y76.883 F7200
G1 X109.921 Y52.460 E75.1865 F3600
G0 X110.487 Y52.460 F7200
G1 X85.498 Y77.449 E76.3619 F3600
G0 X85.498 Y78.015 F7200
G1 X111.053 Y52.460 E77.5639 F3600
G0 X111.618 Y52.460 F7200
G1 X85.498 Y78.580 E78.7925 F3600
G0 X85.498 Y79.146 F7200
G1 X112.184 Y52.460 E80.0477 F3600
G0 X112.750 Y52.460 F7200
G1 X110.154 Y55.056 E80.1698 F3600
G0 X110.828 Y54.947 F7200
G1 X113.315 Y52.460 E80.2868 F3600
G0 X113.881 Y52.460 F7200
G1 X111.370 Y54.971 E80.4049 F3600
G0 X111.834 Y55.073 F7200
G1 X114.447 Y52.460 E80.5278 F3600
G0 X115.013 Y52.460 F7200
G1 X112.243 Y55.230 E80.6580 F3600
G0 X112.611 Y55.428 F7200
G1 X115.578 Y52.460 E80.7976 F3600
G0 X116.144 Y52.460 F7200
G1 X112.942 Y55.663 E80.9482 F3600
G0 X113.225 Y55.945 F7200
G1 X116.710 Y52.460 E81.1122 F3600
G0 X117.275 Y52.460 F7200
G1 X113.472 Y56.263 E81.2910 F3600
G0 X113.685 Y56.616 F7200
G1 X117.841 Y52.460 E81.4865 F3600
G0 X118.407 Y52.460 F7200
G1 X113.857 Y57.010 E81.7005 F3600
G0 X113.977 Y57.456 F7200
G1 X118.972 Y52.460 E81.9355 F3600
G0 X119.538 Y52.460 F7200
G1 X114.024 Y57.974 E82.1949 F3600
G0 X113.961 Y58.603 F7200
G1 X120.104 Y52.460 E82.4838 F3600
G0 X120.669 Y52.460 F7200
G1 X113.631 Y59.498 E82.8149 F3600
G0 F3000 E81.8149
G0 X113.117 Y59.617 F7200
G0 X113.033 Y59.737
G0 X112.699 Y60.070
G0 X112.314 Y60.341
G0 X111.886 Y60.540
G0 X111.431 Y60.662
G0 X110.962 Y60.703
G0 X110.493 Y60.662
G0 X110.038 Y60.540
G0 X109.727 Y60.395
G0 X109.225 Y60.510
G0 F3000 E82.8149
G1 X85.498 Y84.237 E83.9309 F3600
G0 X85.498 Y84.803 F7200
G1 X109.578 Y60.723 E85.0635 F3600
G0 X109.972 Y60.895 F7200
G1 X85.498 Y85.369 E86.2147 F3600
G0 X85.498 Y85.934 F7200
G1 X110.418 Y61.014 E87.3869 F3600
G0 X110.936 Y61.062 F7200
G1 X85.498 Y86.500 E88.5834 F3600
G0 X85.498 Y87.066 F7200
G1 X111.566 Y60.998 E89.8095 F3600
G0 X112.460 Y60.670 F7200
G1 X85.498 Y87.631 E91.0777 F3600
G0 X85.498 Y88.197 F7200
G1 X121.235 Y52.460 E92.7586 F3600
G0 X121.801 Y52.460 F7200
G1 X85.498 Y88.763 E94.4662 F3600
G0 X85.498 Y89.328 F7200
G1 X122.366 Y52.460 E96.2003 F3600
G0 X122.932 Y52.460 F7200
G1 X85.498 Y89.894 E97.9611 F3600
G0 X85.498 Y90.460 F7200
G1 X123.498 Y52.460 E99.7485 F3600
G0 X124.064 Y52.460 F7200
G1 X85.498 Y91.025 E101.5625 F3600
G0 X85.498 Y91.591 F7200
G1 X124.629 Y52.460 E103.4031 F3600
G0 X125.195 Y52.460 F7200
G1 X85.498 Y92.157 E105.2703 F3600
G0 X85.498 Y92.722 F7200
G1 X125.761 Y52.460 E107.1641 F3600
G0 X126.326 Y52.460 F7200
G1 X85.498 Y93.288 E109.0845 F3600
G0 X85.498 Y93.854 F7200
G1 X126.892 Y52.460 E111.0315 F3600
G0 X127.458 Y52.460 F7200
G1 X85.498 Y94.420 E113.0051 F3600
G0 X85.498 Y94.985 F7200
G1 X128.023 Y52.460 E115.0054 F3600
G0 X128.589 Y52.460 F7200
G1 X85.498 Y95.551 E117.0322 F3600
G0 X85.498 Y96.117 F7200
G1 X129.155 Y52.460 E119.0857 F3600
G0 X129.720 Y52.460 F7200
G1 X85.498 Y96.682 E121.1657 F3600
G0 X85.498 Y97.248 F7200
G1 X130.286 Y52.460 E123.2724 F3600
G0 X130.852 Y52.460 F7200
G1 X85.498 Y97.814 E125.4057 F3600
G0 X85.498 Y98.379 F7200
G1 X131.417 Y52.460 E127.5656 F3600
G0 X131.983 Y52.460 F7200
G1 X85.498 Y98.945 E129.7521 F3600
G0 X85.498 Y99.511 F7200
G1 X132.549 Y52.460 E131.9652 F3600
G0 X133.115 Y52.460 F7200
G1 X85.498 Y100.076 E134.2049 F3600
G0 X85.498 Y100.642 F7200
G1 X133.680 Y52.460 E136.4712 F3600
G0 X134.246 Y52.460 F7200
G1 X85.498 Y101.208 E138.7642 F3600
G0 X85.498 Y101.773 F7200
G1 X134.812 Y52.460 E141.0837 F3600
G0 X135.377 Y52.460 F7200
G1 X85.498 Y102.339 E143.4298 F3600
G0 X85.498 Y102.905 F7200
G1 X135.943 Y52.460 E145.8026 F3600
G0 X136.509 Y52.460 F7200
G1 X85.498 Y103.471 E148.2020 F3600
G0 X85.498 Y104.036 F7200
G1 X137.074 Y52.460 E150.6279 F3600
G0 X137.640 Y52.460 F7200
G1 X85.498 Y104.602 E153.0805 F3600
G0 X85.498 Y105.168 F7200
G1 X138.206 Y52.460 E155.5597 F3600
G0 X138.771 Y52.460 F7200
G1 X85.498 Y105.733 E158.0655 F3600
G0 X85.498 Y106.299 F7200
G1 X139.337 Y52.460 E160.5979 F3600
G0 X139.903 Y52.460 F7200
G1 X85.498 Y106.865 E163.1569 F3600
G0 X85.498 Y107.430 F7200
G1 X140.468 Y52.460 E165.7425 F3600
G0 X141.034 Y52.460 F7200
G1 X85.542 Y107.953 E168.3527 F3600
G0 X85.601 Y108.459 F7200
G1 X141.600 Y52.460 E170.9867 F3600
G0 X142.166 Y52.460 F7200
G1 X85.721 Y108.905 E173.6417 F3600
G0 X85.858 Y109.334 F7200
G1 X142.731 Y52.460 E176.3169 F3600
G0 X143.297 Y52.460 F7200
G1 X86.038 Y109.720 E179.0102 F3600
G0 X86.230 Y110.093 F7200
G1 X143.863 Y52.460 E181.7210 F3600
G0 X144.428 Y52.460 F7200
G1 X86.463 Y110.426 E184.4476 F3600
G0 X86.699 Y110.755 F7200
G1 X144.994 Y52.460 E187.1896 F3600
G0 X145.560 Y52.460 F7200
G1 X86.982 Y111.038 E189.9449 F3600
G0 X87.265 Y111.321 F7200
G1 X146.125 Y52.460 E192.7135 F3600
G0 X146.691 Y52.460 F7200
G1 X87.591 Y111.561 E195.4934 F3600
G0 X87.923 Y111.794 F7200
G1 X147.257 Y52.460 E198.2843 F3600
G0 X147.822 Y52.460 F7200
G1 X88.294 Y111.989 E201.0843 F3600
G0 X88.680 Y112.169 F7200
G1 X148.388 Y52.460 E203.8928 F3600
G0 X148.954 Y52.460 F7200
G1 X89.105 Y112.309 E206.7080 F3600
G0 X89.551 Y112.429 F7200
G1 X149.520 Y52.460 E209.5287 F3600
G0 X150.085 Y52.460 F7200
G1 X90.052 Y112.493 E212.3525 F3600
G0 X90.572 Y112.539 F7200
G1 X150.651 Y52.460 E215.1784 F3600
G0 X151.217 Y52.460 F7200
G1 X91.137 Y112.540 E218.0044 F3600
G0 X91.703 Y112.540 F7200
G1 X151.782 Y52.460 E220.8303 F3600
G0 X152.348 Y52.460 F7200
G1 X92.269 Y112.540 E223.6562 F3600
G0 X92.834 Y112.540 F7200
G1 X152.914 Y52.460 E226.4822 F3600
G0 X153.479 Y52.460 F7200
G1 X93.400 Y112.540 E229.3081 F3600
G0 X93.966 Y112.540 F7200
G1 X154.045 Y52.460 E232.1341 F3600
G0 X154.611 Y52.460 F7200
G1 X94.531 Y112.540 E234.9600 F3600
G0 X95.097 Y112.540 F7200
G1 X155.176 Y52.460 E237.7860 F3600
G0 X155.742 Y52.460 F7200
G1 X95.663 Y112.540 E240.6119 F3600
G0 X96.228 Y112.540 F7200
G1 X156.308 Y52.460 E243.4378 F3600
G0 X156.873 Y52.460 F7200
G1 X96.794 Y112.540 E246.2638 F3600
G0 X97.360 Y112.540 F7200
G1 X157.439 Y52.460 E249.0897 F3600
G0 X158.005 Y52.460 F7200
G1 X97.926 Y112.540 E251.9157 F3600
G0 X98.491 Y112.540 F7200
G1 X158.571 Y52.460 E254.7416 F3600
G0 X159.136 Y52.460 F7200
G1 X99.016 Y112.580 E257.5695 F3600
G0 X99.541 Y112.621 F7200
G1 X159.702 Y52.460 E260.3993 F3600
G0 X160.268 Y52.460 F7200
G1 X99.998 Y112.729 E263.2341 F3600
G0 X100.454 Y112.839 F7200
G1 X160.833 Y52.460 E266.0742 F3600
G0 X161.399 Y52.460 F7200
G1 X109.585 Y104.274 E268.5113 F3600
G0 X110.444 Y103.981 F7200
G1 X161.965 Y52.460 E270.9347 F3600
G0 X162.530 Y52.460 F7200
G1 X111.047 Y103.943 E273.3563 F3600
G0 X111.557 Y103.999 F7200
G1 X163.096 Y52.460 E275.7806 F3600
G0 X163.662 Y52.460 F7200
G1 X112.003 Y104.119 E278.2105 F3600
G0 X112.390 Y104.298 F7200
G1 X164.227 Y52.460 E280.6487 F3600
G0 X164.793 Y52.460 F7200
G1 X112.737 Y104.516 E283.0973 F3600
G0 X113.049 Y104.770 F7200
G1 X165.359 Y52.460 E285.5578 F3600
G0 X165.924 Y52.460 F7200
G1 X113.328 Y105.057 E288.0318 F3600
G0 X113.561 Y105.390 F7200
G1 X166.490 Y52.460 E290.5214 F3600
G0 X167.056 Y52.460 F7200
G1 X113.753 Y105.763 E293.0286 F3600
G0 X113.902 Y106.179 F7200
G1 X167.622 Y52.460 E295.5554 F3600
G0 X168.187 Y52.460 F7200
G1 X113.996 Y106.652 E298.1044 F3600
G0 X114.008 Y107.205 F7200
G1 X168.753 Y52.460 E300.6794 F3600
G0 X169.319 Y52.460 F7200
G1 X113.882 Y107.897 E303.2870 F3600
G0 F3000 E302.2870
G0 X113.426 Y108.087 F7200
G0 X113.303 Y108.351
G0 X113.033 Y108.737
G0 X112.699 Y109.071
G0 X112.313 Y109.341
G0 X111.887 Y109.540
G0 X111.431 Y109.662
G0 X110.962 Y109.703
G0 X110.493 Y109.662
G0 X110.038 Y109.540
G0 X109.991 Y109.518
G0 X109.991 Y109.518
G0 X100.805 Y113.346
G0 X101.274 Y113.151
G0 F3000 E303.2870
G1 X107.943 Y106.482 E303.6007 F3600
G0 X107.905 Y107.085 F7200
G1 X101.668 Y113.323 E303.8941 F3600
G0 X102.699 Y113.989 F7200
G1 X108.260 Y108.428 E304.1556 F3600
G0 X108.478 Y108.775 F7200
G1 X103.004 Y114.250 E304.4131 F3600
G0 X103.309 Y114.510 F7200
G1 X108.732 Y109.087 E304.6682 F3600
G0 X109.019 Y109.366 F7200
G1 X103.581 Y114.804 E304.9240 F3600
G0 X103.841 Y115.109 F7200
G1 X109.352 Y109.599 E305.1832 F3600
G0 X109.725 Y109.791 F7200
G1 X104.101 Y115.415 E305.4478 F3600
G0 X104.316 Y115.766 F7200
G1 X110.141 Y109.940 E305.7218 F3600
G0 X110.614 Y110.034 F7200
G1 X104.531 Y116.117 E306.0079 F3600
G0 X104.727 Y116.486 F7200
G1 X111.167 Y110.046 E306.3108 F3600
G0 X111.859 Y109.920 F7200
G1 X104.893 Y116.886 E306.6384 F3600
G0 X105.059 Y117.286 F7200
G1 X169.850 Y52.494 E309.6860 F3600
G0 X170.358 Y52.552 F7200
G1 X167.681 Y55.230 E309.8120 F3600
G0 X168.500 Y54.976 F7200
G1 X170.815 Y52.661 E309.9209 F3600
G0 X171.240 Y52.802 F7200
G1 X169.094 Y54.947 E310.0218 F3600
G0 X169.597 Y55.010 F7200
G1 X171.640 Y52.967 E310.1179 F3600
G0 X172.004 Y53.169 F7200
G1 X170.039 Y55.134 E310.2103 F3600
G0 X170.425 Y55.314 F7200
G1 X172.355 Y53.384 E310.3011 F3600
G0 X172.669 Y53.636 F7200
G1 X170.767 Y55.537 E310.3905 F3600
G0 X171.075 Y55.795 F7200
G1 X172.974 Y53.896 E310.4799 F3600
G0 X173.241 Y54.194 F7200
G1 X171.349 Y56.087 E310.5689 F3600
G0 X171.582 Y56.420 F7200
G1 X173.502 Y54.499 E310.6592 F3600
G0 X173.723 Y54.844 F7200
G1 X171.769 Y56.798 E310.7511 F3600
G0 X171.913 Y57.220 F7200
G1 X173.938 Y55.195 E310.8464 F3600
G0 X174.106 Y55.592 F7200
G1 X172.000 Y57.698 E310.9454 F3600
G0 X172.004 Y58.261 F7200
G1 X174.265 Y55.999 E311.0518 F3600
G0 X174.375 Y56.455 F7200
G1 X171.863 Y58.967 E311.1700 F3600
G0 X174.455 Y56.941 F7200
G1 X113.715 Y117.681 E314.0270 F3600
G0 X113.877 Y118.084 F7200
G1 X174.496 Y57.465 E316.8783 F3600
G0 X174.502 Y58.025 F7200
G1 X113.986 Y118.541 E319.7248 F3600
G0 X114.020 Y119.072 F7200
G1 X174.502 Y58.591 E322.5697 F3600
G0 X174.502 Y59.722 F7200
G1 X113.438 Y120.786 E325.4419 F3600
G0 F3000 E324.4419
G0 X113.275 Y120.390 F7200
G0 X113.303 Y120.351
G0 X113.502 Y119.924
G0 X113.624 Y119.470
G0 X113.665 Y119.000
G0 X113.624 Y118.531
G0 X113.502 Y118.076
G0 X113.303 Y117.649
G0 X113.033 Y117.263
G0 X112.699 Y116.930
G0 X112.314 Y116.660
G0 X111.887 Y116.460
G0 X111.626 Y116.391
G0 X111.457 Y115.979
G0 F3000 E325.4419
G1 X167.049 Y60.387 E328.0568 F3600
G0 X167.381 Y60.620 F7200
G1 X111.908 Y116.093 E330.6661 F3600
G0 X112.308 Y116.259 F7200
G1 X167.760 Y60.807 E333.2743 F3600
G0 X168.182 Y60.951 F7200
G1 X112.666 Y116.467 E335.8856 F3600
G0 X112.989 Y116.710 F7200
G1 X168.661 Y61.038 E338.5043 F3600
G0 X169.223 Y61.041 F7200
G1 X113.272 Y116.993 E341.1360 F3600
G0 X113.511 Y117.319 F7200
G1 X169.928 Y60.901 E343.7897 F3600
G0 X166.499 Y59.805 F7200
G1 X110.282 Y116.022 E346.4340 F3600
G0 X109.304 Y116.435 F7200
G1 X166.276 Y59.463 E349.1138 F3600
G0 X166.191 Y56.719 F7200
G1 X105.177 Y117.733 E351.9837 F3600
G0 X105.287 Y118.189 F7200
G1 X165.938 Y57.537 E354.8366 F3600
G0 X165.909 Y58.132 F7200
G1 X105.361 Y118.680 E357.6846 F3600
G0 X105.402 Y119.205 F7200
G1 X165.972 Y58.635 E360.5336 F3600
G0 X166.096 Y59.077 F7200
G1 X105.423 Y119.750 E363.3875 F3600
G0 X105.423 Y120.316 F7200
G1 X108.396 Y117.342 E363.5274 F3600
G0 X107.984 Y118.320 F7200
G1 X105.423 Y120.882 E363.6478 F3600
G0 X105.423 Y121.447 F7200
G1 X107.901 Y118.969 E363.7644 F3600
G0 X107.941 Y119.494 F7200
G1 X105.423 Y122.013 E363.8829 F3600
G0 X105.423 Y122.579 F7200
G1 X108.055 Y119.946 E364.0067 F3600
G0 X108.221 Y120.346 F7200
G1 X105.423 Y123.144 E364.1383 F3600
G0 X105.423 Y123.710 F7200
G1 X108.429 Y120.704 E364.2797 F3600
G0 X108.672 Y121.027 F7200
G1 X105.423 Y124.276 E364.4326 F3600
G0 X105.423 Y124.841 F7200
G1 X108.955 Y121.309 E364.5987 F3600
G0 X109.281 Y121.549 F7200
G1 X105.423 Y125.407 E364.7802 F3600
G0 X105.423 Y125.973 F7200
G1 X109.643 Y121.753 E364.9787 F3600
G0 X110.046 Y121.915 F7200
G1 X105.423 Y126.538 E365.1961 F3600
G0 X105.423 Y127.104 F7200
G1 X110.503 Y122.024 E365.4351 F3600
G0 X111.035 Y122.058 F7200
G1 X105.423 Y127.670 E365.6990 F3600
G0 X105.423 Y128.235 F7200
G1 X111.694 Y121.964 E365.9940 F3600
G0 X112.748 Y121.476 F7200
G1 X105.423 Y128.801 E366.3386 F3600
G0 X105.423 Y129.367 F7200
G1 X174.502 Y60.288 E369.5878 F3600
G0 X174.502 Y60.854 F7200
G1 X105.423 Y129.933 E372.8371 F3600
G0 X105.423 Y130.498 F7200
G1 X174.502 Y61.419 E376.0864 F3600
G0 X174.502 Y61.985 F7200
G1 X105.423 Y131.064 E379.3356 F3600
G0 X105.423 Y131.630 F7200
G1 X174.502 Y62.551 E382.5849 F3600
G0 X174.502 Y63.116 F7200
G1 X105.423 Y132.195 E385.8342 F3600
G0 X105.423 Y132.761 F7200
G1 X174.502 Y63.682 E389.0834 F3600
G0 X174.502 Y64.248 F7200
G1 X105.423 Y133.327 E392.3327 F3600
G0 X105.423 Y133.892 F7200
G1 X174.502 Y64.813 E395.5820 F3600
G0 X174.502 Y65.379 F7200
G1 X105.423 Y134.458 E398.8313 F3600
G0 X105.423 Y135.024 F7200
G1 X174.502 Y65.945 E402.0805 F3600
G0 X174.502 Y66.511 F7200
G1 X105.423 Y135.589 E405.3298 F3600
G0 X105.423 Y136.155 F7200
G1 X174.502 Y67.076 E408.5791 F3600
G0 X174.502 Y67.642 F7200
G1 X105.423 Y136.721 E411.8283 F3600
G0 X105.423 Y137.286 F7200
G1 X174.502 Y68.208 E415.0776 F3600
G0 X174.502 Y68.773 F7200
G1 X105.423 Y137.852 E418.3269 F3600
G0 X105.423 Y138.418 F7200
G1 X174.502 Y69.339 E421.5761 F3600
G0 X174.502 Y69.905 F7200
G1 X105.423 Y138.983 E424.8254 F3600
G0 X105.423 Y139.549 F7200
G1 X174.502 Y70.470 E428.0747 F3600
G0 X174.502 Y71.036 F7200
G1 X105.423 Y140.115 E431.3239 F3600
G0 X105.423 Y140.681 F7200
G1 X174.501 Y71.602 E434.5732 F3600
G0 X174.501 Y72.167 F7200
G1 X105.423 Y141.246 E437.8225 F3600
G0 X105.423 Y141.812 F7200
G1 X174.501 Y72.733 E441.0717 F3600
G0 X174.501 Y73.299 F7200
G1 X105.423 Y142.378 E444.3210 F3600
G0 X105.462 Y142.904 F7200
G1 X174.501 Y73.865 E447.5684 F3600
G0 X174.501 Y74.430 F7200
G1 X109.721 Y139.210 E450.6155 F3600
G0 X110.523 Y138.974 F7200
G1 X174.501 Y74.996 E453.6248 F3600
G0 X174.501 Y75.562 F7200
G1 X111.114 Y138.949 E456.6064 F3600
G0 X111.614 Y139.015 F7200
G1 X174.501 Y76.127 E459.5644 F3600
G0 X174.501 Y76.693 F7200
G1 X112.054 Y139.141 E462.5018 F3600
G0 X112.439 Y139.321 F7200
G1 X174.501 Y77.259 E465.4210 F3600
G0 X174.501 Y77.824 F7200
G1 X112.780 Y139.546 E468.3242 F3600
G0 X113.085 Y139.806 F7200
G1 X174.501 Y78.390 E471.2130 F3600
G0 X174.501 Y78.956 F7200
G1 X113.358 Y140.099 E474.0890 F3600
G0 X113.591 Y140.432 F7200
G1 X174.501 Y79.521 E476.9541 F3600
G0 X174.501 Y80.087 F7200
G1 X113.776 Y140.812 E479.8104 F3600
G0 X113.918 Y141.237 F7200
G1 X174.501 Y80.653 E482.6601 F3600
G0 X174.501 Y81.218 F7200
G1 X114.002 Y141.718 E485.5058 F3600
G0 X114.001 Y142.284 F7200
G1 X174.501 Y81.784 E488.3516 F3600
G0 X174.501 Y82.350 F7200
G1 X113.855 Y142.996 E491.2042 F3600
G0 F3000 E490.2042
G0 X113.518 Y142.863 F7200
G0 X113.624 Y142.469
G0 X113.665 Y142.000
G0 X113.624 Y141.530
G0 X113.502 Y141.076
G0 X113.303 Y140.649
G0 X113.033 Y140.263
G0 X112.699 Y139.930
G0 X112.314 Y139.659
G0 X111.886 Y139.460
G0 X111.431 Y139.338
G0 X110.962 Y139.297
G0 X110.493 Y139.338
G0 X110.038 Y139.460
G0 X109.611 Y139.659
G0 X109.225 Y139.930
G0 X108.892 Y140.263
G0 X108.621 Y140.649
G0 X108.508 Y140.891
G0 X108.173 Y140.759
